!!!!SEGMENT: pl-stab--77a--002_wygrzywalski-jozef--msza-gloria.krn
!!!cenid: 18xx:3412
!!!COM: Wygrzywalski, Józef
!!!COM-rismID: pe30109448
!!!CDT: 1798-~1857
!!!CNT: Polish
!!!OPR: Msza
!!!OTL: Gloria
!!!OMV: 002
!!!PDT:
!!!AGN:
!!!SMS-siglum: PL-STAb
!!!SMS-shelfmark: 77a
!!!SMS-shelfwork: 001-002 M
!!!SMS-variant:
!!!SMS-altvar:
!!!NIFC-rismSourceID: 1001167521
!!!NIFC-rismChildID: 1001167521
!!!NIFC-islandoraID: pl-stab:4717
!!!URL-pdf-islandora: https://repozytorium.nifc.pl/islandora/object/pl-stab%3A4717/datastream/PDF/view
!!!URL-scan: https://polish.musicsources.pl/pl/lokalizacje/galeria/rekopisy/4558 @EN{Scan on Polish Music Sources Website} @PL{Skany w portalu Dziedzictwo Muzyki Polskiej w otwartym dostępie}
!!!ONB-nifc: UWAGA: części Mszy: 1. Kyrie, 2. Gloria, 3. Credo, 4. Sanctus, 5. Benedictus, 6. Agnus Dei. Na f. 1r głosu cl 2 zapisana partytura org dla części Gloria, pochodzącej z innej mszy.
!!!AIN: 1 alto 1 bass 2 clars 2 cor 1 organ 1 soprn 1 tenor 2 violn
!!!key: F
**kern	**fba	**dynam	**kern	**dynam	**kern	**dynam	**kern	**text	**text	**kern	**kern	**text	**dynam	**kern	**text	**kern	**dynam	**kern	**dynam	**kern	**dynam	**kern	**dynam
*	*	*	*group4	*	*group4	*	*group3	*	*	*group3	*group3	*	*	*group3	*	*group2	*	*group2	*	*group1	*	*group1	*
*part11	*	*part11	*part10	*part10	*part9	*part9	*part8	*part8	*part8	*part7	*part6	*part6	*part6	*part5	*part5	*part4	*part4	*part3	*part3	*part2	*part2	*part1	*part1
*staff11	*	*	*staff10	*	*staff9	*	*staff8	*staff8	*staff8	*staff7	*staff6	*staff6	*	*staff5	*staff5	*staff4	*	*staff3	*	*staff2	*	*staff1	*
*I"Organo	*	*	*I"Violino II	*	*I"Violino I	*	*I"Baſso	*	*	*I"Tenor	*I"Alto	*	*	*I"Canto	*	*I"Corno 2do in F	*	*I"Corno 1mo in F	*	*I"Clarineto 2do	*	*I"Clarinetto 1mo in C	*
*I'org	*	*	*I'vl 2	*	*I'vl 1	*	*I'B	*	*	*I'T	*I'A	*	*	*I'S	*	*I'cor 2 in F	*	*I'cor 1 in F	*	*I'cl 2	*	*I'cl 1 in C	*
*Iorgan	*	*	*Ivioln	*	*Ivioln	*	*Ibass	*	*	*Itenor	*Ialto	*	*	*Isoprn	*	*Icor	*	*Icor	*	*Iclars	*	*Iclars	*
*ICklav	*	*	*ICstr	*	*ICstr	*	*ICvox	*	*	*ICvox	*ICvox	*	*	*ICvox	*	*ICbras	*	*ICbras	*	*ICww	*	*ICww	*
*IGcont	*	*	*IGacmp	*	*IGacmp	*	*IGcoro	*	*	*IGcoro	*IGcoro	*	*	*IGcoro	*	*IGacmp	*	*IGacmp	*	*IGacmp	*	*IGacmp	*
*oclefF3	*	*	*	*	*	*	*oclefF3	*	*	*	*	*	*	*	*	*	*	*	*	*	*	*	*
*clefF4	*	*	*clefG2	*	*clefG2	*	*clefF4	*	*	*clefC4	*clefC3	*	*	*clefC1	*	*clefG2	*	*clefG2	*	*clefG2	*	*clefG2	*
*	*	*	*	*	*	*	*	*	*	*	*	*	*	*	*	*ITrd4c7	*	*ITrd4c7	*	*	*	*	*
*k[b-]	*	*	*k[b-]	*	*k[b-]	*	*k[b-]	*	*	*k[b-]	*k[b-]	*	*	*k[b-]	*	*k[b-]	*	*k[b-]	*	*k[b-]	*	*k[b-]	*
*F:	*	*	*F:	*	*F:	*	*F:	*	*	*F:	*F:	*	*	*F:	*	*	*	*	*	*F:	*	*F:	*
*M4/4	*	*	*M4/4	*	*M4/4	*	*M4/4	*	*	*M4/4	*M4/4	*	*	*M4/4	*	*M4/4	*	*M4/4	*	*M4/4	*	*M4/4	*
*met(c)	*	*	*met(c)	*	*met(c)	*	*met(c)	*	*	*met(c)	*met(c)	*	*	*met(c)	*	*met(c)	*	*met(c)	*	*met(c)	*	*met(c)	*
=1	=1	=1	=1	=1	=1	=1	=1	=1	=1	=1	=1	=1	=1	=1	=1	=1	=1	=1	=1	=1	=1	=1	=1
*	*	*	*	*	*	*below	*	*	*	*	*2\right	*	*	*2\right	*	*	*	*	*	*	*	*	*
!LO:TX:t=P:problem=błędnie klucz F3	!	!	!	!	!	!	!LO:TX:t=P:problem=błędnie klucz F3	!	!	!	!	!	!	!	!	!	!	!	!	!	!	!	!
!LO:TX:a:i:rj:t=Allo spirituoso	!	!LO:DY:rj	!LO:TX:a:i:rj:t=Allo spirituoso	!LO:DY:rj	!LO:TX:a:i:rj:t=Allo spiritioso	!	!	!	!	!LO:TX:t=P:problem=brak partii w źródle	!LO:TX:a:i:rj:t=Allo spirituoso	!	!	!LO:TX:a:i:rj:t=Allo spirit	!	!LO:TX:a:i:rj:t=Allo spirituoso	!LO:DY:b:rj	!LO:TX:a:i:rj:t=Allo spirituoso	!LO:HP:t=cres	!LO:TX:a:i:rj:t=Allo spirituoso	!LO:DY:rj	!LO:TX:a:i:rj:t=Allo spirituoso	!
1C	.	p	8c/L	p	(16cc\LL	p	2C/	Glo-	.	1ryy	2c\	Glo-	.	2cc\	Glo-	1C	p	1c	<	1c	p	1cc	p
.	.	.	.	.	16bn\	.	.	.	.	.	.	.	.	.	.	.	.	.	.	.	.	.	.
.	.	.	8c/	.	16cc\	.	.	.	.	.	.	.	.	.	.	.	.	.	.	.	.	.	.
.	.	.	.	.	16b'\JJ)	.	.	.	.	.	.	.	.	.	.	.	.	.	.	.	.	.	.
.	.	.	8c/	.	(16cc\LL	.	.	.	.	.	.	.	.	.	.	.	.	.	.	.	.	.	.
.	.	.	.	.	16b\	.	.	.	.	.	.	.	.	.	.	.	.	.	.	.	.	.	.
.	.	.	8c/J	.	16cc\	.	.	.	.	.	.	.	.	.	.	.	.	.	.	.	.	.	.
.	.	.	.	.	16b'\JJ)	.	.	.	.	.	.	.	.	.	.	.	.	.	.	.	.	.	.
.	.	.	8c/L	.	(16cc\LL	.	4C/	-ri-	.	.	4c\	-ri-	.	4cc\	-ri-	.	.	.	.	.	.	.	.
.	.	.	.	.	16b\	.	.	.	.	.	.	.	.	.	.	.	.	.	.	.	.	.	.
!	!	!	!	!	!LO:TX:b:t=cres cen do:problem=dynamics with extention lines	!LO:HP:t=cres cen do:ext=s	!	!	!	!	!	!	!	!	!	!	!	!	!	!	!	!	!
.	.	.	8c/	.	16cc\	<	.	.	.	.	.	.	.	.	.	.	.	.	.	.	.	.	.
.	.	.	.	.	16b'\JJ)	.	.	.	.	.	.	.	.	.	.	.	.	.	.	.	.	.	.
.	.	.	8c/	.	(16cc\LL	.	4C/	-a	.	.	4c\	-a	.	4cc\	-a	.	.	.	.	.	.	.	.
.	.	.	.	.	16b\	.	.	.	.	.	.	.	.	.	.	.	.	.	.	.	.	.	.
.	.	.	8c/J	.	16cc\	.	.	.	.	.	.	.	.	.	.	.	.	.	.	.	.	.	.
.	.	.	.	.	16dd\JJ)	.	.	.	.	.	.	.	.	.	.	.	.	.	.	.	.	.	.
=2	=2	=2	=2	=2	=2	=2	=2	=2	=2	=2	=2	=2	=2	=2	=2	=2	=2	=2	=2	=2	=2	=2	=2
*tremolo	*	*	*	*	*	*	*	*	*	*	*	*	*below	*	*	*	*	*	*	*	*	*	*
!	!	!LO:HP:t=cres	!LO:TX:b:t=cres sen:problem=dynamics with extention lines	!LO:HP:t=cre sen:ext=s	!	!	!	!	!	!	!	!	!	!	!	!	!	!	!LO:HP:t=cres	!	!	!	!LO:HP:t=cres
8C/L	3	<	(16cc\LL	<	(16ee\LL	.	4C/	in	.	1ryy	4cc\	in	f	4ee\	in	1C	.	1c	<	1cc	<	1ee	<
.	.	.	16bn\)	.	16dd#X\	.	.	.	.	.	.	.	.	.	.	.	.	.	.	.	.	.	.
8C/	.	.	(16cc\	.	16ee\	.	.	.	.	.	.	.	.	.	.	.	.	.	.	.	.	.	.
.	.	.	16b\JJ)	.	16dd#\JJ)	.	.	.	.	.	.	.	.	.	.	.	.	.	.	.	.	.	.
8C/	.	.	(16cc\LL	.	(16ee\LL	.	4C/	ex-	.	.	4cc\	ex-	.	4ee\	ex-	.	.	.	.	.	.	.	.
.	.	.	16b\)	.	16dd#\	.	.	.	.	.	.	.	.	.	.	.	.	.	.	.	.	.	.
8C/J	.	.	(16cc\	.	16ee\	.	.	.	.	.	.	.	.	.	.	.	.	.	.	.	.	.	.
.	.	.	16b\JJ)	.	16dd#\JJ)	.	.	.	.	.	.	.	.	.	.	.	.	.	.	.	.	.	.
8C/L	.	.	(16cc\LL	.	(16ee\LL	.	4C/	-cel-	.	.	4cc\	-cel-	.	4ee\	-cel-	.	.	.	.	.	.	.	.
.	.	.	16b\)	.	16dd#\	[	.	.	.	.	.	.	.	.	.	.	.	.	.	.	.	.	.
8C/	.	.	(16cc\	.	16ee\	.	.	.	.	.	.	.	.	.	.	.	.	.	.	.	.	.	.
.	.	.	16b\JJ)	.	16dd#\JJ)	.	.	.	.	.	.	.	.	.	.	.	.	.	.	.	.	.	.
8C/	.	.	(16cc\LL	.	(16ee\LL	.	4C/	-sis	.	.	4cc\	-sis	.	4ee\	-sis	.	.	.	.	.	.	.	.
.	.	.	16b\)	[	16dd#\	.	.	.	.	.	.	.	.	.	.	.	.	.	.	.	.	.	.
8C/J	.	.	(16cc\	.	16ee\	.	.	.	.	.	.	.	.	.	.	.	.	.	.	.	.	.	.
.	.	.	16dd\JJ)	.	16ff\JJ)	.	.	.	.	.	.	.	.	.	.	.	.	.	.	.	.	.	.
=3	=3	=3	=3	=3	=3	=3	=3	=3	=3	=3	=3	=3	=3	=3	=3	=3	=3	=3	=3	=3	=3	=3	=3
(16C/LL	5 3	<	16ee\LL	.	(16gg\LL	f	1c	De-	.	1ryy	1ee	De-	ff	1gg	De-	1c	f	1g	f	1ee	[[	1gg	f
16BBn/	.	.	16dd#X\	.	16ff#X\	.	.	.	.	.	.	.	.	.	.	.	.	.	.	.	.	.	.
16C/	.	.	16ee\	.	16gg\)	.	.	.	.	.	.	.	.	.	.	.	.	.	.	.	.	.	.
16BB/	.	.	16dd#\JJ	.	16ff#\JJ	.	.	.	.	.	.	.	.	.	.	.	.	.	.	.	.	.	.
*	*	*	*	*	*rep	*	*	*	*	*	*	*	*	*	*	*	*	*	*	*	*	*	*
16C/	.	.	16ee\LL	f	(16gg\LL	.	.	.	.	.	.	.	.	.	.	.	.	.	.	.	.	.	.
16BB/	.	.	16dd#\	.	16ff#\	.	.	.	.	.	.	.	.	.	.	.	.	.	.	.	.	.	.
16C/	.	.	16ee\	.	16gg\)	.	.	.	.	.	.	.	.	.	.	.	.	.	.	.	.	.	.
16BB/JJ)	.	.	16dd#\JJ	.	16ff#\JJ	.	.	.	.	.	.	.	.	.	.	.	.	.	.	.	.	.	.
*	*	*	*	*	*Xrep	*	*	*	*	*	*	*	*	*	*	*	*	*	*	*	*	*	*
*	*	*	*	*	*rep	*	*	*	*	*	*	*	*	*	*	*	*	*	*	*	*	*	*
(16C/LL	.	[	16ee\LL	.	(16gg\LL	.	.	.	.	.	.	.	.	.	.	.	.	.	.	.	.	.	.
16BB/	.	.	16dd#\	.	16ff#\	.	.	.	.	.	.	.	.	.	.	.	.	.	.	.	.	.	.
16C/	.	.	16ee\	.	16gg\)	.	.	.	.	.	.	.	.	.	.	.	.	.	.	.	.	.	.
16BB/	.	.	16dd#\JJ	.	16ff#\JJ	.	.	.	.	.	.	.	.	.	.	.	.	.	.	.	.	.	.
*	*	*	*	*	*Xrep	*	*	*	*	*	*	*	*	*	*	*	*	*	*	*	*	*	*
16C/	.	.	16ee\LL	.	(16gg\LL	ff	.	.	.	.	.	.	.	.	.	.	.	.	.	.	.	.	.
16BB/	.	.	16dd#\	.	16ff#\	.	.	.	.	.	.	.	.	.	.	.	.	.	.	.	.	.	.
16C/	.	.	16ee\	.	16gg\)	.	.	.	.	.	.	.	.	.	.	.	.	.	.	.	.	.	.
16BB/JJ)	.	.	16ff\JJ	.	16aa\JJ	.	.	.	.	.	.	.	.	.	.	.	.	.	.	.	.	.	.
=4	=4	=4	=4	=4	=4	=4	=4	=4	=4	=4	=4	=4	=4	=4	=4	=4	=4	=4	=4	=4	=4	=4	=4
!	!	!LO:DY:rj	!	!	!	!	!	!	!	!	!	!	!	!	!	!	!	!	!	!	!	!	!
4C/	7 5 3	f	4gg\	.	4bb-'^<\	.	4c\	-o	.	1ryy	4gg\	-o	.	4bb-\	-o	4c/	.	4g\	.	4gg\|	ff	4bb-\	.
4r	.	.	4r	.	4r	.	4r	.	.	.	4r	.	.	4r	.	4r	.	4r	.	4r	.	4r	.
2r	.	.	2r	.	2r	.	2r	.	.	.	2r	.	.	2r	.	2r	.	2r	.	2r	.	2r	.
!	!	!	!	!	!	!	!	!	!	!	!	!	!	!LO:LB:g=original	!	!	!	!	!	!	!	!	!
=5	=5	=5	=5	=5	=5	=5	=5	=5	=5	=5	=5	=5	=5	=5	=5	=5	=5	=5	=5	=5	=5	=5	=5
!	!	!	!LO:TX:b:rj:t=pizicat	!	!LO:TX:b:t=pizici(...)t	!	!	!	!	!	!	!	!	!	!	!LO:TX:a:t=4	!	!LO:TX:a:t=4	!	!LO:TX:a:t=4	!	!LO:TX:a:t=4	!
4B-\|	.	p	4b-/	.	4b-\	.	4B-\	Et	.	1ryy	4b-'\	et	p	4b-\	Et	00r	.	00r	.	00r	.	00r	.
4r	.	.	4r	.	4r	.	4r	.	.	.	4r	.	.	4r	.	.	.	.	.	.	.	.	.
4A\|	.	.	4a/	.	4a\	.	4A\	in	.	.	4a'\	in	.	4a\	in	.	.	.	.	.	.	.	.
4r	.	.	4r	.	4r	.	4r	.	.	.	4r	.	.	4r	.	.	.	.	.	.	.	.	.
!	!	!	!LO:LB:g=original	!	!LO:LB:g=original	!	!	!	!	!	!	!	!	!	!	!	!	!	!	!	!	!	!
=6	=6	=6	=6	=6	=6	=6	=6	=6	=6	=6	=6	=6	=6	=6	=6	=6	=6	=6	=6	=6	=6	=6	=6
4G\|	.	.	4g/	.	4g/	.	4G\	ter-	.	1ryy	4g'\	ter-	.	4g\	ter-	.	.	.	.	.	.	.	.
4r	.	.	4r	.	4r	.	4r	.	.	.	4r	.	.	4r	.	.	.	.	.	.	.	.	.
4d\|	.	.	4dd\	.	4dd\	.	4d\	-ra	.	.	4dd'\	-ra	.	4dd\	-ra	.	.	.	.	.	.	.	.
4r	.	.	4r	.	4r	.	4r	.	.	.	4r	.	.	4r	.	.	.	.	.	.	.	.	.
=7	=7	=7	=7	=7	=7	=7	=7	=7	=7	=7	=7	=7	=7	=7	=7	=7	=7	=7	=7	=7	=7	=7	=7
8E\	.	.	4e/	.	4e/	.	4E\	pax	.	1ryy	4e'\	pax	.	4e/	pax	.	.	.	.	.	.	.	.
8r	.	.	.	.	.	.	.	.	.	.	.	.	.	.	.	.	.	.	.	.	.	.	.
4r	.	.	4r	.	4r	.	4r	.	.	.	4r	.	.	4r	.	.	.	.	.	.	.	.	.
8F\|	.	.	4f/	.	4f/	.	4F\	ho-	.	.	4f'\	ho-	.	4f/	ho-	.	.	.	.	.	.	.	.
4r	.	.	.	.	.	.	.	.	.	.	.	.	.	.	.	.	.	.	.	.	.	.	.
.	.	.	4r	.	4r	.	4r	.	.	.	4r	.	.	4r	.	.	.	.	.	.	.	.	.
8r	.	.	.	.	.	.	.	.	.	.	.	.	.	.	.	.	.	.	.	.	.	.	.
=8	=8	=8	=8	=8	=8	=8	=8	=8	=8	=8	=8	=8	=8	=8	=8	=8	=8	=8	=8	=8	=8	=8	=8
4BB-'>/	.	.	4B-/	.	4B-/	.	4BB-/	-mi-	.	1ryy	4d'\	-mi-	.	4g/	-mi-	.	.	.	.	.	.	.	.
4r	.	.	4r	.	4r	.	4r	.	.	.	4r	.	.	4r	.	.	.	.	.	.	.	.	.
!	!	!	!LO:TX:b:t=arco	!	!	!	!	!	!	!	!	!	!	!	!	!	!	!	!	!	!	!	!
4C'>/	.	.	4c/	.	4c/	.	4C/	-ni-	.	.	4f'\	-ni-	.	4e/	-ni-	.	.	.	.	.	.	.	.
!	!	!	!	!	!LO:TX:b:t=arco	!	!	!	!	!	!	!	!	!	!	!	!	!	!	!	!	!	!
4r	.	.	4r	.	4r	.	4r	.	.	.	4r	.	.	4r	.	.	f	.	.	.	.	.	.
!LO:LB:g=original	!	!	!	!	!	!	!LO:LB:g=original	!	!	!	!LO:LB:g=original	!	!	!	!	!	!	!	!	!	!	!	!
=9	=9	=9	=9	=9	=9	=9	=9	=9	=9	=9	=9	=9	=9	=9	=9	=9	=9	=9	=9	=9	=9	=9	=9
*	*	*	*tremolo	*	*	*	*	*	*	*	*	*	*	*	*	*	*	*	*	*	*	*	*
!	!	!LO:DY:rj	!	!LO:DY:rj	!	!	!	!	!	!	!	!	!	!	!	!	!	!	!	!	!	!	!
8FF/L	8 3	ff	(16A/LL	ff	2f 2A/	.	4F\	-bus	.	1ryy	4f\	-bus	.	4f/	-bus	1F	.	1f	f	1a	.	1ff	ff
.	.	.	16c/	.	.	.	.	.	.	.	.	.	.	.	.	.	.	.	.	.	.	.	.
8FF/	.	.	16A/	.	.	.	.	.	.	.	.	.	.	.	.	.	.	.	.	.	.	.	.
.	.	.	16c/	.	.	.	.	.	.	.	.	.	.	.	.	.	.	.	.	.	.	.	.
8FF/	.	.	16A/	.	.	.	4F\	lau-	.	.	4a\	lau-	.	4ff\	Lau-	.	.	.	.	.	.	.	.
.	.	.	16c/	.	.	.	.	.	.	.	.	.	.	.	.	.	.	.	.	.	.	.	.
8FF/J	.	.	16A/	.	.	.	.	.	.	.	.	.	.	.	.	.	.	.	.	.	.	.	.
.	.	.	16c/JJ)	.	.	.	.	.	.	.	.	.	.	.	.	.	.	.	.	.	.	.	.
8FF/L	.	.	(16A/LL	.	(16ff\LL	ff	4F\	-da-	.	.	4a\	-da-	.	4ff\	-da-	.	.	.	.	.	.	.	.
.	.	.	16c/	.	16ee\	.	.	.	.	.	.	.	.	.	.	.	.	.	.	.	.	.	.
8FF/	.	.	16A/	.	16dd\	.	.	.	.	.	.	.	.	.	.	.	.	.	.	.	.	.	.
.	.	.	16c/	.	16cc\JJ	.	.	.	.	.	.	.	.	.	.	.	.	.	.	.	.	.	.
8FF/	.	.	16A/	.	16b-/LL	.	4F\	-mus	.	.	4a\	-mus	.	4ff\	-mus	.	.	.	.	.	.	.	.
.	.	.	16c/	.	16a/	.	.	.	.	.	.	.	.	.	.	.	.	.	.	.	.	.	.
8FF/J	.	.	16A/	.	16g/)	.	.	.	.	.	.	.	.	.	.	.	.	.	.	.	.	.	.
.	.	.	16c/JJ)	.	16f/JJ	.	.	.	.	.	.	.	.	.	.	.	.	.	.	.	.	.	.
*	*	*	*Xtremolo	*	*	*	*	*	*	*	*	*	*	*	*	*	*	*	*	*	*	*	*
=10	=10	=10	=10	=10	=10	=10	=10	=10	=10	=10	=10	=10	=10	=10	=10	=10	=10	=10	=10	=10	=10	=10	=10
*	*	*	*	*	*	*	*	*	*	*	*	*	*	*	*	*tremolo	*	*tremolo	*	*tremolo	*	*tremolo	*
*	*	*	*	*	*	*	*2\right	*	*	*	*	*	*	*	*	*	*	*2\right	*	*2\right	*	*2\right	*
!	!	!	!	!	!	!	!LO:N:vis=2	!	!	!	!	!	!	!	!	!	!	!	!	!	!	!	!
8FF/L	-7 5	.	8A/	.	8e-X 8c/	.	1F	te	.	1ryy	1cc	te	.	1ee-X	te	8F/L	.	8f\L	.	8ee-X\L	.	8aa\L	.
8FF/	.	.	4A/	.	4e- 4c/	.	.	.	.	.	.	.	.	.	.	8F/	.	8f\	.	8ee-\	.	8aa\	.
8FF/	.	.	.	.	.	.	.	.	.	.	.	.	.	.	.	8F/	.	8f\	.	8ee-\	.	8aa\	.
8FF/J	.	.	4A/	.	4e- 4c/	.	.	.	.	.	.	.	.	.	.	8F/J	.	8f\J	.	8ee-\J	.	8aa\J	.
8FF/L	.	.	.	.	.	.	.	.	.	.	.	.	.	.	.	8F/L	.	8f\L	.	8ee-\L	.	8aa\L	.
8FF/	.	.	8A/	.	8e- 8c/	.	.	.	.	.	.	.	.	.	.	8F/	.	8f\	.	8ee-\	.	8aa\	.
8FF/	.	.	16A/LL	.	(16f/LL	.	.	.	.	.	.	.	.	.	.	8F/	.	8f\	.	8ee-\	.	8aa\	.
.	.	.	16c/	.	16e-/	.	.	.	.	.	.	.	.	.	.	.	.	.	.	.	.	.	.
8FF/J	.	.	16A/	.	16d/	.	.	.	.	.	.	.	.	.	.	8F/J	.	8f\J	.	8ee-\J	.	8aa\J	.
.	.	.	16c/JJ	.	16e-/JJ)	.	.	.	.	.	.	.	.	.	.	.	.	.	.	.	.	.	.
*	*	*	*	*	*	*	*	*	*	*	*	*	*	*	*	*Xtremolo	*	*Xtremolo	*	*Xtremolo	*	*Xtremolo	*
=11	=11	=11	=11	=11	=11	=11	=11	=11	=11	=11	=11	=11	=11	=11	=11	=11	=11	=11	=11	=11	=11	=11	=11
*	*	*	*tremolo	*	*	*	*	*	*	*	*	*	*	*	*	*	*	*	*	*	*	*	*
8FF/L	6 4	.	16B-/LL	.	4d 4B-/	.	4F\	be-	.	1ryy	4b-\	be-	.	4dd\	be-	1F	.	1f	.	1dd	.	1bb-	.
.	.	.	16d/	.	.	.	.	.	.	.	.	.	.	.	.	.	.	.	.	.	.	.	.
8FF/	.	.	16B-/	.	.	.	.	.	.	.	.	.	.	.	.	.	.	.	.	.	.	.	.
.	.	.	16d/	.	.	.	.	.	.	.	.	.	.	.	.	.	.	.	.	.	.	.	.
8FF/	.	.	16B-/	.	4r	.	8F\	-ne-	.	.	8b-\	-ne-	.	8dd\	-ne-	.	.	.	.	.	.	.	.
.	.	.	16d/	.	.	.	.	.	.	.	.	.	.	.	.	.	.	.	.	.	.	.	.
8FF/J	.	.	16B-/	.	.	.	8F\	-di-	.	.	8b-\	-di-	.	8dd\	-di-	.	.	.	.	.	.	.	.
.	.	.	16d/JJ	.	.	.	.	.	.	.	.	.	.	.	.	.	.	.	.	.	.	.	.
8FF/L	.	.	16B-/LL	.	(16ccc\LL	.	4F\	-ci-	.	.	4b-\	-ci-	.	4dd\	-ci-	.	.	.	.	.	.	.	.
.	.	.	16d/	.	16bb-\	.	.	.	.	.	.	.	.	.	.	.	.	.	.	.	.	.	.
8FF/	.	.	16B-/	.	16aa\	.	.	.	.	.	.	.	.	.	.	.	.	.	.	.	.	.	.
.	.	.	16d/	.	16gg\JJ	.	.	.	.	.	.	.	.	.	.	.	.	.	.	.	.	.	.
8FF/	.	.	16B-/	.	16ff\LL	.	4F\	-mus	.	.	4b-\	-mus	.	4dd\	-mus	.	.	.	.	.	.	.	.
.	.	.	16d/	.	16ee\	.	.	.	.	.	.	.	.	.	.	.	.	.	.	.	.	.	.
8FF/J	.	.	16B-/	.	16dd\	.	.	.	.	.	.	.	.	.	.	.	.	.	.	.	.	.	.
.	.	.	16d/JJ	.	16cc\JJ)	.	.	.	.	.	.	.	.	.	.	.	.	.	.	.	.	.	.
*	*	*	*Xtremolo	*	*	*	*	*	*	*	*	*	*	*	*	*	*	*	*	*	*	*	*
=12	=12	=12	=12	=12	=12	=12	=12	=12	=12	=12	=12	=12	=12	=12	=12	=12	=12	=12	=12	=12	=12	=12	=12
*	*	*	*	*	*	*	*	*	*	*	*	*	*	*	*	*tremolo	*	*tremolo	*	*tremolo	*	*tremolo	*
8FF/L	n7 4	.	8e/	.	8b- 8g/	.	1F	te	.	1ryy	1b-	te	.	1een	te	8F/L	.	8f\L	.	8een\L	.	8ccc\L	.
8FF/	.	.	4e/	.	4b- 4g/	.	.	.	.	.	.	.	.	.	.	8F/	.	8f\	.	8ee\	.	8ccc\	.
8FF/	.	.	.	.	.	.	.	.	.	.	.	.	.	.	.	8F/	.	8f\	.	8ee\	.	8ccc\	.
8FF/J	.	.	4e/	.	4b- 4g/	.	.	.	.	.	.	.	.	.	.	8F/J	.	8f\J	.	8ee\J	.	8ccc\J	.
8FF/L	.	.	.	.	.	.	.	.	.	.	.	.	.	.	.	8F/L	.	8f\L	.	8ee\L	.	8ccc\L	.
8FF/	.	.	8e/	.	8b- 8g/	.	.	.	.	.	.	.	.	.	.	8F/	.	8f\	.	8ee\	.	8ccc\	.
8FF/	.	.	16e/LL	.	(16cc/LL	.	.	.	.	.	.	.	.	.	.	8F/	.	8f\	.	8ee\	.	8ccc\	.
.	.	.	16g/	.	16b-/)	.	.	.	.	.	.	.	.	.	.	.	.	.	.	.	.	.	.
8FF/J	.	.	16e/	.	(16a/	.	.	.	.	.	.	.	.	.	.	8F/J	.	8f\J	.	8ee\J	.	8ccc\J	.
.	.	.	16g/JJ	.	16b-/JJ)	.	.	.	.	.	.	.	.	.	.	.	.	.	.	.	.	.	.
*	*	*	*	*	*	*	*	*	*	*	*	*	*	*	*	*Xtremolo	*	*Xtremolo	*	*Xtremolo	*	*Xtremolo	*
!	!	!	!LO:LB:g=original	!	!LO:LB:g=original	!	!	!	!	!	!	!	!	!	!	!	!	!	!	!	!	!	!
=13	=13	=13	=13	=13	=13	=13	=13	=13	=13	=13	=13	=13	=13	=13	=13	=13	=13	=13	=13	=13	=13	=13	=13
*	*	*	*tremolo	*	*	*	*	*	*	*	*	*	*	*	*	*	*	*	*	*	*	*	*
8FF/L	8	.	16A/LL	.	4a 4f/	.	4F\	a-	.	1ryy	4a\	a-	.	4ff\	a-	1F	.	1f	.	1cc	.	1ff	.
.	.	.	16c/	.	.	.	.	.	.	.	.	.	.	.	.	.	.	.	.	.	.	.	.
8FF/	.	.	16A/	.	.	.	.	.	.	.	.	.	.	.	.	.	.	.	.	.	.	.	.
.	.	.	16c/	.	.	.	.	.	.	.	.	.	.	.	.	.	.	.	.	.	.	.	.
8FF/	.	.	16A/	.	4r	.	4F\	-do-	.	.	4a\	-do-	.	4ff\	-do-	.	.	.	.	.	.	.	.
.	.	.	16c/	.	.	.	.	.	.	.	.	.	.	.	.	.	.	.	.	.	.	.	.
8FF/J	.	.	16A/	.	.	.	.	.	.	.	.	.	.	.	.	.	.	.	.	.	.	.	.
.	.	.	16c/JJ	.	.	.	.	.	.	.	.	.	.	.	.	.	.	.	.	.	.	.	.
*	*	*	*rep	*	*	*	*	*	*	*	*	*	*	*	*	*	*	*	*	*	*	*	*
8FF/L	.	.	16A/LL	.	(16ff\LL	.	4F\	-ra-	.	.	4a\	-ra-	.	4ff\	-ra-	.	.	.	.	.	.	.	.
.	.	.	16c/	.	16ee\	.	.	.	.	.	.	.	.	.	.	.	.	.	.	.	.	.	.
8FF/	.	.	16A/	.	16dd\	.	.	.	.	.	.	.	.	.	.	.	.	.	.	.	.	.	.
.	.	.	16c/	.	16cc\JJ	.	.	.	.	.	.	.	.	.	.	.	.	.	.	.	.	.	.
8FF/	.	.	16A/	.	16b-/LL	.	4F\	-mus	.	.	4a\	-mus	.	4ff\	-mus	.	.	.	.	.	.	.	.
.	.	.	16c/	.	16a/	.	.	.	.	.	.	.	.	.	.	.	.	.	.	.	.	.	.
8FF/J	.	.	16A/	.	16g/)	.	.	.	.	.	.	.	.	.	.	.	.	.	.	.	.	.	.
.	.	.	16c/JJ	.	16f/JJ	.	.	.	.	.	.	.	.	.	.	.	.	.	.	.	.	.	.
*	*	*	*Xrep	*	*	*	*	*	*	*	*	*	*	*	*	*	*	*	*	*	*	*	*
*	*	*	*Xtremolo	*	*	*	*	*	*	*	*	*	*	*	*	*	*	*	*	*	*	*	*
=14	=14	=14	=14	=14	=14	=14	=14	=14	=14	=14	=14	=14	=14	=14	=14	=14	=14	=14	=14	=14	=14	=14	=14
*	*	*	*	*	*	*	*	*	*	*	*	*	*	*	*	*tremolo	*	*tremolo	*	*tremolo	*	*tremolo	*
8FF/L	-7 5	.	8A/	.	8e-X 8c/	.	1F	te	.	1ryy	1cc	te	.	1ee-X	te	8F/L	.	8f\L	.	8ee-X\L	.	8aa\L	.
8FF/	.	.	4A/	.	4e- 4c/	.	.	.	.	.	.	.	.	.	.	8F/	.	8f\	.	8ee-\	.	8aa\	.
8FF/	.	.	.	.	.	.	.	.	.	.	.	.	.	.	.	8F/	.	8f\	.	8ee-\	.	8aa\	.
8FF/J	.	.	4A/	.	4e- 4c/	.	.	.	.	.	.	.	.	.	.	8F/J	.	8f\J	.	8ee-\J	.	8aa\J	.
8FF/L	.	.	.	.	.	.	.	.	.	.	.	.	.	.	.	8F/L	.	8f\L	.	8ee-\L	.	8aa\L	.
8FF/	.	.	8A/	.	8e- 8c/	.	.	.	.	.	.	.	.	.	.	8F/	.	8f\	.	8ee-\	.	8aa\	.
8FF/	.	.	16A/LL	.	16f/LL	.	.	.	.	.	.	.	.	.	.	8F/	.	8f\	.	8ee-\	.	8aa\	.
.	.	.	16c/	.	16e-/	.	.	.	.	.	.	.	.	.	.	.	.	.	.	.	.	.	.
8FF/J	.	.	16A/	.	16d/	.	.	.	.	.	.	.	.	.	.	8F/J	.	8f\J	.	8ee-\J	.	8aa\J	.
.	.	.	16c/JJ	.	16e-/JJ	.	.	.	.	.	.	.	.	.	.	.	.	.	.	.	.	.	.
*	*	*	*	*	*	*	*	*	*	*	*	*	*	*	*	*Xtremolo	*	*Xtremolo	*	*Xtremolo	*	*Xtremolo	*
=15	=15	=15	=15	=15	=15	=15	=15	=15	=15	=15	=15	=15	=15	=15	=15	=15	=15	=15	=15	=15	=15	=15	=15
*	*	*	*tremolo	*	*	*	*	*	*	*	*	*	*	*	*	*	*	*	*	*	*	*	*
8FF/L	6 4	.	16B-/LL	.	4d 4B-/	.	4F\	glo-	.	1ryy	8b-\	glo-	.	4dd\	glo-	1F	.	1f	.	1dd	.	1bb-	.
.	.	.	16d/	.	.	.	.	.	.	.	.	.	.	.	.	.	.	.	.	.	.	.	.
8FF/	.	.	16B-/	.	.	.	.	.	.	.	8r	.	.	.	.	.	.	.	.	.	.	.	.
.	.	.	16d/	.	.	.	.	.	.	.	.	.	.	.	.	.	.	.	.	.	.	.	.
8FF/	.	.	16B-/	.	4r	.	8F\	-ri-	.	.	8b-\	-ri-	.	8dd\	-ri-	.	.	.	.	.	.	.	.
.	.	.	16d/	.	.	.	.	.	.	.	.	.	.	.	.	.	.	.	.	.	.	.	.
8FF/J	.	.	16B-/	.	.	.	8F\	-fi-	.	.	8b-\	-fi-	.	8dd\	-fi-	.	.	.	.	.	.	.	.
.	.	.	16d/JJ	.	.	.	.	.	.	.	.	.	.	.	.	.	.	.	.	.	.	.	.
*	*	*	*rep	*	*	*	*	*	*	*	*	*	*	*	*	*	*	*	*	*	*	*	*
8FF/L	.	.	16B-/LL	.	(16ccc\LL	.	4F\	-ca-	.	.	4b-\	-ca-	.	4dd\	-ca-	.	.	.	.	.	.	.	.
.	.	.	16d/	.	16bb-\	.	.	.	.	.	.	.	.	.	.	.	.	.	.	.	.	.	.
8FF/	.	.	16B-/	.	16aa\	.	.	.	.	.	.	.	.	.	.	.	.	.	.	.	.	.	.
.	.	.	16d/	.	16gg\JJ	.	.	.	.	.	.	.	.	.	.	.	.	.	.	.	.	.	.
8FF/	.	.	16B-/	.	16ff\LL	.	4F\	-mu(s)	.	.	4b-\	-mus	.	4dd\	-mus	.	.	.	.	.	.	.	.
.	.	.	16d/	.	16ee\	.	.	.	.	.	.	.	.	.	.	.	.	.	.	.	.	.	.
8FF/J	.	.	16B-/	.	16dd\)	.	.	.	.	.	.	.	.	.	.	.	.	.	.	.	.	.	.
.	.	.	16d/JJ	.	16cc\JJ	.	.	.	.	.	.	.	.	.	.	.	.	.	.	.	.	.	.
*	*	*	*Xrep	*	*	*	*	*	*	*	*	*	*	*	*	*	*	*	*	*	*	*	*
*	*	*	*Xtremolo	*	*	*	*	*	*	*	*	*	*	*	*	*	*	*	*	*	*	*	*
!	!	!	!	!	!	!	!	!	!	!	!	!	!	!LO:LB:g=original	!	!	!	!	!	!LO:LB:g=original	!	!	!
=16	=16	=16	=16	=16	=16	=16	=16	=16	=16	=16	=16	=16	=16	=16	=16	=16	=16	=16	=16	=16	=16	=16	=16
*	*	*	*	*	*	*	*	*	*	*	*	*	*	*	*	*tremolo	*	*tremolo	*	*tremolo	*	*tremolo	*
8FF/L	n7 4	.	8e/	.	8b- 8g/	.	1F	te	.	1ryy	1b-	te	.	1ee	te	8F/L	.	8f\L	.	8een\L	.	8ccc\L	.
8FF/	.	.	4e/	.	4b- 4g/	.	.	.	.	.	.	.	.	.	.	8F/	.	8f\	.	8ee\	.	8ccc\	.
8FF/	.	.	.	.	.	.	.	.	.	.	.	.	.	.	.	8F/	.	8f\	.	8ee\	.	8ccc\	.
8FF/J	.	.	4e/	.	4b- 4g/	.	.	.	.	.	.	.	.	.	.	8F/J	.	8f\J	.	8ee\J	.	8ccc\J	.
8FF/L	.	.	.	.	.	.	.	.	.	.	.	.	.	.	.	8F/L	.	8f\L	.	8ee\L	.	8ccc\L	.
8FF/	.	.	8e/	.	8b- 8g/	.	.	.	.	.	.	.	.	.	.	8F/	.	8f\	.	8ee\	.	8ccc\	.
8FF/	.	.	16e/LL	.	16cc/LL	.	.	.	.	.	.	.	.	.	.	8F/	.	8f\	.	8ee\	.	8ccc\	.
.	.	.	16g/	.	16b-/	.	.	.	.	.	.	.	.	.	.	.	.	.	.	.	.	.	.
8FF/J	.	.	16e/	.	16a/	.	.	.	.	.	.	.	.	.	.	8F/J	.	8f\J	.	8ee\J	.	8ccc\J	.
.	.	.	16g/JJ	.	16b-/JJ	.	.	.	.	.	.	.	.	.	.	.	.	.	.	.	.	.	.
*Xtremolo	*	*	*	*	*	*	*	*	*	*	*	*	*	*	*	*Xtremolo	*	*Xtremolo	*	*Xtremolo	*	*Xtremolo	*
!	!	!	!	!	!	!	!	!	!	!	!LO:LB:g=original	!	!	!	!	!	!	!	!	!	!	!LO:LB:g=original	!
=17	=17	=17	=17	=17	=17	=17	=17	=17	=17	=17	=17	=17	=17	=17	=17	=17	=17	=17	=17	=17	=17	=17	=17
*	*	*	*tremolo	*	*	*	*	*	*	*	*	*	*	*	*	*	*	*	*	*	*	*	*
*	*	*	*2\right	*	*	*	*	*	*	*	*	*	*	*	*	*	*	*	*	*	*	*	*
4FF/	5 3	.	16cc\LL	.	8a\	.	4F\	gra-	.	1ryy	4a\	gra-	.	4ff\	gra-	4A/	.	4f\	.	8ff\	.	8aa\	.
.	.	.	16cc\	.	.	.	.	.	.	.	.	.	.	.	.	.	.	.	.	.	.	.	.
.	.	.	16cc\	.	8r	.	.	.	.	.	.	.	.	.	.	.	.	.	.	8r	.	8r	.
.	.	.	16cc\	.	.	.	.	.	.	.	.	.	.	.	.	.	.	.	.	.	.	.	.
*	*	*	*	*	*	*	*	*	*	*	*	*	*	*	*	*2\right	*	*	*	*	*	*	*
!	!	!	!	!	!	!	!	!	!	!	!	!	!	!	!	!	!	!	!	!	!	!	!
4.F\	3	.	16cc\	.	4.aa\	.	2F\	-ti-	.	.	(4.a\	-ti-	.	2ff\	-ti-	2f\	.	2a\	.	4.ff\	.	4.aa\	.
.	.	.	16cc\	.	.	.	.	.	.	.	.	.	.	.	.	.	.	.	.	.	.	.	.
.	.	.	16cc\	.	.	.	.	.	.	.	.	.	.	.	.	.	.	.	.	.	.	.	.
.	.	.	16cc\JJ	.	.	.	.	.	.	.	.	.	.	.	.	.	.	.	.	.	.	.	.
.	.	.	16cc\LL	.	.	.	.	.	.	.	.	.	.	.	.	.	.	.	.	.	.	.	.
.	.	.	16cc\	.	.	.	.	.	.	.	.	.	.	.	.	.	.	.	.	.	.	.	.
*	*	*	*	*	*tremolo	*	*	*	*	*	*	*	*	*	*	*	*	*	*	*	*	*	*
8E\L	3	.	16cc\	.	16gg\LL	.	.	.	.	.	8g\)	.	.	.	.	.	.	.	.	8ee\L	.	8gg\L	.
.	.	.	16cc\	.	16gg\	.	.	.	.	.	.	.	.	.	.	.	.	.	.	.	.	.	.
8D#X\	#3	.	16cc\	.	16ff#X\	.	4E\	-as	.	.	8f#X\L	-as	.	4gg\	-as	4c/	.	4g\	.	8dd#X\	.	8ff#X\	.
.	.	.	16cc\	.	16ff#\	.	.	.	.	.	.	.	.	.	.	.	.	.	.	.	.	.	.
8E\J	3	.	16cc\	.	16gg\	.	.	.	.	.	8g\J	.	.	.	.	.	.	.	.	8ee\J	.	8gg\J	.
.	.	.	16cc\JJ	.	16gg\JJ	.	.	.	.	.	.	.	.	.	.	.	.	.	.	.	.	.	.
*	*	*	*	*	*Xtremolo	*	*	*	*	*	*	*	*	*	*	*	*	*	*	*	*	*	*
!	!	!	!	!	!	!	!LO:LB:g=original	!	!	!	!	!	!	!	!	!LO:LB:g=original	!	!LO:LB:g=original	!	!	!	!	!
=18	=18	=18	=18	=18	=18	=18	=18	=18	=18	=18	=18	=18	=18	=18	=18	=18	=18	=18	=18	=18	=18	=18	=18
4D\	3	.	16cc\LL	.	8gg\	.	4A\	a-	.	1ryy	4f\	a-	.	4dd\	a-	4g\	.	4g\	.	8a/	.	8gg\	.
.	.	.	16cc\	.	.	.	.	.	.	.	.	.	.	.	.	.	.	.	.	.	.	.	.
.	.	.	16cc\	.	8r	.	.	.	.	.	.	.	.	.	.	.	.	.	.	8r	.	8r	.
.	.	.	16cc\	.	.	.	.	.	.	.	.	.	.	.	.	.	.	.	.	.	.	.	.
4.A\	6 3_	.	16cc\	.	4.ff\	.	2A\	-gi-	.	.	(4.f\	-gi-	.	2dd\	-gi-	2g\	.	2g\	.	4.a/	.	4.ff\	.
.	.	.	16cc\	.	.	.	.	.	.	.	.	.	.	.	.	.	.	.	.	.	.	.	.
.	.	.	16cc\	.	.	.	.	.	.	.	.	.	.	.	.	.	.	.	.	.	.	.	.
.	.	.	16cc\JJ	.	.	.	.	.	.	.	.	.	.	.	.	.	.	.	.	.	.	.	.
.	.	.	16cc\LL	.	.	.	.	.	.	.	.	.	.	.	.	.	.	.	.	.	.	.	.
.	.	.	16cc\	.	.	.	.	.	.	.	.	.	.	.	.	.	.	.	.	.	.	.	.
*	*	*	*	*	*tremolo	*	*	*	*	*	*	*	*	*	*	*	*	*	*	*	*	*	*
8G\L	6 _	.	16cc\	.	16ee\LL	.	.	.	.	.	8e\)	.	.	.	.	.	.	.	.	8g/L	.	8ee\L	.
.	.	.	16cc\	.	16ee\	.	.	.	.	.	.	.	.	.	.	.	.	.	.	.	.	.	.
8F#X\	6 _	.	16cc\	.	16dd#X\	.	4G\	-mus	.	.	8d#X\L	-mus	.	4ee\	-mus	4c/	.	4g\	.	8f#X/	.	8dd#X\	.
.	.	.	16cc\	.	16dd#\	.	.	.	.	.	.	.	.	.	.	.	.	.	.	.	.	.	.
8G\J	6 _	.	16cc\	.	16ee\	.	.	.	.	.	8e\J	.	.	.	.	.	.	.	.	8g/J	.	8ee\J	.
.	.	.	16cc\JJ	.	16ee\JJ	.	.	.	.	.	.	.	.	.	.	.	.	.	.	.	.	.	.
*	*	*	*	*	*Xtremolo	*	*	*	*	*	*	*	*	*	*	*	*	*	*	*	*	*	*
!	!	!	!	!	!LO:LB:g=original	!	!	!	!	!	!	!	!	!	!	!	!	!	!	!	!	!	!
=19	=19	=19	=19	=19	=19	=19	=19	=19	=19	=19	=19	=19	=19	=19	=19	=19	=19	=19	=19	=19	=19	=19	=19
*tremolo	*	*	*	*	*	*	*	*	*	*	*	*	*	*	*	*	*	*	*	*	*	*	*
*2\right	*	*	*	*	*	*	*	*	*	*	*	*	*	*	*	*	*	*	*	*	*	*	*
!	!	!	!	!	!	!	!	!	!	!	!	!	!	!	!	!	!	!	!	!	!	!	!
8F\L	6 5_	.	16a/LL	.	(16ddn\LL	.	4F\	ti-	.	1ryy	4a\	ti-	.	4dd\	ti-	2C/	.	2c/	.	2f/	.	2dd\	.
.	.	.	16a/	.	16cc\)	.	.	.	.	.	.	.	.	.	.	.	.	.	.	.	.	.	.
8F\	.	.	16a/	.	(16dd\	.	.	.	.	.	.	.	.	.	.	.	.	.	.	.	.	.	.
.	.	.	16a/	.	16cc\JJ)	.	.	.	.	.	.	.	.	.	.	.	.	.	.	.	.	.	.
*	*	*	*	*	*rep	*	*	*	*	*	*	*	*	*	*	*	*	*	*	*	*	*	*
8F\	.	.	16a/	.	(16dd\LL	.	4F\	-bi	.	.	4a\	-bi	.	4dd\	-bi	.	.	.	.	.	.	.	.
.	.	.	16a/	.	16cc\)	.	.	.	.	.	.	.	.	.	.	.	.	.	.	.	.	.	.
8F\J	.	.	16a/	.	(16dd\	.	.	.	.	.	.	.	.	.	.	.	.	.	.	.	.	.	.
.	.	.	16a/JJ	.	16cc\JJ)	.	.	.	.	.	.	.	.	.	.	.	.	.	.	.	.	.	.
*	*	*	*	*	*Xrep	*	*	*	*	*	*	*	*	*	*	*	*	*	*	*	*	*	*
8F#X\L	-7 _	.	16a/LL	.	16ee-X\LL	.	4F#X\	pro-	.	.	4a\	pro-	.	4ee-X\	pro-	2C/	.	2c/	.	2f#X/	.	2ee-X\	.
.	.	.	16a/	.	16cc\	.	.	.	.	.	.	.	.	.	.	.	.	.	.	.	.	.	.
8F#\	.	.	16a/	.	16ee-\	.	.	.	.	.	.	.	.	.	.	.	.	.	.	.	.	.	.
.	.	.	16a/	.	16cc\JJ	.	.	.	.	.	.	.	.	.	.	.	.	.	.	.	.	.	.
*	*	*	*	*	*rep	*	*	*	*	*	*	*	*	*	*	*	*	*	*	*	*	*	*
8F#\	.	.	16a/	.	16ee-\LL	.	4F#\	-pter	.	.	4a\	-pter	.	4ee-\	-pter	.	.	.	.	.	.	.	.
.	.	.	16a/	.	16cc\	.	.	.	.	.	.	.	.	.	.	.	.	.	.	.	.	.	.
8F#\J	.	.	16a/	.	16ee-\	.	.	.	.	.	.	.	.	.	.	.	.	.	.	.	.	.	.
.	.	.	16a/JJ	.	16cc\JJ	.	.	.	.	.	.	.	.	.	.	.	.	.	.	.	.	.	.
*	*	*	*	*	*Xrep	*	*	*	*	*	*	*	*	*	*	*	*	*	*	*	*	*	*
=20	=20	=20	=20	=20	=20	=20	=20	=20	=20	=20	=20	=20	=20	=20	=20	=20	=20	=20	=20	=20	=20	=20	=20
8G\L	6 4_	.	16cc\LL	.	16een\LL	.	4G\	ma-	.	1ryy	4cc\	ma-	.	4een\	ma-	2C/	.	2c/	.	2g/	.	2een\	.
.	.	.	16cc\	.	16cc\	.	.	.	.	.	.	.	.	.	.	.	.	.	.	.	.	.	.
8G\	.	.	16cc\	.	16ee\	.	.	.	.	.	.	.	.	.	.	.	.	.	.	.	.	.	.
.	.	.	16cc\	.	16cc\JJ	.	.	.	.	.	.	.	.	.	.	.	.	.	.	.	.	.	.
*	*	*	*	*	*rep	*	*	*	*	*	*	*	*	*	*	*	*	*	*	*	*	*	*
8G\	.	.	16cc\	.	16ee\LL	.	4G\	-gnam	.	.	4cc\	-gnam	.	4ee\	-gnam	.	.	.	.	.	.	.	.
.	.	.	16cc\	.	16cc\	.	.	.	.	.	.	.	.	.	.	.	.	.	.	.	.	.	.
8G\J	.	.	16cc\	.	16ee\	.	.	.	.	.	.	.	.	.	.	.	.	.	.	.	.	.	.
.	.	.	16cc\	.	16cc\JJ	.	.	.	.	.	.	.	.	.	.	.	.	.	.	.	.	.	.
*Xtremolo	*	*	*	*	*Xrep	*	*	*	*	*	*	*	*	*	*	*	*	*	*	*	*	*	*
8A\L	6 _	.	16cc\	.	16ff\LL	.	4A\	glo-	.	.	4cc\	glo-	.	4ff\	glo-	4C/	.	4c/	.	4a/	.	4ff\	.
.	.	.	16cc\	.	16cc\	.	.	.	.	.	.	.	.	.	.	.	.	.	.	.	.	.	.
8A\J	.	.	16cc\	.	16ff\	.	.	.	.	.	.	.	.	.	.	.	.	.	.	.	.	.	.
.	.	.	16cc\JJ	.	16cc\JJ	.	.	.	.	.	.	.	.	.	.	.	.	.	.	.	.	.	.
8A-X\L	#6 _	.	16ee-X\LL	.	16ff#X\LL	.	8A-X\	-ri-	.	.	8cc\	-ri-	.	8ff#X\	-ri-	4C/	.	4c/	.	4dd#X\	.	4ff#X\	.
.	.	.	16ee-\	.	16cc\	.	.	.	.	.	.	.	.	.	.	.	.	.	.	.	.	.	.
8A-\J	.	.	16ee-\	.	16ff#\	.	8A-\	-am	.	.	8cc\	-am	.	8ff#\	-am	.	.	.	.	.	.	.	.
.	.	.	16ee-\JJ	.	16cc\JJ	.	.	.	.	.	.	.	.	.	.	.	.	.	.	.	.	.	.
*	*	*	*Xtremolo	*	*	*	*	*	*	*	*	*	*	*	*	*	*	*	*	*	*	*	*
=21	=21	=21	=21	=21	=21	=21	=21	=21	=21	=21	=21	=21	=21	=21	=21	=21	=21	=21	=21	=21	=21	=21	=21
8G\L	8 4_	.	16ee\LL	.	16gg\LL	.	8G\L	pro-	.	1ryy	4cc\	pro-	.	8gg\L	pro-	4C/	.	4c/	.	8ee'\L	.	8gg\L	.
.	.	.	16ee\	.	16cc\	.	.	.	.	.	.	.	.	.	.	.	.	.	.	.	.	.	.
8F#X\J	10 _	.	16dd#X\	.	16aa\	.	8F#X\J	.	.	.	.	.	.	8aa#X\J	.	.	.	.	.	8dd#X'\J	.	8ff#X\J	.
.	X X	.	16dd#\JJ	.	16cc\JJ	.	.	.	.	.	.	.	.	.	.	.	.	.	.	.	.	.	.
!	!	!	!LO:LB:g=original	!	!	!	!	!	!	!	!	!	!	!	!	!	!	!	!	!	!	!	!
*rep	*	*	*	*	*rep	*	*	*	*	*	*	*	*	*	*	*	*	*	*	*	*	*	*
8G\L	.	.	16ee\LL	.	16gg\LL	.	8G\L	-pter	.	.	4cc\	-pter	.	8gg\L	-pter	4C/	.	4c/	.	8ee\L	.	8gg\L	.
.	.	.	16ee\	.	16cc\	.	.	.	.	.	.	.	.	.	.	.	.	.	.	.	.	.	.
8F#\J	.	.	16dd#\	.	16aa\	.	8F#\J	.	.	.	.	.	.	8aa#\J	.	.	.	.	.	8dd#\J	.	8ff#\J	.
.	.	.	16dd#\JJ	.	16cc\JJ	.	.	.	.	.	.	.	.	.	.	.	.	.	.	.	.	.	.
*Xrep	*	*	*	*	*Xrep	*	*	*	*	*	*	*	*	*	*	*	*	*	*	*	*	*	*
*rep	*	*	*	*	*rep	*	*	*	*	*	*	*	*	*	*	*	*	*	*	*	*	*	*
8G\L	.	.	16ee\LL	.	16gg\LL	.	8G\L	ma-	.	.	4cc\	ma-	.	8gg\L	ma-	4C/	.	4c/	.	8ee\L	.	8gg\L	.
.	.	.	16ee\	.	16cc\	.	.	.	.	.	.	.	.	.	.	.	.	.	.	.	.	.	.
8F#\J	.	.	16dd#\	.	16aa\	.	8F#\J	.	.	.	.	.	.	8aa#\J	.	.	.	.	.	8dd#\J	.	8ff#\J	.
.	.	.	16dd#\JJ	.	16cc\JJ	.	.	.	.	.	.	.	.	.	.	.	.	.	.	.	.	.	.
*Xrep	*	*	*	*	*Xrep	*	*	*	*	*	*	*	*	*	*	*	*	*	*	*	*	*	*
*rep	*	*	*	*	*rep	*	*	*	*	*	*	*	*	*	*	*	*	*	*	*	*	*	*
8G\L	.	.	16ee\LL	.	16gg\LL	.	8G\L	-gnam	.	.	4cc\	-gnam	.	8gg\L	-gnam	4C/	.	4c/	.	8ee\L	.	8gg\L	.
.	.	.	16ee\	.	16cc\	.	.	.	.	.	.	.	.	.	.	.	.	.	.	.	.	.	.
8F#\J	.	.	16ddn\	.	16aa\	.	8F#\J	.	.	.	.	.	.	8aa#\J	.	.	.	.	.	8dd#\J	.	8ff#\J	.
.	.	.	16dd\JJ	.	16cc\JJ	.	.	.	.	.	.	.	.	.	.	.	.	.	.	.	.	.	.
*Xrep	*	*	*	*	*Xrep	*	*	*	*	*	*	*	*	*	*	*	*	*	*	*	*	*	*
=22	=22	=22	=22	=22	=22	=22	=22	=22	=22	=22	=22	=22	=22	=22	=22	=22	=22	=22	=22	=22	=22	=22	=22
*	*	*	*tremolo	*	*tremolo	*	*	*	*	*	*	*ij	*	*	*ij	*	*	*	*	*	*	*	*
8Fn\L	4 2	.	16gg\LL	.	16bbn\LL	.	4Fn\	pro-	.	1ryy	4g\	pro-	.	4bn\	pro-	1g	.	1g	.	4ddn\	.	4ff\	.
.	.	.	16gg\	.	16bb\	.	.	.	.	.	.	.	.	.	.	.	.	.	.	.	.	.	.
8F\J	.	.	16gg\	.	16bb\	.	.	.	.	.	.	.	.	.	.	.	.	.	.	.	.	.	.
.	.	.	16gg\	.	16bb\JJ	.	.	.	.	.	.	.	.	.	.	.	.	.	.	.	.	.	.
8E\L	6 3	.	16gg\	.	16ccc\LL	<	4E\	-pter	.	.	4a\	-pter	.	4cc\	-pter	.	.	.	.	4cc\	.	4ee\	.
.	.	.	16gg\	.	16ccc\	.	.	.	.	.	.	.	.	.	.	.	.	.	.	.	.	.	.
8E\J	.	.	16gg\	.	16ccc\	.	.	.	.	.	.	.	.	.	.	.	.	.	.	.	.	.	.
.	.	.	16gg\JJ	.	16ccc\JJ	.	.	.	.	.	.	.	.	.	.	.	.	.	.	.	.	.	.
8D\L	8 6	.	16gg\LL	.	16ddd\LL	[	4D\	ma-	.	.	4bn\	ma-	.	4dd\	ma-	.	.	.	.	4bn\	.	4dd\	.
.	.	.	16gg\	.	16ddd\	.	.	.	.	.	.	.	.	.	.	.	.	.	.	.	.	.	.
8D\J	.	.	16gg\	.	16ddd\	.	.	.	.	.	.	.	.	.	.	.	.	.	.	.	.	.	.
.	.	.	16gg\	.	16ddd\JJ	.	.	.	.	.	.	.	.	.	.	.	.	.	.	.	.	.	.
8C\L	10 8	.	16gg\	.	16eee\LL	.	4C\	-gnam	.	.	4cc\	-gnam	.	4ee\	-gnam	.	.	.	.	4cc\	.	4ee\	.
*	*	*	*	*	*	*	*	*	*	*	*	*Xij	*	*	*Xij	*	*	*	*	*	*	*	*
.	.	.	16gg\	.	16eee\	.	.	.	.	.	.	.	.	.	.	.	.	.	.	.	.	.	.
8C\J	.	.	16gg\	.	16eee\	.	.	.	.	.	.	.	.	.	.	.	.	.	.	.	.	.	.
.	.	.	16gg\JJ	.	16eee\JJ	.	.	.	.	.	.	.	.	.	.	.	.	.	.	.	.	.	.
!	!	!	!	!	!	!	!	!	!	!	!LO:LB:g=original	!	!	!	!	!	!	!	!	!	!	!	!
=23	=23	=23	=23	=23	=23	=23	=23	=23	=23	=23	=23	=23	=23	=23	=23	=23	=23	=23	=23	=23	=23	=23	=23
*tremolo	*	*	*	*	*	*	*	*	*	*	*	*	*	*	*	*	*	*	*	*	*	*	*
!	!	!	!	!	!	!	!LO:SIC:v:s=2BBn/	!	!	!	!	!	!	!	!	!	!	!	!	!	!	!	!
8BBn/L	5_ 3_	.	16bbn\LL	.	16fff\LL	ff	2BB-/	glo-	.	1ryy	2dd\	glo-	.	2ff\	glo-	1g	.	1g	.	1dd	.	1ff	.
.	.	.	16bb\	.	16fff\	.	.	.	.	.	.	.	.	.	.	.	.	.	.	.	.	.	.
8BB/	.	.	16bb\	.	16fff\	.	.	.	.	.	.	.	.	.	.	.	.	.	.	.	.	.	.
.	.	.	16bb\	.	16fff\	.	.	.	.	.	.	.	.	.	.	.	.	.	.	.	.	.	.
8BB/	.	.	16bb\	.	16fff\	.	.	.	.	.	.	.	.	.	.	.	.	.	.	.	.	.	.
.	.	.	16bb\	.	16fff\	.	.	.	.	.	.	.	.	.	.	.	.	.	.	.	.	.	.
8BB/J	.	.	16bb\	.	16fff\	.	.	.	.	.	.	.	.	.	.	.	.	.	.	.	.	.	.
.	.	.	16bb\JJ	.	16fff\	.	.	.	.	.	.	.	.	.	.	.	.	.	.	.	.	.	.
!	!	!	!	!	!	!	!LO:SIC:v:s=4Bn\	!	!	!	!	!	!	!	!	!	!	!	!	!	!	!	!
8BB/L	.	.	16bb\LL	.	16fff\	.	4B-\	-ri-	.	.	4dd\	-ri-	.	4ff\	-ri-	.	.	.	.	.	.	.	.
.	.	.	16bb\	.	16fff\	.	.	.	.	.	.	.	.	.	.	.	.	.	.	.	.	.	.
8BB/	.	.	16bb\	.	16fff\	.	.	.	.	.	.	.	.	.	.	.	.	.	.	.	.	.	.
.	.	.	16bb\	.	16fff\	.	.	.	.	.	.	.	.	.	.	.	.	.	.	.	.	.	.
!	!	!	!	!	!	!	!LO:SIC:v:s=4Bn\	!	!	!	!	!	!	!	!	!	!	!	!	!	!	!	!
8BB/	.	.	16bb\	.	16fff\	.	4B-\	-am	.	.	4dd\	-am	.	4ff\	-am	.	.	.	.	.	.	.	.
.	.	.	16bb\	.	16fff\	.	.	.	.	.	.	.	.	.	.	.	.	.	.	.	.	.	.
8BB/J	.	.	16bb\	.	16fff\	.	.	.	.	.	.	.	.	.	.	.	.	.	.	.	.	.	.
.	.	.	16bb\JJ	.	16fff\JJ	.	.	.	.	.	.	.	.	.	.	.	.	.	.	.	.	.	.
*Xtremolo	*	*	*Xtremolo	*	*	*	*	*	*	*	*	*	*	*	*	*	*	*	*	*	*	*	*
!	!	!	!	!	!	!	!	!	!	!	!	!	!	!	!	!	!	!	!	!LO:LB:g=original	!	!	!
=24	=24	=24	=24	=24	=24	=24	=24	=24	=24	=24	=24	=24	=24	=24	=24	=24	=24	=24	=24	=24	=24	=24	=24
4GG#X/	.	.	4bbn\	.	4fff\	.	4G#X\	tu-	.	1ryy	4dd\	tu-	.	4ff\	tu-	4r	.	4r	.	4dd\	.	4ff\	.
4AA/	5 3	.	4ccc\	.	4eee\	.	4A\	-am	.	.	4cc\	-am	.	4ee\	-am	4f\	.	4a\	.	4cc\	.	4ee\	.
!	!	!LO:DY:t=f.	!	!	!	!	!	!	!	!	!	!	!	!LO:N:vis=4	!	!	!	!	!	!	!	!	!
4FF/	6 3	f	4d 4A/	.	8r	.	2r	.	.	.	2r	.	.	2r	.	2r	.	2r	.	2r	.	4r	.
.	.	.	.	.	8aa'\L	p	.	.	.	.	.	.	.	.	.	.	.	.	.	.	.	.	.
4r	.	.	4r	.	(8ff\	.	.	.	.	.	.	.	.	.	.	.	.	.	.	.	.	4r	.
.	.	.	.	.	8dd\J)	.	.	.	.	.	.	.	.	.	.	.	.	.	.	.	.	.	.
!	!	!	!	!	!LO:LB:g=original	!	!LO:LB:g=original	!	!	!	!	!	!	!LO:PB:g=original	!	!	!	!	!	!	!	!LO:LB:g=original	!
=25	=25	=25	=25	=25	=25	=25	=25	=25	=25	=25	=25	=25	=25	=25	=25	=25	=25	=25	=25	=25	=25	=25	=25
!	!	!	!	!	!	!	!	!	!	!	!	!	!	!	!	!LO:TX:a:t=1	!	!LO:TX:a:t=1	!	!LO:TX:a:t=1	!	!LO:TX:a:t=1	!
4GG/	6 4	p	4e 4G/	.	8r	.	4Gn\	pro-	.	1ryy	4e\	pro-	.	4cc\	pro-	1r	.	1r	.	1r	.	1r	.
.	.	.	.	.	8gg'\L	.	.	.	.	.	.	.	.	.	.	.	.	.	.	.	.	.	.
4r	.	.	4r	.	(8ee\	.	4G\	-pter	.	.	4e\	-pter	.	[8cc\	-pter	.	.	.	.	.	.	.	.
.	.	.	.	.	8cc\J)	.	.	.	.	.	.	.	.	8cc\]	.	.	.	.	.	.	.	.	.
4GG/	5 2	.	4f 4G/	.	8r	.	2G\	ma-	.	.	2f\	ma-	.	2bn\	ma-	.	.	.	.	.	.	.	.
.	.	.	.	.	8ff'\L	.	.	.	.	.	.	.	.	.	.	.	.	.	.	.	.	.	.
4r	.	.	4r	.	(8dd\	.	.	.	.	.	.	.	.	.	.	.	.	.	.	.	.	.	.
.	.	.	.	.	8bn\J)	.	.	.	.	.	.	.	.	.	.	.	.	.	.	.	.	.	.
!LO:LB:g=original	!	!	!	!	!	!	!	!	!	!	!	!	!	!	!	!	!	!	!	!	!	!	!
=26	=26	=26	=26	=26	=26	=26	=26	=26	=26	=26	=26	=26	=26	=26	=26	=26	=26	=26	=26	=26	=26	=26	=26
*tremolo	*	*	*tremolo	*	*	*	*	*	*	*	*	*	*	*	*	*	*	*	*	*	*	*	*
8AA-X/L	-5_ 3_	ff	16aa-X\LL	.	16cccLL 16ee-X\	ff	4A-X\	-gnam	.	1ryy	4a-X\	-gnam	.	4cc\	-gnam	2c/	.	2e-X\	f	1cc	.	1aa-X	ff
.	.	.	16aa-\	.	16ccc 16ee-\	.	.	.	.	.	.	.	.	.	.	.	.	.	.	.	.	.	.
8AA-/	.	.	16aa-\	.	16ccc 16ee-\	.	.	.	.	.	.	.	.	.	.	.	.	.	.	.	.	.	.
.	.	.	16aa-\	.	16ccc 16ee-\	.	.	.	.	.	.	.	.	.	.	.	.	.	.	.	.	.	.
8AA-/	.	.	16aa-\	.	16ccc 16ee-\	.	4A-\	glo-	.	.	4a-\	glo-	.	4cc\	Glo-	.	.	.	.	.	.	.	.
.	.	.	16aa-\	.	16ccc 16ee-\	.	.	.	.	.	.	.	.	.	.	.	.	.	.	.	.	.	.
8AA-/J	.	.	16aa-\	.	16ccc 16ee-\	.	.	.	.	.	.	.	.	.	.	.	.	.	.	.	.	.	.
.	.	.	16aa-\	.	16ccc 16ee-\	.	.	.	.	.	.	.	.	.	.	.	.	.	.	.	.	.	.
8AA-/L	.	.	16aa-\	.	16ccc 16ee-\	.	4A-\	-ri-	.	.	4a-\	-ri-	.	4cc\	-ri-	2c/	.	2e-\	.	.	.	.	.
.	.	.	16aa-\	.	16ccc 16ee-\	.	.	.	.	.	.	.	.	.	.	.	.	.	.	.	.	.	.
8AA-/	.	.	16aa-\	.	16ccc 16ee-\	.	.	.	.	.	.	.	.	.	.	.	.	.	.	.	.	.	.
.	.	.	16aa-\	.	16ccc 16ee-\	.	.	.	.	.	.	.	.	.	.	.	.	.	.	.	.	.	.
8AA-/	.	.	16aa-\	.	16ccc 16ee-\	.	4A-\	-am	.	.	4a-\	-am	.	4cc\	-am	.	.	.	.	.	.	.	.
.	.	.	16aa-\	.	16ccc 16ee-\	.	.	.	.	.	.	.	.	.	.	.	.	.	.	.	.	.	.
8AA-/J	.	.	16aa-\	.	16ccc 16ee-\	.	.	.	.	.	.	.	.	.	.	.	.	.	.	.	.	.	.
.	.	.	16aa-\JJ	.	16cccJJ 16ee-\	.	.	.	.	.	.	.	.	.	.	.	.	.	.	.	.	.	.
*Xtremolo	*	*	*Xtremolo	*	*Xtremolo	*	*	*	*	*	*	*	*	*	*	*	*	*	*	*	*	*	*
=27	=27	=27	=27	=27	=27	=27	=27	=27	=27	=27	=27	=27	=27	=27	=27	=27	=27	=27	=27	=27	=27	=27	=27
4GG/	-6 3	.	4bb-X\	.	4ddd-X 4ee-X\	.	4G\	tu-	.	1ryy	4b-\	tu-	.	4dd-X\	tu-	4e-X\	.	4e-X\	.	4dd-X\	.	4bb-X\	.
4AA-X/	5 3	.	4aa-X\	.	4ccc 4ee-\	.	4A-X\	-am	.	.	4a-X\	-am	.	4cc\	-am	4c/	.	4e-\	.	4cc\	.	4aa-X\	.
4D-X\	6 3	.	4b- 4f/	.	8r	p	2r	.	.	.	2r	.	.	2r	.	2r	.	2r	.	2r	.	4r	.
.	.	.	.	.	8ff'\L	.	.	.	.	.	.	.	.	.	.	.	.	.	.	.	.	.	.
4r	.	.	4r	.	(8dd-X\	.	.	.	.	.	.	.	.	.	.	.	.	.	.	.	.	4r	.
.	.	.	.	.	8b-\J)	.	.	.	.	.	.	.	.	.	.	.	.	.	.	.	.	.	.
=28	=28	=28	=28	=28	=28	=28	=28	=28	=28	=28	=28	=28	=28	=28	=28	=28	=28	=28	=28	=28	=28	=28	=28
!	!	!	!	!	!	!	!	!	!	!	!	!	!	!	!	!LO:TX:a:t=18	!	!LO:TX:a:t=18	!	!LO:TX:a:t=11	!	!LO:TX:a:t=11	!
4E-X\	6 -4	.	4cc 4e-X/	.	8r	.	4E-X\	glo-	.	1ryy	4e-X\	glo-	.	4a-X\	glo-	1r	.	1r	.	1r	.	1r	.
.	.	.	.	.	8een'\L	.	.	.	.	.	.	.	.	.	.	.	.	.	.	.	.	.	.
4r	.	.	4r	.	(8cc\	.	8E-\	-ri-	.	.	8e-\	-ri-	.	8a-\	-ri-	.	.	.	.	.	.	.	.
.	.	.	.	.	8a-X\J)	.	8E-\	-am	.	.	8e-\	-am	.	8a-\	-am	.	.	.	.	.	.	.	.
4E-\	-7 5	.	4g 4B-/	.	8r	.	2E-\	tu-	.	.	2d-X\	tu-	.	2g\	tu-	.	.	.	.	.	.	.	.
.	.	.	.	.	8dd-X\L	.	.	.	.	.	.	.	.	.	.	.	.	.	.	.	.	.	.
4r	.	.	4r	.	8b-\	.	.	.	.	.	.	.	.	.	.	.	.	.	.	.	.	.	.
.	.	.	.	.	8g\J	.	.	.	.	.	.	.	.	.	.	.	.	.	.	.	.	.	.
!	!	!	!LO:LB:g=original	!	!	!	!	!	!	!	!	!	!	!	!	!	!	!	!	!	!	!	!
=29	=29	=29	=29	=29	=29	=29	=29	=29	=29	=29	=29	=29	=29	=29	=29	=29	=29	=29	=29	=29	=29	=29	=29
4AA-X/	5 -	.	4e-X 4c/	.	4a-X/	.	4AA-X/	-am	.	1ryy	4c\	-am	.	4a-X\	-am	1r	.	1r	.	1r	.	1r	.
4r	.	.	4r	.	8r	.	4r	.	.	.	4r	.	.	4r	.	.	.	.	.	.	.	.	.
.	.	.	.	.	8e-X/	.	.	.	.	.	.	.	.	.	.	.	.	.	.	.	.	.	.
2r	.	.	2r	.	(8d/L	.	2r	.	.	.	2r	.	.	2r	.	.	.	.	.	.	.	.	.
.	.	.	.	.	16e-/Jk)	.	.	.	.	.	.	.	.	.	.	.	.	.	.	.	.	.	.
.	.	.	.	.	16r	.	.	.	.	.	.	.	.	.	.	.	.	.	.	.	.	.	.
.	.	.	.	.	(8g/L	.	.	.	.	.	.	.	.	.	.	.	.	.	.	.	.	.	.
.	.	.	.	.	16a-/Jk)	.	.	.	.	.	.	.	.	.	.	.	.	.	.	.	.	.	.
.	.	.	.	.	16r	.	.	.	.	.	.	.	.	.	.	.	.	.	.	.	.	.	.
=30	=30	=30	=30	=30	=30	=30	=30	=30	=30	=30	=30	=30	=30	=30	=30	=30	=30	=30	=30	=30	=30	=30	=30
*	*	*	*	*	*2\right	*	*	*	*	*	*	*	*	*	*	*	*	*	*	*	*	*	*
!	!	!LO:DY:rj	!	!	!	!LO:TX:a:t=17	!	!LO:TX:a:t=17	!	!	!	!	!	!	!	!	!	!	!	!	!	!	!
2A-X\	-5 -	p	2a-X/	.	2cc\	<	1r	.	.	1ryy	1r	.	.	2cc\	Do-	1r	.	1r	.	1r	.	1r	.
2r	.	.	(4g/	.	(4dd-X\	.	.	.	.	.	.	.	.	4dd-X\	-mi-	.	.	.	.	.	.	.	.
.	.	.	4g-X/)	.	4ee-X\)	[	.	.	.	.	.	.	.	4ee-X\	-ne	.	.	.	.	.	.	.	.
=31	=31	=31	=31	=31	=31	=31	=31	=31	=31	=31	=31	=31	=31	=31	=31	=31	=31	=31	=31	=31	=31	=31	=31
2D-X\	6 3	.	2.a-X/	.	(2een\	>	1r	.	.	1ryy	1r	.	.	2een\	De-	1r	.	1r	.	1r	.	1r	.
2r	.	.	.	.	4ff\)	]	.	.	.	.	.	.	.	4ff\	-us	.	.	.	.	.	.	.	.
.	.	.	4r	.	4r	.	.	.	.	.	.	.	.	4r	.	.	.	.	.	.	.	.	.
!	!	!	!	!	!LO:LB:g=original	!	!	!	!	!	!	!	!	!	!	!	!	!	!	!	!	!	!
=32	=32	=32	=32	=32	=32	=32	=32	=32	=32	=32	=32	=32	=32	=32	=32	=32	=32	=32	=32	=32	=32	=32	=32
4E-X\	5	.	4g 4B-/	.	(4ff\	.	1r	.	.	1ryy	1r	.	.	(4ff\	Rex	1r	.	1r	.	1r	.	1r	.
4r	.	.	4r	.	4b-X\)	.	.	.	.	.	.	.	.	4b-\	.	.	.	.	.	.	.	.	.
4E-\	.	.	4e-X 4B-/	.	(4dd-X\	.	.	.	.	.	.	.	.	4dd-X\)	.	.	.	.	.	.	.	.	.
4r	.	.	4r	.	4g\)	.	.	.	.	.	.	.	.	4g\	Cae-	.	.	.	.	.	.	.	.
=33	=33	=33	=33	=33	=33	=33	=33	=33	=33	=33	=33	=33	=33	=33	=33	=33	=33	=33	=33	=33	=33	=33	=33
2.AA-X/	.	.	2d-X/	.	2b-^<\	.	1r	.	.	1ryy	1r	.	.	2b-\	-le-	1r	.	1r	.	1r	.	1r	.
.	.	.	.	.	16qqcc/LL	.	.	.	.	.	.	.	.	.	.	.	.	.	.	.	.	.	.
.	.	.	.	.	16qqb-/JJ	.	.	.	.	.	.	.	.	.	.	.	.	.	.	.	.	.	.
.	.	.	4c/	.	4a-X\	.	.	.	.	.	.	.	.	4a-X\	-stis	.	.	.	.	.	.	.	.
4r	.	.	4r	.	(8b-\L	.	.	.	.	.	.	.	.	4r	.	.	.	.	.	.	.	.	.
.	.	.	.	.	8bn\J)	.	.	.	.	.	.	.	.	.	.	.	.	.	.	.	.	.	.
!	!	!	!	!	!	!	!	!	!	!	!	!	!	!LO:LB:g=original	!	!	!	!	!	!	!	!	!
=34	=34	=34	=34	=34	=34	=34	=34	=34	=34	=34	=34	=34	=34	=34	=34	=34	=34	=34	=34	=34	=34	=34	=34
2A-X\	-5 -	.	2e-X/	.	4cc\	.	1r	.	.	1ryy	1r	.	.	(4cc\	De-	1r	.	1r	.	1r	.	1r	.
.	.	.	.	.	4dd-X\	<	.	.	.	.	.	.	.	4dd-X\	.	.	.	.	.	.	.	.	.
2A-\	.	.	2c/	.	4ddn\	.	.	.	.	.	.	.	.	4ddn\)	.	.	.	.	.	.	.	.	.
.	.	.	.	.	4ee-X\	[	.	.	.	.	.	.	.	4een\	-us	.	.	.	.	.	.	.	.
=35	=35	=35	=35	=35	=35	=35	=35	=35	=35	=35	=35	=35	=35	=35	=35	=35	=35	=35	=35	=35	=35	=35	=35
2D-X\	6	.	2.f/	.	2gg\	.	1r	.	.	1ryy	1r	.	.	2gg\	Pa-	1r	.	1r	.	1r	.	1r	.
2r	.	.	.	.	4ffSSs\	>	.	.	.	.	.	.	.	4ff\	-pter	.	.	.	.	.	.	.	.
.	.	.	4r	.	8ff\L	]	.	.	.	.	.	.	.	4r	.	.	.	.	.	.	.	.	.
.	.	.	.	.	8gg\J	.	.	.	.	.	.	.	.	.	.	.	.	.	.	.	.	.	.
!LO:LB:g=original	!	!	!	!	!	!	!	!	!	!	!	!	!	!	!	!	!	!	!	!	!	!	!
=36	=36	=36	=36	=36	=36	=36	=36	=36	=36	=36	=36	=36	=36	=36	=36	=36	=36	=36	=36	=36	=36	=36	=36
4Dn/	-5	.	4a-X 4B-/	.	4bb-\	.	1r	.	.	1ryy	1r	.	.	(4bb-X\	Om-	1r	.	1r	.	1r	.	1r	.
4r	.	.	4r	.	4aa-X\	.	.	.	.	.	.	.	.	4aa-X\)	.	.	.	.	.	.	.	.	.
4BB-X/	7	.	4a- 4B-/	.	4cc\	.	.	.	.	.	.	.	.	4cc\	-ni-	.	.	.	.	.	.	.	.
4r	.	.	4r	.	4dd\	.	.	.	.	.	.	.	.	4dd\	.	.	.	.	.	.	.	.	.
=37	=37	=37	=37	=37	=37	=37	=37	=37	=37	=37	=37	=37	=37	=37	=37	=37	=37	=37	=37	=37	=37	=37	=37
*	*	*	*tremolo	*	*	*	*	*	*	*	*	*	*	*	*	*	*	*	*	*	*	*	*
4E-X\	3	.	8e-X/L	.	2ff\	.	1r	.	.	1ryy	1r	.	.	2ff\	-po-	1r	.	1r	.	1r	.	1r	.
.	.	.	8e-/	.	.	.	.	.	.	.	.	.	.	.	.	.	.	.	.	.	.	.	.
4r	.	.	8e-/	.	.	.	.	.	.	.	.	.	.	.	.	.	.	.	.	.	.	.	.
.	.	.	8e-/J	.	.	.	.	.	.	.	.	.	.	.	.	.	.	.	.	.	.	.	.
.	.	.	.	.	16qqgg/LL	.	.	.	.	.	.	.	.	.	.	.	.	.	.	.	.	.	.
.	.	.	.	.	16qqff/JJ	.	.	.	.	.	.	.	.	.	.	.	.	.	.	.	.	.	.
2r	.	.	8e-/L	.	4ee-X\	.	.	.	.	.	.	.	.	4ee\	-tens	.	.	.	.	.	.	.	.
.	.	.	8e-/	.	.	.	.	.	.	.	.	.	.	.	.	.	.	.	.	.	.	.	.
.	.	.	8e-/	.	8r	.	.	.	.	.	.	.	.	4r	.	.	.	.	.	.	.	.	.
.	.	.	8e-/J	.	8een\	.	.	.	.	.	.	.	.	.	.	.	.	.	.	.	.	.	.
=38	=38	=38	=38	=38	=38	=38	=38	=38	=38	=38	=38	=38	=38	=38	=38	=38	=38	=38	=38	=38	=38	=38	=38
!LO:TX:a:t=1	!	!	!	!	!	!	!	!	!	!	!	!	!	!	!	!	!	!	!	!	!	!	!
1r	.	.	8d-X/L	.	4ff\	.	1r	.	.	1ryy	1r	.	.	(4ff\	Do-	1r	.	1r	.	1r	.	1r	.
.	.	.	8d-/	.	.	.	.	.	.	.	.	.	.	.	.	.	.	.	.	.	.	.	.
.	.	.	8d-/	.	4b-\	.	.	.	.	.	.	.	.	4b-\)	.	.	.	.	.	.	.	.	.
.	.	.	8d-/J	.	.	.	.	.	.	.	.	.	.	.	.	.	.	.	.	.	.	.	.
.	.	.	8d-/L	.	4dd-X\	.	.	.	.	.	.	.	.	4dd-X\	-mi-	.	.	.	.	.	.	.	.
.	.	.	8d-/	.	.	.	.	.	.	.	.	.	.	.	.	.	.	.	.	.	.	.	.
.	.	.	8d-/	.	4f-X/	.	.	.	.	.	.	.	.	4f-X/	-ne	.	.	.	.	.	.	.	.
.	.	.	8d-/J	.	.	.	.	.	.	.	.	.	.	.	.	.	.	.	.	.	.	.	.
=39	=39	=39	=39	=39	=39	=39	=39	=39	=39	=39	=39	=39	=39	=39	=39	=39	=39	=39	=39	=39	=39	=39	=39
4E-X\	-7 5 3	.	8d-X/L	.	4.e-X/	.	1r	.	.	1ryy	1r	.	.	4.e-X/	fi-	1r	.	1r	.	8r	.	8r	.
.	.	.	8d-/	.	.	.	.	.	.	.	.	.	.	.	.	.	.	.	.	8g/L	.	8b-X\L	.
4G\	.	.	8d-/	.	.	.	.	.	.	.	.	.	.	.	.	.	.	.	.	8g/	.	8b-\	.
.	.	.	8d-/J	.	16g/LL	.	.	.	.	.	.	.	.	8e-/	-li-	.	.	.	.	8g/J	.	8b-\J	.
.	.	.	.	.	16f/JJ	.	.	.	.	.	.	.	.	.	.	.	.	.	.	.	.	.	.
4B-\	.	.	8d-/L	.	4e-/	.	.	.	.	.	.	.	.	4e-/	-i	.	.	.	.	4g/	.	4b-\	.
.	.	.	8d-/	.	.	.	.	.	.	.	.	.	.	.	.	.	.	.	.	.	.	.	.
4E-\	.	.	8d-/	.	8.ee-X\L	.	.	.	.	.	.	.	.	4r	.	.	.	.	.	4r	.	4r	.
.	.	.	8d-/J	.	.	.	.	.	.	.	.	.	.	.	.	.	.	.	.	.	.	.	.
.	.	.	.	.	16ee-\Jk	.	.	.	.	.	.	.	.	.	.	.	.	.	.	.	.	.	.
!	!	!	!LO:LB:g=original	!	!	!	!	!	!	!	!	!	!	!	!	!	!	!	!	!	!	!	!
=40	=40	=40	=40	=40	=40	=40	=40	=40	=40	=40	=40	=40	=40	=40	=40	=40	=40	=40	=40	=40	=40	=40	=40
!LO:TX:a:t=1	!	!	!	!	!	!	!	!	!	!	!	!	!	!	!	!	!	!	!	!LO:TX:a:t=1	!	!LO:TX:a:t=1	!
1r	.	.	8d-X/L	.	4een\	.	1r	.	.	1ryy	1r	.	.	(4een\	U-	1r	.	1r	.	1r	.	1r	.
.	.	.	8d-/	.	.	.	.	.	.	.	.	.	.	.	.	.	.	.	.	.	.	.	.
.	.	.	8d-/	.	8b-\L	.	.	.	.	.	.	.	.	4b-\)	.	.	.	.	.	.	.	.	.
.	.	.	8d-/J	.	8b-\J	.	.	.	.	.	.	.	.	.	.	.	.	.	.	.	.	.	.
.	.	.	8d-/L	.	4dd-X\	.	.	.	.	.	.	.	.	(4dd-X\	-ni-	.	.	.	.	.	.	.	.
.	.	.	8d-/	.	.	.	.	.	.	.	.	.	.	.	.	.	.	.	.	.	.	.	.
.	.	.	8d-/	.	8.en/L	.	.	.	.	.	.	.	.	4en/)	-ge-	.	.	.	.	.	.	.	.
.	.	.	8d-/J	.	.	.	.	.	.	.	.	.	.	.	.	.	.	.	.	.	.	.	.
.	.	.	.	.	16e/Jk	.	.	.	.	.	.	.	.	.	.	.	.	.	.	.	.	.	.
!	!	!	!	!	!LO:LB:g=original	!	!	!	!	!	!	!	!	!	!	!	!	!	!	!	!	!	!
=41	=41	=41	=41	=41	=41	=41	=41	=41	=41	=41	=41	=41	=41	=41	=41	=41	=41	=41	=41	=41	=41	=41	=41
4E-X\	.	.	8d-X/L	.	4.e-X/	.	1r	.	.	1ryy	1r	.	.	4.e-X/	-ni-	1r	.	1r	.	8r	.	8r	.
.	.	.	8d-/	.	.	.	.	.	.	.	.	.	.	.	.	.	.	.	.	8g/L	.	8b-\L	.
4B-\	.	.	8d-/	.	.	.	.	.	.	.	.	.	.	.	.	.	.	.	.	8g/	.	8b-\	.
.	.	.	8d-/J	.	(16g/LL	.	.	.	.	.	.	.	.	16g/LL	.	.	.	.	.	8g/J	.	8b-\J	.
.	.	.	.	.	16f/JJ)	.	.	.	.	.	.	.	.	16f/JJ	.	.	.	.	.	.	.	.	.
4G\	.	.	8d-/L	.	8e-/L	.	.	.	.	.	.	.	.	4e-/	-te	.	.	.	.	4g/	.	4b-\	.
.	.	.	8d-/	.	8g/	.	.	.	.	.	.	.	.	.	.	.	.	.	.	.	.	.	.
4E-\	.	.	8d-/	.	8a/	.	.	.	.	.	.	.	.	4r	.	.	.	.	.	4r	.	4r	.
.	.	.	8d-/J	.	8b-/J	.	.	.	.	.	.	.	.	.	.	.	.	.	.	.	.	.	.
*	*	*	*Xtremolo	*	*	*	*	*	*	*	*	*	*	*	*	*	*	*	*	*	*	*	*
=42	=42	=42	=42	=42	=42	=42	=42	=42	=42	=42	=42	=42	=42	=42	=42	=42	=42	=42	=42	=42	=42	=42	=42
!	!	!	!	!	!	!	!	!	!	!	!	!	!	!	!	!	!	!	!	!LO:TX:a:t=3	!	!LO:TX:a:t=3	!
4A-X\	3	.	4a/	.	8cc\L	.	1r	.	.	1ryy	1r	.	.	8cc\L	Je-	1r	.	1r	.	0r	.	0r	.
.	.	.	.	.	8dd-X\	.	.	.	.	.	.	.	.	8dd-X\	.	.	.	.	.	.	.	.	.
4r	.	.	4r	.	8ee-X\	.	.	.	.	.	.	.	.	8ee-X\	.	.	.	.	.	.	.	.	.
.	.	.	.	.	8ff\J	.	.	.	.	.	.	.	.	8ff\J	.	.	.	.	.	.	.	.	.
!	!	!	!	!	!	!	!	!	!	!	!	!	!	!LO:LB:g=original	!	!	!	!	!	!	!	!	!
2r	.	.	2r	.	8gg\L	.	.	.	.	.	.	.	.	8gg\L	.	.	.	.	.	.	.	.	.
.	.	.	.	.	8aa-X\	.	.	.	.	.	.	.	.	8aa-X\	.	.	.	.	.	.	.	.	.
.	.	.	.	.	8bb-\	.	.	.	.	.	.	.	.	8bb-\	.	.	.	.	.	.	.	.	.
.	.	.	.	.	8aa-\J	.	.	.	.	.	.	.	.	8aa-\J	.	.	.	.	.	.	.	.	.
=43	=43	=43	=43	=43	=43	=43	=43	=43	=43	=43	=43	=43	=43	=43	=43	=43	=43	=43	=43	=43	=43	=43	=43
2r	.	.	2r	.	2ccc-X\	.	1r	.	.	1ryy	1r	.	.	2ccc-X\	.	1r	.	1r	.	.	.	.	.
2En\	n5 #3	.	2A-X^/	.	2dn 2Bn^t/	.	.	.	.	.	.	.	.	2ddn\	-su	.	.	.	.	.	.	.	.
=44	=44	=44	=44	=44	=44	=44	=44	=44	=44	=44	=44	=44	=44	=44	=44	=44	=44	=44	=44	=44	=44	=44	=44
!	!	!	!	!	!LO:SIC:v:n=1:s=4e-	!	!	!	!	!	!	!	!	!	!	!	!	!	!	!	!	!	!
4E-X\	6 4	.	4A/	.	4e 4c/	.	1r	.	.	1ryy	1r	.	.	2ee-X\	Je-	1r	.	1r	.	1r	.	1r	.
4r	.	.	4r	.	4r	.	.	.	.	.	.	.	.	.	.	.	.	.	.	.	.	.	.
4E-\	5	.	2d-X/	.	2gT/	.	.	.	.	.	.	.	.	2g/	-su	.	.	.	.	.	.	.	.
4r	.	.	.	.	.	.	.	.	.	.	.	.	.	.	.	.	.	.	.	.	.	.	.
.	.	.	.	.	16qqf\LL	.	.	.	.	.	.	.	.	.	.	.	.	.	.	.	.	.	.
.	.	.	.	.	16qqg\JJ	.	.	.	.	.	.	.	.	.	.	.	.	.	.	.	.	.	.
!LO:LB:g=original	!	!	!	!	!	!	!	!	!	!	!	!	!	!	!	!	!	!	!	!	!	!	!
=45	=45	=45	=45	=45	=45	=45	=45	=45	=45	=45	=45	=45	=45	=45	=45	=45	=45	=45	=45	=45	=45	=45	=45
!LO:TX:t=P:problem=mixed beam	!	!	!	!	!	!	!	!	!	!	!	!	!	!	!	!	!	!	!	!	!	!	!
8A-X\L	-5 3	f	8e-X 8c/	.	8a-X/	.	1r	.	.	1ryy	1r	.	.	4a-X\	Chri-	1r	.	1r	.	4cc\	.	4gg#X\	.
8AA-X/	.	.	4e- 4c/	.	4a-/	.	.	.	.	.	.	.	.	.	.	.	.	.	.	.	.	.	.
8A-\	.	.	.	.	.	.	.	.	.	.	.	.	.	4a-\	-ste	.	.	.	.	4r	.	4r	.
8G\J	.	.	8e- 8c/	.	8a-/	.	.	.	.	.	.	.	.	.	.	.	.	.	.	.	.	.	.
*	*	*	*tremolo	*	*	*	*	*	*	*	*	*	*	*	*	*	*	*	*	*	*	*	*
!LO:TX:t=P:problem=mixed beam	!	!	!	!	!	!	!	!	!	!	!	!	!	!	!	!	!	!	!	!	!	!	!
8F\L	8 5 n	.	8e-L 8c/	.	2ant/	.	.	.	.	.	.	.	.	2r	.	.	.	.	.	2ee-X\	.	2aa^<\	.
8FF/	.	.	8e- 8c/	.	.	.	.	.	.	.	.	.	.	.	.	.	.	.	.	.	.	.	.
8F\	.	.	8e- 8c/	.	.	.	.	.	.	.	.	.	.	.	.	.	.	.	.	.	.	.	.
8E-X\J	.	.	8e-J 8c/	.	.	.	.	.	.	.	.	.	.	.	.	.	.	.	.	.	.	.	.
.	.	.	.	.	16qqg\LL	.	.	.	.	.	.	.	.	.	.	.	.	.	.	.	.	.	.
.	.	.	.	.	16qqa\JJ	.	.	.	.	.	.	.	.	.	.	.	.	.	.	.	.	.	.
*	*	*	*Xtremolo	*	*	*	*	*	*	*	*	*	*	*	*	*	*	*	*	*	*	*	*
=46	=46	=46	=46	=46	=46	=46	=46	=46	=46	=46	=46	=46	=46	=46	=46	=46	=46	=46	=46	=46	=46	=46	=46
!	!	!	!	!	!	!	!	!	!	!	!	!	!	!LO:TX:a:t=1	!	!	!	!	!	!	!	!	!
8D-X\L	6	.	8f 8d-X/	.	8b-\	.	1r	.	.	1ryy	1r	.	.	1r	.	2r	.	2r	.	4dd\	.	4bb-\	.
8BB-\J	.	.	4f 4d-/	.	4b-\	.	.	.	.	.	.	.	.	.	.	.	.	.	.	.	.	.	.
8B-\L	.	.	.	.	.	.	.	.	.	.	.	.	.	.	.	.	.	.	.	4r	.	4r	.
8A-X\J	.	.	8f 8d-/	.	8b-\	.	.	.	.	.	.	.	.	.	.	.	.	.	.	.	.	.	.
*	*	*	*tremolo	*	*	*	*	*	*	*	*	*	*	*	*	*	*	*	*	*	*	*	*
!LO:TX:t=P:problem=mixed beam	!	!	!	!	!	!	!	!	!	!	!	!	!	!	!	!	!	!	!	!	!	!	!
8G\L	7 5 n	.	8fL 8B-/	.	2bnt\	.	.	.	.	.	.	.	.	.	.	2g\	.	2g\	.	2ff\	.	2bbn^<\	.
8GG/	.	.	8f 8B-/	.	.	.	.	.	.	.	.	.	.	.	.	.	.	.	.	.	.	.	.
8G\	.	.	8f 8B-/	.	.	.	.	.	.	.	.	.	.	.	.	.	.	.	.	.	.	.	.
!LO:TX:a:t=f	!	!	!	!	!	!	!	!	!	!	!	!	!	!	!	!	!	!	!	!	!	!	!
8F\J	.	.	8fJ 8B-/	.	.	.	.	.	.	.	.	.	.	.	.	.	.	.	.	.	.	.	.
.	.	.	.	.	16qqa\LL	.	.	.	.	.	.	.	.	.	.	.	.	.	.	.	.	.	.
.	.	.	.	.	16qqb\JJ	.	.	.	.	.	.	.	.	.	.	.	.	.	.	.	.	.	.
*	*	*	*Xtremolo	*	*	*	*	*	*	*	*	*	*	*	*	*	*	*	*	*	*	*	*
!	!	!	!	!	!	!	!	!	!	!	!LO:LB:g=original	!	!	!	!	!	!	!LO:LB:g=original	!	!LO:LB:g=original	!	!	!
=47	=47	=47	=47	=47	=47	=47	=47	=47	=47	=47	=47	=47	=47	=47	=47	=47	=47	=47	=47	=47	=47	=47	=47
!	!	!	!	!	!LO:TX:t=P:problem=mixed beam	!	!	!	!	!	!	!	!	!	!	!	!	!	!	!	!	!	!
!	!	!	!	!LO:HP:t=cres	!	!	!	!	!	!	!	!	!	!	!	!	!	!	!	!	!	!	!
8En\L	.	.	8c/L	<	8cc\L	.	4c\	qui	.	1ryy	4cc\	qui	.	4cc\	qui	4c/	.	4g\	.	4cc\	.	4ccc\	<
!	!	!LO:HP:t=cres	!	!	!	!	!	!	!	!	!	!	!	!	!	!	!	!	!	!	!	!	!
8C\	.	<	8c/	.	8c/	.	.	.	.	.	.	.	.	.	.	.	.	.	.	.	.	.	.
8G\	.	.	8en/	.	8g/	.	8c\	tol-	.	.	8cc\	tol-	.	8cc\	tol-	4c/	.	4g\	.	4r	.	4cc\	.
8E\J	.	.	8c/J	.	8e/J	.	8c\	-lis	.	.	8cc\	-lis	.	8cc\	-lis	.	.	.	.	.	.	.	.
8B-\L	.	.	8g/L	.	8b-/L	.	4c\	pec-	.	.	4cc\	pec-	.	4cc\	pec-	4c/	.	4g\	.	4cc\	.	4ee\	[
8G\	.	.	8e/	.	8g/	.	.	.	.	.	.	.	.	.	.	.	.	.	.	.	.	.	.
8d\	.	.	8b-/	.	8dd/	.	8c\	-ca-	.	.	8cc\	-ca-	.	8cc\	-ca-	4c/	.	4g\	.	4ee\	.	4gg\	.
8B-\J	.	.	8g/J	.	8b-/J	.	8c\	-ta	.	.	8cc\	-ta	.	8cc\	-ta	.	.	.	.	.	.	.	.
!	!	!	!	!	!	!	!	!	!	!	!	!	!	!	!	!LO:LB:g=original	!	!	!	!	!	!LO:LB:g=original	!
=48	=48	=48	=48	=48	=48	=48	=48	=48	=48	=48	=48	=48	=48	=48	=48	=48	=48	=48	=48	=48	=48	=48	=48
*	*	*	*tremolo	*	*	*	*	*	*	*	*	*	*	*	*	*	*	*	*	*	*	*	*
!	!	!LO:DY:rj	!	!	!LO:TX:t=P:problem=brak dalszego ciągu parti	!	!	!	!	!	!	!	!	!	!	!	!	!	!	!	!	!	!
4G\	x 3_	f	16b-LL 16g/	ff	1ryy	.	2c\	mun-	.	1ryy	2cc\	mun-	.	2ee\	mun-	4c/	.	4g\	.	1ee^<	ff	1bb-	ff
.	.	.	16b- 16g/	.	.	.	.	.	.	.	.	.	.	.	.	.	.	.	.	.	.	.	.
.	.	.	16b- 16g/	.	.	.	.	.	.	.	.	.	.	.	.	.	.	.	.	.	.	.	.
.	.	.	16b- 16g/	.	.	.	.	.	.	.	.	.	.	.	.	.	.	.	.	.	.	.	.
4E\	.	.	16b- 16g/	.	.	.	.	.	.	.	.	.	.	.	.	2.c^/	.	2.g^<\	.	.	.	.	.
.	.	.	16b- 16g/	.	.	.	.	.	.	.	.	.	.	.	.	.	.	.	.	.	.	.	.
.	.	.	16b- 16g/	.	.	.	.	.	.	.	.	.	.	.	.	.	.	.	.	.	.	.	.
.	.	.	16b-JJ 16g/	.	.	.	.	.	.	.	.	.	.	.	.	.	.	.	.	.	.	.	.
4C/	7 _	.	16eLL 16G/	.	.	.	2c\	-di	.	.	4cc\	-di	.	2ee\	-di	.	.	.	.	.	.	.	.
.	.	.	16e 16G/	.	.	.	.	.	.	.	.	.	.	.	.	.	.	.	.	.	.	.	.
.	.	.	16e 16G/	.	.	.	.	.	.	.	.	.	.	.	.	.	.	.	.	.	.	.	.
.	.	.	16e 16G/	.	.	.	.	.	.	.	.	.	.	.	.	.	.	.	.	.	.	.	.
4C/	7 _	.	16e 16G/	.	.	.	.	.	.	.	4r	.	.	.	.	.	.	.	.	.	.	.	.
.	.	.	16e 16G/	.	.	.	.	.	.	.	.	.	.	.	.	.	.	.	.	.	.	.	.
.	.	.	16e 16G/	.	.	.	.	.	.	.	.	.	.	.	.	.	.	.	.	.	.	.	.
.	X X	.	16eJJ 16G/	.	.	.	.	.	.	.	.	.	.	.	.	.	.	.	.	.	.	.	.
*	*	*	*Xtremolo	*	*	*	*	*	*	*	*	*	*	*	*	*	*	*	*	*	*	*	*
!	!	!	!LO:LB:g=original	!	!	!	!LO:LB:g=original	!	!	!	!	!	!	!	!	!	!	!	!	!	!	!	!
=49	=49	=49	=49	=49	=49	=49	=49	=49	=49	=49	=49	=49	=49	=49	=49	=49	=49	=49	=49	=49	=49	=49	=49
!	!	!LO:DY:rj	!LO:TX:b:t=piz	!	!	!	!	!	!	!	!	!	!	!	!	!LO:TX:a:t=4	!	!LO:TX:a:t=4	!	!LO:TX:a:t=4	!	!LO:TX:a:t=4	!
8B-'\	.	p	4b-\	.	1ryy	.	4B-\	sus-	.	1ryy	4b-\	sus-	.	4b-\	sus-	00r	.	00r	.	00r	.	00r	.
8r	.	.	.	.	.	.	.	.	.	.	.	.	.	.	.	.	.	.	.	.	.	.	.
4r	.	.	4r	.	.	.	4r	.	.	.	4r	.	.	4r	.	.	.	.	.	.	.	.	.
4A'\	.	.	4a\	.	.	.	4A\	-ci-	.	.	4a\	-ci-	.	4a\	-ci-	.	.	.	.	.	.	.	.
4r	.	.	4r	.	.	.	4r	.	.	.	4r	.	.	4r	.	.	.	.	.	.	.	.	.
=50	=50	=50	=50	=50	=50	=50	=50	=50	=50	=50	=50	=50	=50	=50	=50	=50	=50	=50	=50	=50	=50	=50	=50
4G'\	.	.	4g/	.	1ryy	.	4G\	-pe	.	1ryy	4g\	-pe	.	4g\	-pe	.	.	.	.	.	.	.	.
4r	.	.	4r	.	.	.	4r	.	.	.	4r	.	.	4r	.	.	.	.	.	.	.	.	.
4d'\	.	.	4dd\	.	.	.	4d\	de-	.	.	4dd\	de-	.	4dd\	de-	.	.	.	.	.	.	.	.
4r	.	.	4r	.	.	.	4r	.	.	.	4r	.	.	4r	.	.	.	.	.	.	.	.	.
=51	=51	=51	=51	=51	=51	=51	=51	=51	=51	=51	=51	=51	=51	=51	=51	=51	=51	=51	=51	=51	=51	=51	=51
4E'\	.	.	4e/	.	1ryy	.	4E\	-pre-	.	1ryy	4e\	-pre-	.	4e/	-pre-	.	.	.	.	.	.	.	.
4r	.	.	4r	.	.	.	4r	.	.	.	4r	.	.	4r	.	.	.	.	.	.	.	.	.
4F'\	.	.	4f/	.	.	.	4F\	-ca-	.	.	4f\	-ca-	.	4f/	-ca-	.	.	.	.	.	.	.	.
4r	.	.	4r	.	.	.	4r	.	.	.	4r	.	.	4r	.	.	.	.	.	.	.	.	.
!LO:LB:g=original	!	!	!	!	!	!	!	!	!	!	!	!	!	!	!	!	!	!	!	!	!	!	!
=52	=52	=52	=52	=52	=52	=52	=52	=52	=52	=52	=52	=52	=52	=52	=52	=52	=52	=52	=52	=52	=52	=52	=52
4BB-/	.	.	4B-/	.	1ryy	.	4BB-/	-ti-	.	1ryy	4d\	-ti-	.	4g/	-ti-	.	.	.	.	.	.	.	.
4r	.	.	4r	.	.	.	4r	.	.	.	4r	.	.	4r	.	.	.	.	.	.	.	.	.
4C/	.	.	4c/	.	.	.	4C/	-o-	.	.	4g\	-o-	.	4e/	-o-	.	.	.	.	.	.	.	.
!	!	!	!	!	!	!	!LO:TX:a:t=vi	!	!	!	!	!	!	!	!	!	!	!	!	!	!	!	!
4r	.	.	4r	ff	.	.	4r	.	.	.	4r	.	.	4r	.	.	.	.	.	.	.	.	.
!	!	!	!	!	!	!	!	!	!	!	!	!	!	!LO:LB:g=original	!	!	!	!	!	!	!	!	!
=53	=53	=53	=53	=53	=53	=53	=53	=53	=53	=53	=53	=53	=53	=53	=53	=53	=53	=53	=53	=53	=53	=53	=53
*tremolo	*	*	*tremolo	*	*	*	*	*	*	*	*	*	*	*	*	*	*	*	*	*	*	*	*
!	!	!LO:DY:rj	!	!	!	!	!LO:TX:t=de	!	!	!	!	!	!	!	!	!	!	!	!	!	!	!	!
8FF/L	8	f	16A/LL	.	1ryy	.	4F\	-nem	.	1ryy	4f\	-nem	.	4d/	-nem	1F	.	1f	.	1a	.	1ff	f
.	.	.	16c/	.	.	.	.	.	.	.	.	.	.	.	.	.	.	.	.	.	.	.	.
8FF/	.	.	16A/	.	.	.	.	.	.	.	.	.	.	.	.	.	.	.	.	.	.	.	.
.	.	.	16c/	.	.	.	.	.	.	.	.	.	.	.	.	.	.	.	.	.	.	.	.
8FF/	.	.	16A/	.	.	.	4F\	qui	.	.	4a\	qui	.	4ff\	qui	.	.	.	.	.	.	.	.
.	.	.	16c/	.	.	.	.	.	.	.	.	.	.	.	.	.	.	.	.	.	.	.	.
8FF/J	.	.	16A/	.	.	.	.	.	.	.	.	.	.	.	.	.	.	.	.	.	.	.	.
.	.	.	16c/JJ	.	.	.	.	.	.	.	.	.	.	.	.	.	.	.	.	.	.	.	.
*	*	*	*rep	*	*	*	*	*	*	*	*	*	*	*	*	*	*	*	*	*	*	*	*
8FF/L	.	.	16A/LL	.	.	.	4F\	se-	.	.	4a\	se-	.	4ff\	se-	.	.	.	.	.	.	.	.
.	.	.	16c/	.	.	.	.	.	.	.	.	.	.	.	.	.	.	.	.	.	.	.	.
8FF/	.	.	16A/	.	.	.	.	.	.	.	.	.	.	.	.	.	.	.	.	.	.	.	.
.	.	.	16c/	.	.	.	.	.	.	.	.	.	.	.	.	.	.	.	.	.	.	.	.
8FF/	.	.	16A/	.	.	.	4F\	-des	.	.	4a\	-des	.	4ff\	-des	.	.	.	.	.	.	.	.
.	.	.	16c/	.	.	.	.	.	.	.	.	.	.	.	.	.	.	.	.	.	.	.	.
8FF/J	.	.	16A/	.	.	.	.	.	.	.	.	.	.	.	.	.	.	.	.	.	.	.	.
.	.	.	16c/JJ	.	.	.	.	.	.	.	.	.	.	.	.	.	.	.	.	.	.	.	.
*	*	*	*Xrep	*	*	*	*	*	*	*	*	*	*	*	*	*	*	*	*	*	*	*	*
*	*	*	*Xtremolo	*	*	*	*	*	*	*	*	*	*	*	*	*	*	*	*	*	*	*	*
=54	=54	=54	=54	=54	=54	=54	=54	=54	=54	=54	=54	=54	=54	=54	=54	=54	=54	=54	=54	=54	=54	=54	=54
*	*	*	*	*	*	*	*	*	*	*	*	*	*	*	*	*tremolo	*	*tremolo	*	*tremolo	*	*tremolo	*
!	!	!	!	!	!	!	!	!	!	!	!	!	!	!LO:TX:t=es	!	!	!	!	!	!	!	!	!
8FF/L	-7 5	.	8A/	.	1ryy	.	2F\	ad	.	1ryy	2cc\	ad	.	2ee-X\	ad	8F/L	.	8f\L	.	8ee-X\L	.	8aa\L	.
8FF/	.	.	4A/	.	.	.	.	.	.	.	.	.	.	.	.	8F/	.	8f\	.	8ee-\	.	8aa\	.
8FF/	.	.	.	.	.	.	.	.	.	.	.	.	.	.	.	8F/	.	8f\	.	8ee-\	.	8aa\	.
8FF/J	.	.	4A/	.	.	.	.	.	.	.	.	.	.	.	.	8F/J	.	8f\J	.	8ee-\J	.	8aa\J	.
!	!	!	!	!	!	!	!	!	!	!	!	!	!	!LO:TX:t=es	!	!	!	!	!	!	!	!	!
8FF/L	.	.	.	.	.	.	2F\	dex-	.	.	2cc\	dex-	.	2ee-\	dex-	8F/L	.	8f\L	.	8ee-\L	.	8aa\L	.
8FF/	.	.	8A/	.	.	.	.	.	.	.	.	.	.	.	.	8F/	.	8f\	.	8ee-\	.	8aa\	.
8FF/	.	.	16A/LL	.	.	.	.	.	.	.	.	.	.	.	.	8F/	.	8f\	.	8ee-\	.	8aa\	.
.	.	.	16c/	.	.	.	.	.	.	.	.	.	.	.	.	.	.	.	.	.	.	.	.
8FF/J	.	.	16A/	.	.	.	.	.	.	.	.	.	.	.	.	8F/J	.	8f\J	.	8ee-\J	.	8aa\J	.
.	.	.	16c/JJ	.	.	.	.	.	.	.	.	.	.	.	.	.	.	.	.	.	.	.	.
*	*	*	*	*	*	*	*	*	*	*	*	*	*	*	*	*Xtremolo	*	*Xtremolo	*	*Xtremolo	*	*Xtremolo	*
!	!	!	!	!	!	!	!	!	!	!	!LO:LB:g=original	!	!	!	!	!	!	!	!	!	!	!	!
=55	=55	=55	=55	=55	=55	=55	=55	=55	=55	=55	=55	=55	=55	=55	=55	=55	=55	=55	=55	=55	=55	=55	=55
*	*	*	*tremolo	*	*	*	*	*	*	*	*	*	*	*	*	*	*	*	*	*	*	*	*
8FF/L	6 4	.	16B-/LL	.	1ryy	.	2F\	-te-	.	1ryy	2b-\	-te-	.	2dd\	-te-	1F	.	1f	.	1dd	.	1bb-	.
.	.	.	16d/	.	.	.	.	.	.	.	.	.	.	.	.	.	.	.	.	.	.	.	.
8FF/	.	.	16B-/	.	.	.	.	.	.	.	.	.	.	.	.	.	.	.	.	.	.	.	.
.	.	.	16d/	.	.	.	.	.	.	.	.	.	.	.	.	.	.	.	.	.	.	.	.
8FF/	.	.	16B-/	.	.	.	.	.	.	.	.	.	.	.	.	.	.	.	.	.	.	.	.
.	.	.	16d/	.	.	.	.	.	.	.	.	.	.	.	.	.	.	.	.	.	.	.	.
8FF/J	.	.	16B-/	.	.	.	.	.	.	.	.	.	.	.	.	.	.	.	.	.	.	.	.
.	.	.	16d/JJ	.	.	.	.	.	.	.	.	.	.	.	.	.	.	.	.	.	.	.	.
*	*	*	*rep	*	*	*	*	*	*	*	*	*	*	*	*	*	*	*	*	*	*	*	*
8FF/L	.	.	16B-/LL	.	.	.	2F\	-ram	.	.	2b-\	-ram	.	2dd\	-ram	.	.	.	.	.	.	.	.
.	.	.	16d/	.	.	.	.	.	.	.	.	.	.	.	.	.	.	.	.	.	.	.	.
8FF/	.	.	16B-/	.	.	.	.	.	.	.	.	.	.	.	.	.	.	.	.	.	.	.	.
.	.	.	16d/	.	.	.	.	.	.	.	.	.	.	.	.	.	.	.	.	.	.	.	.
8FF/	.	.	16B-/	.	.	.	.	.	.	.	.	.	.	.	.	.	.	.	.	.	.	.	.
.	.	.	16d/	.	.	.	.	.	.	.	.	.	.	.	.	.	.	.	.	.	.	.	.
8FF/J	.	.	16B-/	.	.	.	.	.	.	.	.	.	.	.	.	.	.	.	.	.	.	.	.
.	.	.	16d/JJ	.	.	.	.	.	.	.	.	.	.	.	.	.	.	.	.	.	.	.	.
*	*	*	*Xrep	*	*	*	*	*	*	*	*	*	*	*	*	*	*	*	*	*	*	*	*
*	*	*	*Xtremolo	*	*	*	*	*	*	*	*	*	*	*	*	*	*	*	*	*	*	*	*
=56	=56	=56	=56	=56	=56	=56	=56	=56	=56	=56	=56	=56	=56	=56	=56	=56	=56	=56	=56	=56	=56	=56	=56
*	*	*	*	*	*	*	*	*	*	*	*	*	*	*	*	*tremolo	*	*tremolo	*	*tremolo	*	*tremolo	*
8FF/L	7 4	.	8e/	.	1ryy	.	2F\	pa-	.	1ryy	2b-\	pa-	.	2ee\	pa-	8F/L	.	8f\L	.	8een\L	.	8ccc\L	.
8FF/	.	.	4e/	.	.	.	.	.	.	.	.	.	.	.	.	8F/	.	8f\	.	8ee\	.	8ccc\	.
8FF/	.	.	.	.	.	.	.	.	.	.	.	.	.	.	.	8F/	.	8f\	.	8ee\	.	8ccc\	.
8FF/J	.	.	4e/	.	.	.	.	.	.	.	.	.	.	.	.	8F/J	.	8f\J	.	8ee\J	.	8ccc\J	.
8FF/L	.	.	.	.	.	.	2F\	-tris	.	.	2b-\	-tris	.	2ee\	-tris	8F/L	.	8f\L	.	8ee\L	.	8ccc\L	.
8FF/	.	.	8e/	.	.	.	.	.	.	.	.	.	.	.	.	8F/	.	8f\	.	8ee\	.	8ccc\	.
8FF/	.	.	16e/LL	.	.	.	.	.	.	.	.	.	.	.	.	8F/	.	8f\	.	8ee\	.	8ccc\	.
.	.	.	16g/	.	.	.	.	.	.	.	.	.	.	.	.	.	.	.	.	.	.	.	.
8FF/J	.	.	16e/	.	.	.	.	.	.	.	.	.	.	.	.	8F/J	.	8f\J	.	8ee\J	.	8ccc\J	.
.	.	.	16g/JJ	.	.	.	.	.	.	.	.	.	.	.	.	.	.	.	.	.	.	.	.
*	*	*	*	*	*	*	*	*	*	*	*	*	*	*	*	*Xtremolo	*	*Xtremolo	*	*Xtremolo	*	*Xtremolo	*
=57	=57	=57	=57	=57	=57	=57	=57	=57	=57	=57	=57	=57	=57	=57	=57	=57	=57	=57	=57	=57	=57	=57	=57
*	*	*	*tremolo	*	*	*	*	*	*	*	*	*	*	*	*	*	*	*	*	*	*	*	*
8FF/L	8	.	16A/LL	.	1ryy	.	2F\	mi-	.	1ryy	2a\	mi-	.	2ff\	mi-	1F	.	1f	.	1cc	.	1ff	.
.	.	.	16c/	.	.	.	.	.	.	.	.	.	.	.	.	.	.	.	.	.	.	.	.
8FF/	.	.	16A/	.	.	.	.	.	.	.	.	.	.	.	.	.	.	.	.	.	.	.	.
.	.	.	16c/	.	.	.	.	.	.	.	.	.	.	.	.	.	.	.	.	.	.	.	.
8FF/	.	.	16A/	.	.	.	.	.	.	.	.	.	.	.	.	.	.	.	.	.	.	.	.
.	.	.	16c/	.	.	.	.	.	.	.	.	.	.	.	.	.	.	.	.	.	.	.	.
8FF/J	.	.	16A/	.	.	.	.	.	.	.	.	.	.	.	.	.	.	.	.	.	.	.	.
.	.	.	16c/JJ	.	.	.	.	.	.	.	.	.	.	.	.	.	.	.	.	.	.	.	.
*	*	*	*rep	*	*	*	*	*	*	*	*	*	*	*	*	*	*	*	*	*	*	*	*
8FF/L	.	.	16A/LL	.	.	.	2F\	-se-	.	.	2a\	-se-	.	2ff\	-se-	.	.	.	.	.	.	.	.
.	.	.	16c/	.	.	.	.	.	.	.	.	.	.	.	.	.	.	.	.	.	.	.	.
8FF/	.	.	16A/	.	.	.	.	.	.	.	.	.	.	.	.	.	.	.	.	.	.	.	.
.	.	.	16c/	.	.	.	.	.	.	.	.	.	.	.	.	.	.	.	.	.	.	.	.
8FF/	.	.	16A/	.	.	.	.	.	.	.	.	.	.	.	.	.	.	.	.	.	.	.	.
.	.	.	16c/	.	.	.	.	.	.	.	.	.	.	.	.	.	.	.	.	.	.	.	.
8FF/J	.	.	16A/	.	.	.	.	.	.	.	.	.	.	.	.	.	.	.	.	.	.	.	.
.	.	.	16c/JJ	.	.	.	.	.	.	.	.	.	.	.	.	.	.	.	.	.	.	.	.
*	*	*	*Xrep	*	*	*	*	*	*	*	*	*	*	*	*	*	*	*	*	*	*	*	*
*	*	*	*Xtremolo	*	*	*	*	*	*	*	*	*	*	*	*	*	*	*	*	*	*	*	*
!	!	!	!LO:LB:g=original	!	!	!	!	!	!	!	!	!	!	!	!	!	!	!	!	!	!	!	!
=58	=58	=58	=58	=58	=58	=58	=58	=58	=58	=58	=58	=58	=58	=58	=58	=58	=58	=58	=58	=58	=58	=58	=58
*	*	*	*	*	*	*	*	*	*	*	*	*	*	*	*	*tremolo	*	*tremolo	*	*tremolo	*	*tremolo	*
!	!	!	!	!	!	!	!	!	!	!	!	!	!	!LO:TX:t=es	!	!	!	!	!	!	!	!	!
8FF/L	-7 5	.	8A/	.	1ryy	.	2F\	-re-	.	1ryy	2cc\	-re-	.	2ee-X\	-re-	8F/L	.	8f\L	.	8ee-X\L	.	8aa\L	.
8FF/	.	.	4A/	.	.	.	.	.	.	.	.	.	.	.	.	8F/	.	8f\	.	8ee-\	.	8aa\	.
8FF/	.	.	.	.	.	.	.	.	.	.	.	.	.	.	.	8F/	.	8f\	.	8ee-\	.	8aa\	.
8FF/J	.	.	4A/	.	.	.	.	.	.	.	.	.	.	.	.	8F/J	.	8f\J	.	8ee-\J	.	8aa\J	.
!	!	!	!	!	!	!	!	!	!	!	!	!	!	!LO:TX:t=es	!	!	!	!	!	!	!	!	!
8FF/L	.	.	.	.	.	.	2F\	-re	.	.	2cc\	-re	.	2ee-\	-re	8F/L	.	8f\L	.	8ee-\L	.	8aa\L	.
8FF/	.	.	8A/	.	.	.	.	.	.	.	.	.	.	.	.	8F/	.	8f\	.	8ee-\	.	8aa\	.
8FF/	.	.	16A/LL	.	.	.	.	.	.	.	.	.	.	.	.	8F/	.	8f\	.	8ee-\	.	8aa\	.
.	.	.	16c/	.	.	.	.	.	.	.	.	.	.	.	.	.	.	.	.	.	.	.	.
8FF/J	.	.	16A/	.	.	.	.	.	.	.	.	.	.	.	.	8F/J	.	8f\J	.	8ee-\J	.	8aa\J	.
.	.	.	16c/JJ	.	.	.	.	.	.	.	.	.	.	.	.	.	.	.	.	.	.	.	.
*	*	*	*	*	*	*	*	*	*	*	*	*	*	*	*	*Xtremolo	*	*Xtremolo	*	*Xtremolo	*	*Xtremolo	*
=59	=59	=59	=59	=59	=59	=59	=59	=59	=59	=59	=59	=59	=59	=59	=59	=59	=59	=59	=59	=59	=59	=59	=59
*	*	*	*tremolo	*	*	*	*	*	*	*	*	*	*	*	*	*	*	*	*	*	*	*	*
8FF/L	6 4	.	16B-/LL	.	1ryy	.	1F	no-	.	1ryy	1b-	no-	.	1dd	no-	1F	.	1f	.	1dd	.	1bb-	.
.	.	.	16d/	.	.	.	.	.	.	.	.	.	.	.	.	.	.	.	.	.	.	.	.
8FF/	.	.	16B-/	.	.	.	.	.	.	.	.	.	.	.	.	.	.	.	.	.	.	.	.
.	.	.	16d/	.	.	.	.	.	.	.	.	.	.	.	.	.	.	.	.	.	.	.	.
8FF/	.	.	16B-/	.	.	.	.	.	.	.	.	.	.	.	.	.	.	.	.	.	.	.	.
.	.	.	16d/	.	.	.	.	.	.	.	.	.	.	.	.	.	.	.	.	.	.	.	.
8FF/J	.	.	16B-/	.	.	.	.	.	.	.	.	.	.	.	.	.	.	.	.	.	.	.	.
.	.	.	16d/JJ	.	.	.	.	.	.	.	.	.	.	.	.	.	.	.	.	.	.	.	.
*	*	*	*rep	*	*	*	*	*	*	*	*	*	*	*	*	*	*	*	*	*	*	*	*
8FF/L	.	.	16B-/LL	.	.	.	.	.	.	.	.	.	.	.	.	.	.	.	.	.	.	.	.
.	.	.	16d/	.	.	.	.	.	.	.	.	.	.	.	.	.	.	.	.	.	.	.	.
8FF/	.	.	16B-/	.	.	.	.	.	.	.	.	.	.	.	.	.	.	.	.	.	.	.	.
.	.	.	16d/	.	.	.	.	.	.	.	.	.	.	.	.	.	.	.	.	.	.	.	.
8FF/	.	.	16B-/	.	.	.	.	.	.	.	.	.	.	.	.	.	.	.	.	.	.	.	.
.	.	.	16d/	.	.	.	.	.	.	.	.	.	.	.	.	.	.	.	.	.	.	.	.
8FF/J	.	.	16B-/	.	.	.	.	.	.	.	.	.	.	.	.	.	.	.	.	.	.	.	.
.	.	.	16d/JJ	.	.	.	.	.	.	.	.	.	.	.	.	.	.	.	.	.	.	.	.
*	*	*	*Xrep	*	*	*	*	*	*	*	*	*	*	*	*	*	*	*	*	*	*	*	*
*	*	*	*Xtremolo	*	*	*	*	*	*	*	*	*	*	*	*	*	*	*	*	*	*	*	*
=60	=60	=60	=60	=60	=60	=60	=60	=60	=60	=60	=60	=60	=60	=60	=60	=60	=60	=60	=60	=60	=60	=60	=60
*	*	*	*	*	*	*	*	*	*	*	*	*	*	*	*	*tremolo	*	*tremolo	*	*tremolo	*	*tremolo	*
8FF/L	7 4	.	8e/	.	1ryy	.	1F	.	.	1ryy	1b-	.	.	1ee	.	8F/L	.	8f\L	.	8een\L	.	8ccc\L	.
8FF/	.	.	4e/	.	.	.	.	.	.	.	.	.	.	.	.	8F/	.	8f\	.	8ee\	.	8ccc\	.
8FF/	.	.	.	.	.	.	.	.	.	.	.	.	.	.	.	8F/	.	8f\	.	8ee\	.	8ccc\	.
8FF/J	.	.	4e/	.	.	.	.	.	.	.	.	.	.	.	.	8F/J	.	8f\J	.	8ee\J	.	8ccc\J	.
8FF/L	.	.	.	.	.	.	.	.	.	.	.	.	.	.	.	8F/L	.	8f\L	.	8ee\L	.	8ccc\L	.
8FF/	.	.	8e/	.	.	.	.	.	.	.	.	.	.	.	.	8F/	.	8f\	.	8ee\	.	8ccc\	.
8FF/	.	.	16e/LL	.	.	.	.	.	.	.	.	.	.	.	.	8F/	.	8f\	.	8ee\	.	8ccc\	.
.	.	.	16g/	.	.	.	.	.	.	.	.	.	.	.	.	.	.	.	.	.	.	.	.
8FF/J	.	.	16e/	.	.	.	.	.	.	.	.	.	.	.	.	8F/J	.	8f\J	.	8ee\J	.	8ccc\J	.
!LO:TX:a:t=vi	!	!	!LO:TX:a:t=vi	!	!	!	!	!	!	!	!	!	!	!	!	!	!	!	!	!	!	!LO:TX:t=vi	!
.	.	.	16g/JJ	.	.	.	.	.	.	.	.	.	.	.	.	.	.	.	.	.	.	.	.
*Xtremolo	*	*	*	*	*	*	*	*	*	*	*	*	*	*	*	*Xtremolo	*	*Xtremolo	*	*Xtremolo	*	*Xtremolo	*
=61	=61	=61	=61	=61	=61	=61	=61	=61	=61	=61	=61	=61	=61	=61	=61	=61	=61	=61	=61	=61	=61	=61	=61
*	*	*	*tremolo	*	*	*	*	*	*	*	*	*	*	*	*	*	*	*	*	*	*	*	*
!	!	!LO:DY:rj	!LO:TX:t=de	!	!	!	!LO:TX:a:t=re	!	!	!	!	!	!	!LO:TX:t=de	!	!	!	!	!	!	!	!	!
8F\	3	f	16ff\LL	.	1ryy	.	8F\	-bis	.	1ryy	8a\	-bis	.	4ff\	-bis	4F/	.	4f\	.	8ff\	.	8aa\	.
.	.	.	16ff\	.	.	.	.	.	.	.	.	.	.	.	.	.	.	.	.	.	.	.	.
8r	.	.	16ff\	.	.	.	8r	.	.	.	8r	.	.	.	.	.	.	.	.	8r	.	8r	.
.	.	.	16ff\	.	.	.	.	.	.	.	.	.	.	.	.	.	.	.	.	.	.	.	.
4.F\	3	.	16ff\	.	.	.	4.F\	mi-	.	.	(4.a\	mi-	.	2ff\	mi-	2A/	.	2f\	.	4.ff\	.	4.aa\	.
.	.	.	16ff\	.	.	.	.	.	.	.	.	.	.	.	.	.	.	.	.	.	.	.	.
.	.	.	16ff\	.	.	.	.	.	.	.	.	.	.	.	.	.	.	.	.	.	.	.	.
.	.	.	16ff\JJ	.	.	.	.	.	.	.	.	.	.	.	.	.	.	.	.	.	.	.	.
.	.	.	16ff\LL	.	.	.	.	.	.	.	.	.	.	.	.	.	.	.	.	.	.	.	.
.	.	.	16ff\	.	.	.	.	.	.	.	.	.	.	.	.	.	.	.	.	.	.	.	.
8E\L	3	.	16ff\	.	.	.	8E\L	-se-	.	.	8g\)	.	.	.	.	.	.	.	.	8ee\L	.	8gg\L	.
.	.	.	16ff\	.	.	.	.	.	.	.	.	.	.	.	.	.	.	.	.	.	.	.	.
8D#X\	#	.	16ff\	.	.	.	8D#X\	.	.	.	8f#X\L	-se-	.	4ff\	-se-	4B-/	.	4g\	.	8dd#X\	.	8ff#X\	.
.	.	.	16ff\	.	.	.	.	.	.	.	.	.	.	.	.	.	.	.	.	.	.	.	.
8E\J	2	.	16ff\	.	.	.	8E\J	.	.	.	8g\J	.	.	.	.	.	.	.	.	8ee\J	.	8gg\J	.
.	.	.	16ff\JJ	.	.	.	.	.	.	.	.	.	.	.	.	.	.	.	.	.	.	.	.
!	!	!	!	!	!	!	!	!	!	!	!	!	!	!	!	!	!	!LO:LB:g=original	!	!LO:LB:g=original	!	!	!
=62	=62	=62	=62	=62	=62	=62	=62	=62	=62	=62	=62	=62	=62	=62	=62	=62	=62	=62	=62	=62	=62	=62	=62
8D\	6	.	16ff\LL	.	1ryy	.	4D\	-re-	.	1ryy	[2b-\	-re-	.	2ff\	-re-	4c/	.	4g\	.	8ddn\	.	8bb-\	.
.	.	.	16ff\	.	.	.	.	.	.	.	.	.	.	.	.	.	.	.	.	.	.	.	.
8r	.	.	16ff\	.	.	.	.	.	.	.	.	.	.	.	.	.	.	.	.	8r	.	8r	.
.	.	.	16ff\	.	.	.	.	.	.	.	.	.	.	.	.	.	.	.	.	.	.	.	.
4.d\	6	.	16ff\	.	.	.	4.d\	.	.	.	.	.	.	.	.	2c/	.	2g\	.	4.dd\	.	4.bb-\	.
.	.	.	16ff\	.	.	.	.	.	.	.	.	.	.	.	.	.	.	.	.	.	.	.	.
.	.	.	16ff\	.	.	.	.	.	.	.	.	.	.	.	.	.	.	.	.	.	.	.	.
.	.	.	16ff\JJ	.	.	.	.	.	.	.	.	.	.	.	.	.	.	.	.	.	.	.	.
.	.	.	16ff\LL	.	.	.	.	.	.	.	8b-\L]	.	.	2ff\	-re	.	.	.	.	.	.	.	.
.	.	.	16ff\	.	.	.	.	.	.	.	.	.	.	.	.	.	.	.	.	.	.	.	.
8c\L	6	.	16ff\	.	.	.	8c\L	-re	.	.	8a\J	-re-	.	.	.	.	.	.	.	8cc\L	.	8aa\L	.
.	.	.	16ff\	.	.	.	.	.	.	.	.	.	.	.	.	.	.	.	.	.	.	.	.
8B-\	6	.	16ff\	.	.	.	8Bn\	.	.	.	8g#X\L	-re	.	.	.	4A/	.	4f\	.	8bn\	.	8gg#X\	.
.	.	.	16ff\	.	.	.	.	.	.	.	.	.	.	.	.	.	.	.	.	.	.	.	.
8c\J	6	.	16ff\	.	.	.	8c\J	.	.	.	8a\J	.	.	.	.	.	.	.	.	8cc\J	.	8aa\J	.
.	.	.	16ff\JJ	.	.	.	.	.	.	.	.	.	.	.	.	.	.	.	.	.	.	.	.
!	!	!	!	!	!	!	!LO:LB:g=original	!	!	!	!	!	!	!	!	!	!	!	!	!	!	!LO:LB:g=original	!
=63	=63	=63	=63	=63	=63	=63	=63	=63	=63	=63	=63	=63	=63	=63	=63	=63	=63	=63	=63	=63	=63	=63	=63
*tremolo	*	*	*	*	*	*	*	*	*	*	*	*	*	*	*	*	*	*	*	*	*	*	*
8B-\L	6 5_	.	16ff\LL	.	1ryy	.	2B-\	no-	.	1ryy	2g\	mi-	.	2ff\	mi-	2F/	.	2f\	.	2b-X\	.	2gg\	.
.	.	.	16ff\	.	.	.	.	.	.	.	.	.	.	.	.	.	.	.	.	.	.	.	.
8B-\	.	.	16ff\	.	.	.	.	.	.	.	.	.	.	.	.	.	.	.	.	.	.	.	.
.	.	.	16ff\	.	.	.	.	.	.	.	.	.	.	.	.	.	.	.	.	.	.	.	.
8B-\	.	.	16ff\	.	.	.	.	.	.	.	.	.	.	.	.	.	.	.	.	.	.	.	.
.	.	.	16ff\	.	.	.	.	.	.	.	.	.	.	.	.	.	.	.	.	.	.	.	.
8B-\J	.	.	16ff\	.	.	.	.	.	.	.	.	.	.	.	.	.	.	.	.	.	.	.	.
.	.	.	16ff\JJ	.	.	.	.	.	.	.	.	.	.	.	.	.	.	.	.	.	.	.	.
8Bn\L	#6 _	.	16ff\LL	.	.	.	2Bn\	-bis	.	.	2g#X\	-se-	.	2ff\	-se-	2F/	.	2f\	.	2bn\	.	2gg#X\	.
.	.	.	16ff\	.	.	.	.	.	.	.	.	.	.	.	.	.	.	.	.	.	.	.	.
8B\	.	.	16ff\	.	.	.	.	.	.	.	.	.	.	.	.	.	.	.	.	.	.	.	.
.	.	.	16ff\	.	.	.	.	.	.	.	.	.	.	.	.	.	.	.	.	.	.	.	.
8B\	.	.	16ff\	.	.	.	.	.	.	.	.	.	.	.	.	.	.	.	.	.	.	.	.
.	.	.	16ff\	.	.	.	.	.	.	.	.	.	.	.	.	.	.	.	.	.	.	.	.
8B\J	.	.	16ff\	.	.	.	.	.	.	.	.	.	.	.	.	.	.	.	.	.	.	.	.
.	.	.	16ff\JJ	.	.	.	.	.	.	.	.	.	.	.	.	.	.	.	.	.	.	.	.
!	!	!	!	!	!	!	!	!	!	!	!LO:PB:g=original	!	!	!	!	!	!	!	!	!	!	!	!
=64	=64	=64	=64	=64	=64	=64	=64	=64	=64	=64	=64	=64	=64	=64	=64	=64	=64	=64	=64	=64	=64	=64	=64
*	*	*	*	*	*	*	*	*	*	*	*	*	*	*	*	*tremolo	*	*	*	*	*	*	*
8c\L	5 4_	.	16ff\LL	.	1ryy	.	2c\	mi-	.	1ryy	2a\	-re-	.	2ff\	-re-	8F/L	.	2f\	.	2cc\	.	2aa\	.
.	.	.	16ff\	.	.	.	.	.	.	.	.	.	.	.	.	.	.	.	.	.	.	.	.
8c\	.	.	16ff\	.	.	.	.	.	.	.	.	.	.	.	.	8F/	.	.	.	.	.	.	.
.	.	.	16ff\	.	.	.	.	.	.	.	.	.	.	.	.	.	.	.	.	.	.	.	.
8c\	.	.	16ff\	.	.	.	.	.	.	.	.	.	.	.	.	8F/	.	.	.	.	.	.	.
.	.	.	16ff\	.	.	.	.	.	.	.	.	.	.	.	.	.	.	.	.	.	.	.	.
8c\J	.	.	16ff\	.	.	.	.	.	.	.	.	.	.	.	.	8F/J	.	.	.	.	.	.	.
.	.	.	16ff\JJ	.	.	.	.	.	.	.	.	.	.	.	.	.	.	.	.	.	.	.	.
*Xtremolo	*	*	*	*	*	*	*	*	*	*	*	*	*	*	*	*Xtremolo	*	*	*	*	*	*	*
8d\L	6 _	.	16ff\LL	.	.	.	4d\	.	.	.	(4b-\	-re	.	2ff\	-re	4F/	.	4f\	.	4dd\	.	4bb-\	.
.	.	.	16ff\	.	.	.	.	.	.	.	.	.	.	.	.	.	.	.	.	.	.	.	.
8d\J	6 _	.	16ff\	.	.	.	.	.	.	.	.	.	.	.	.	.	.	.	.	.	.	.	.
.	.	.	16ff\	.	.	.	.	.	.	.	.	.	.	.	.	.	.	.	.	.	.	.	.
8d-X\L	#6 _	.	16ff\	.	.	.	4d\	-se-	.	.	4bn\)	.	.	.	.	4F/	.	4f\	.	4gg#X\	.	4bbn\	.
.	.	.	16ff\	.	.	.	.	.	.	.	.	.	.	.	.	.	.	.	.	.	.	.	.
8d-\J	6 _	.	16ff\	.	.	.	.	.	.	.	.	.	.	.	.	.	.	.	.	.	.	.	.
.	.	.	16ff\JJ	.	.	.	.	.	.	.	.	.	.	.	.	.	.	.	.	.	.	.	.
=65	=65	=65	=65	=65	=65	=65	=65	=65	=65	=65	=65	=65	=65	=65	=65	=65	=65	=65	=65	=65	=65	=65	=65
8c\L	8 4_	.	16ff\LL	.	1ryy	.	8c\L	-re-	.	1ryy	8cc\L	mi-	.	4ff\	mi-	4F/	.	4f\	.	8aa\L	.	8ccc\L	.
.	.	.	16ff\	.	.	.	.	.	.	.	.	.	.	.	.	.	.	.	.	.	.	.	.
8Bn\J	10 _	.	16ff\	.	.	.	8Bn\J	.	.	.	8dd\J	.	.	.	.	.	.	.	.	8gg#X\J	.	8bbn\J	.
.	.	.	16ff\	.	.	.	.	.	.	.	.	.	.	.	.	.	.	.	.	.	.	.	.
8c\L	8 _	.	16ff\	.	.	.	8c\L	-re	.	.	8cc\L	-se-	.	4ff\	-se-	4F/	.	4f\	.	8aa\L	.	8ccc\L	.
.	.	.	16ff\	.	.	.	.	.	.	.	.	.	.	.	.	.	.	.	.	.	.	.	.
8B\J	10 _	.	16ff\	.	.	.	8B\J	.	.	.	8dd\J	.	.	.	.	.	.	.	.	8gg#\J	.	8bb\J	.
.	.	.	16ff\JJ	.	.	.	.	.	.	.	.	.	.	.	.	.	.	.	.	.	.	.	.
8c\L	8 _	.	16ff\LL	.	.	.	8c\L	mi-	.	.	8cc\L	-re-	.	4ff\	-re-	4F/	.	4f\	.	8aa\L	.	8ccc\L	.
.	.	.	16ff\	.	.	.	.	.	.	.	.	.	.	.	.	.	.	.	.	.	.	.	.
8B\J	10 _	.	16ff\	.	.	.	8B\J	.	.	.	8dd\J	.	.	.	.	.	.	.	.	8gg#\J	.	8bb\J	.
.	.	.	16ff\	.	.	.	.	.	.	.	.	.	.	.	.	.	.	.	.	.	.	.	.
8c\L	8 _	.	16ff\	.	.	.	8c\L	-se-	.	.	8cc\L	-re	.	4ff\	-re	4F/	.	4f\	.	8aa\L	.	8ccc\L	.
.	.	.	16ff\	.	.	.	.	.	.	.	.	.	.	.	.	.	.	.	.	.	.	.	.
8B\J	10 _	.	16ff\	.	.	.	8B\J	.	.	.	8dd\J	.	.	.	.	.	.	.	.	8gg#\J	.	8bb\J	.
.	.	.	16ff\JJ	.	.	.	.	.	.	.	.	.	.	.	.	.	.	.	.	.	.	.	.
!	!	!	!	!	!	!	!	!	!	!	!	!	!	!	!	!LO:LB:g=original	!	!	!	!	!	!	!
=66	=66	=66	=66	=66	=66	=66	=66	=66	=66	=66	=66	=66	=66	=66	=66	=66	=66	=66	=66	=66	=66	=66	=66
*tremolo	*	*	*	*	*	*	*	*	*	*	*	*	*	*	*	*	*	*	*	*	*	*	*
8B-X\L	4 2	.	16ee\LL	.	1ryy	.	4B-X\	-re-	.	1ryy	4e\	mi-	.	4cc\	mi-	1c	.	1g	.	4cc\	.	4ee\	.
.	.	.	16ee\	.	.	.	.	.	.	.	.	.	.	.	.	.	.	.	.	.	.	.	.
8B-\J	.	.	16ee\	.	.	.	.	.	.	.	.	.	.	.	.	.	.	.	.	.	.	.	.
.	.	.	16ee\JJ	.	.	.	.	.	.	.	.	.	.	.	.	.	.	.	.	.	.	.	.
8A\L	6 3	.	16ff\LL	.	.	.	4A\	.	.	.	4f\	-se-	.	4dd\	-se-	.	.	.	.	4dd\	.	4ff\	<
.	.	.	16ff\	.	.	.	.	.	.	.	.	.	.	.	.	.	.	.	.	.	.	.	.
8A\J	.	.	16ff\	.	.	.	.	.	.	.	.	.	.	.	.	.	.	.	.	.	.	.	.
.	.	.	16ff\JJ	.	.	.	.	.	.	.	.	.	.	.	.	.	.	.	.	.	.	.	.
8G\L	8 5	.	16gg\LL	.	.	.	4G\	.	.	.	4g\	-re-	.	4ee\	-re-	.	.	.	.	4ee\	.	4gg\	.
.	.	.	16gg\	.	.	.	.	.	.	.	.	.	.	.	.	.	.	.	.	.	.	.	.
8G\J	.	.	16gg\	.	.	.	.	.	.	.	.	.	.	.	.	.	.	.	.	.	.	.	.
.	.	.	16gg\JJ	.	.	.	.	.	.	.	.	.	.	.	.	.	.	.	.	.	.	.	.
8F\L	10 5	.	16aa\LL	.	.	.	4F\	-re	.	.	4a\	-re	.	4ff\	-re	.	.	.	.	4ff\	.	4aa\	[
.	.	.	16aa\	.	.	.	.	.	.	.	.	.	.	.	.	.	.	.	.	.	.	.	.
8F\J	.	.	16aa\	.	.	.	.	.	.	.	.	.	.	.	.	.	.	.	.	.	.	.	.
.	.	.	16aa\JJ	.	.	.	.	.	.	.	.	.	.	.	.	.	.	.	.	.	.	.	.
=67	=67	=67	=67	=67	=67	=67	=67	=67	=67	=67	=67	=67	=67	=67	=67	=67	=67	=67	=67	=67	=67	=67	=67
8E\L	5_ 3_	.	16bb-\LL	ff	1ryy	.	2E\	no-	.	1ryy	1b-	no-	.	1gg	no-	1c	.	1g	.	1ee	.	1bb-	.
.	.	.	16bb-\	.	.	.	.	.	.	.	.	.	.	.	.	.	.	.	.	.	.	.	.
8E\	.	.	16bb-\	.	.	.	.	.	.	.	.	.	.	.	.	.	.	.	.	.	.	.	.
.	.	.	16bb-\	.	.	.	.	.	.	.	.	.	.	.	.	.	.	.	.	.	.	.	.
8E\	.	.	16bb-\	.	.	.	.	.	.	.	.	.	.	.	.	.	.	.	.	.	.	.	.
.	.	.	16bb-\	.	.	.	.	.	.	.	.	.	.	.	.	.	.	.	.	.	.	.	.
8E\J	.	.	16bb-\	.	.	.	.	.	.	.	.	.	.	.	.	.	.	.	.	.	.	.	.
.	.	.	16bb-\	.	.	.	.	.	.	.	.	.	.	.	.	.	.	.	.	.	.	.	.
8E\L	.	.	16bb-\	.	.	.	2E\	.	.	.	.	.	.	.	.	.	.	.	.	.	.	.	.
.	.	.	16bb-\	.	.	.	.	.	.	.	.	.	.	.	.	.	.	.	.	.	.	.	.
8E\	.	.	16bb-\	.	.	.	.	.	.	.	.	.	.	.	.	.	.	.	.	.	.	.	.
.	.	.	16bb-\	.	.	.	.	.	.	.	.	.	.	.	.	.	.	.	.	.	.	.	.
8E\	.	.	16bb-\	.	.	.	.	.	.	.	.	.	.	.	.	.	.	.	.	.	.	.	.
.	.	.	16bb-\	.	.	.	.	.	.	.	.	.	.	.	.	.	.	.	.	.	.	.	.
8E\J	.	.	16bb-\	.	.	.	.	.	.	.	.	.	.	.	.	.	.	.	.	.	.	.	.
.	.	.	16bb-\JJ	.	.	.	.	.	.	.	.	.	.	.	.	.	.	.	.	.	.	.	.
*Xtremolo	*	*	*Xtremolo	*	*	*	*	*	*	*	*	*	*	*	*	*	*	*	*	*	*	*	*
=68	=68	=68	=68	=68	=68	=68	=68	=68	=68	=68	=68	=68	=68	=68	=68	=68	=68	=68	=68	=68	=68	=68	=68
4C#X\	.	.	4bb- 4cc'\	.	1ryy	.	4C#X\	.	.	1ryy	4b-\	.	.	4gg\	.	4r	.	4g\	.	4ee\	.	4bb-\	.
4D\	5 3	.	4aa 4cc'\	.	.	.	4D\	[-bis	.	.	4a\	-bis	.	4ff\	-bis	4F/	.	4f\	.	4ff\	.	4aa\	.
!	!	!	!	!	!	!	!	!	!	!	!	!	!	!	!	!	!	!	!	!LO:TX:b:i:t=Vertatur	!	!LO:TX:b:i:t=Vertel \nprętk	!
4r	.	.	4dd\	.	.	.	2r	.	.	.	2r	.	.	4r	.	2r	.	2r	.	2r	.	2r	.
4BB-\	6 3	.	4r	.	.	.	.	.	.	.	.	.	.	4r	.	.	.	.	.	.	.	.	.
!LO:LB:g=original	!	!	!	!	!	!	!	!	!	!	!	!	!	!	!	!	!	!	!	!LO:PB:g=original	!	!LO:PB:g=original	!
=69	=69	=69	=69	=69	=69	=69	=69	=69	=69	=69	=69	=69	=69	=69	=69	=69	=69	=69	=69	=69	=69	=69	=69
4C/	.	.	4a/	.	1ryy	.	4C/	mi-	.	1ryy	4a\	mi-	.	4ff\	mi-	2A/	.	2f\	.	2cc\	.	2ccc\	.
4r	.	.	4r	.	.	.	8C/	-se-	.	.	8a\	-se-	.	8ff\	-se-	.	.	.	.	.	.	.	.
.	.	.	.	.	.	.	8C/	-re-	.	.	8a\	-re-	.	8ff\	-re-	.	.	.	.	.	.	.	.
4C/	.	.	4g/	.	.	.	4C/	-re	.	.	4a\	-re	.	4ff\	-re	2c/	.	2g\	.	2b-\	.	2gg\	.
4r	.	.	4r	.	.	.	4C/	no-	.	.	4g\	no-	.	4ee\	no-	.	.	.	.	.	.	.	.
=70	=70	=70	=70	=70	=70	=70	=70	=70	=70	=70	=70	=70	=70	=70	=70	=70	=70	=70	=70	=70	=70	=70	=70
!	!	!	!LO:TX:t=P:problem=nad współbrzmieniem cyfry 1 i 2 (palcowanie?)	!	!	!	!	!	!	!	!	!	!	!	!	!	!	!	!	!	!	!	!
4F\	.	.	4a 4c/	.	1ryy	.	4F\	-bis]	.	1ryy	4a\	-bis	.	4ff\	-bis	4A/	.	4f\	.	2a/	.	2ff\	.
4F\	.	.	4a 4c/	.	.	.	4r	.	.	.	4r	.	.	4r	.	4f/	.	4f\	.	.	.	.	.
4BB-\	.	.	4a 4c/	.	.	.	2r	.	.	.	2r	.	.	2r	.	4c/	.	4cc\	.	4cc\	.	4ccc\	.
!	!	!	!LO:TX:a:t=re	!	!	!	!	!	!	!	!	!	!	!LO:TX:t=re	!	!	!	!	!	!	!	!	!
4AA\	.	.	4a 4c/	.	.	.	.	.	.	.	.	.	.	.	.	4A/	.	4a\	.	4a\	.	4aa\	.
!	!	!	!	!	!	!	!LO:LB:g=original	!	!	!	!LO:LB:g=original	!	!	!	!	!	!	!	!	!	!	!	!
=71	=71	=71	=71	=71	=71	=71	=71	=71	=71	=71	=71	=71	=71	=71	=71	=71	=71	=71	=71	=71	=71	=71	=71
*	*	*	*	*	*	*	*	*above	*	*	*	*	*	*	*	*	*	*	*	*tremolo	*	*	*
!LO:TX:a:t=tro	!	!	!LO:TX:a:t=tro	!	!	!	!LO:TX:a:t=tro	!	!	!	!	!	!	!	!	!	!	!	!	!	!	!	!
4F\	x 5_ 3_	.	8.f/L	.	1ryy	.	4F\	quo-	[[bis	1ryy	4f\	Quo-	.	4ryy	.	8r	.	8f\L	.	8a\L	p	8ff\L	p
.	.	.	.	.	.	.	.	.	.	.	.	.	.	.	.	8A/L	.	8f\	.	8a\	.	8cc\	.
.	.	.	16c/Jk	.	.	.	.	.	.	.	.	.	.	.	.	.	.	.	.	.	.	.	.
!	!	!	!	!	!	!	!	!	!	!	!	!	!	!LO:TX:t=tro	!	!	!	!	!	!	!	!	!
8r	.	.	8.f/L	.	.	.	[8F\	-ni-	qui	.	4f\	-ni-	.	8a\	quo-	8A/	.	8f\	.	8a\	.	8cc\	.
8C\	.	.	.	.	.	.	8F\]	.	.	.	.	.	.	8a\	-ni-	8A/J	.	8f\J	.	8a\J	.	8cc\J	.
.	.	.	16c/Jk	.	.	.	.	.	.	.	.	.	.	.	.	.	.	.	.	.	.	.	.
*	*	*	*	*	*	*	*	*	*	*	*	*	*	*	*	*	*	*	*	*Xtremolo	*	*	*
4F\	.	.	8.f/L	.	.	.	4F\	-am	se-	.	4f\	-am	.	4a\	-am	8r	.	8r	.	8r	.	8r	.
.	.	.	.	.	.	.	.	.	.	.	.	.	.	.	.	8A/L	.	8f\L	.	8a\L	.	8cc\L	.
.	.	.	16c/Jk	.	.	.	.	.	.	.	.	.	.	.	.	.	.	.	.	.	.	.	.
8r	.	.	8.f/L	.	.	.	4F\	tu	-des]]	.	4f\	tu	.	4a\	tu	8A/	.	8f\	.	8a\	.	8cc\	.
8C\	.	.	.	.	.	.	.	.	.	.	.	.	.	.	.	8A/J	.	8f\J	.	8a\J	.	8cc\J	.
.	.	.	16c/Jk	.	.	.	.	.	.	.	.	.	.	.	.	.	.	.	.	.	.	.	.
!LO:LB:g=original	!	!	!	!	!	!	!	!	!	!	!	!	!	!	!	!	!	!	!	!	!	!	!
=72	=72	=72	=72	=72	=72	=72	=72	=72	=72	=72	=72	=72	=72	=72	=72	=72	=72	=72	=72	=72	=72	=72	=72
*	*	*	*	*	*	*	*	*below	*	*	*	*	*	*	*	*	*	*	*	*	*	*	*
4F\	x 5_ 3_	.	8.a/L	.	1ryy	.	4F\	so-	.	1ryy	4f\	so-	.	4a\	so-	4A/	.	4f\	.	8r	.	8r	.
.	.	.	.	.	.	.	.	.	.	.	.	.	.	.	.	.	.	.	.	8a\L	.	8cc\L	.
.	.	.	16c/Jk	.	.	.	.	.	.	.	.	.	.	.	.	.	.	.	.	.	.	.	.
*	*	*	*rep	*	*	*	*	*	*	*	*	*	*	*	*	*	*	*	*	*	*	*	*
4A\	.	.	8.a/L	.	.	.	4c\	-lus	.	.	4f\	-lus	.	4a\	-lus	4c/	.	4cc\	.	8a\	.	8cc\	.
.	.	.	.	.	.	.	.	.	.	.	.	.	.	.	.	.	.	.	.	8a\J	.	8cc\J	.
.	.	.	16c/Jk	.	.	.	.	.	.	.	.	.	.	.	.	.	.	.	.	.	.	.	.
*	*	*	*Xrep	*	*	*	*	*	*	*	*	*	*	*	*	*	*	*	*	*	*	*	*
*	*	*	*rep	*	*	*	*	*	*	*	*	*	*	*	*	*	*	*	*	*	*	*	*
4c\	.	.	8.a/L	.	.	.	4A\	San-	.	.	4f\	San-	.	4a\	San-	4A/	.	4a\	.	8r	.	8r	.
.	.	.	.	.	.	.	.	.	.	.	.	.	.	.	.	.	.	.	.	8a\L	.	8cc\L	.
.	.	.	16c/Jk	.	.	.	.	.	.	.	.	.	.	.	.	.	.	.	.	.	.	.	.
*	*	*	*Xrep	*	*	*	*	*	*	*	*	*	*	*	*	*	*	*	*	*	*	*	*
*	*	*	*rep	*	*	*	*	*	*	*	*	*	*	*	*	*	*	*	*	*	*	*	*
4F\	.	.	8.a/L	.	.	.	4F\	-ctus	.	.	4f\	-ctus	.	4a\	-ctus	4F/	.	4f\	.	8a\	.	8cc\	.
.	.	.	.	.	.	.	.	.	.	.	.	.	.	.	.	.	.	.	.	8a\J	.	8cc\J	.
.	.	.	16c/Jk	.	.	.	.	.	.	.	.	.	.	.	.	.	.	.	.	.	.	.	.
*	*	*	*Xrep	*	*	*	*	*	*	*	*	*	*	*	*	*	*	*	*	*	*	*	*
!	!	!	!	!	!	!	!	!	!	!	!	!	!	!LO:LB:g=original	!	!	!	!LO:LB:g=original	!	!	!	!	!
=73	=73	=73	=73	=73	=73	=73	=73	=73	=73	=73	=73	=73	=73	=73	=73	=73	=73	=73	=73	=73	=73	=73	=73
4E\	6_ 5_ 3_	.	8.g/L	.	1ryy	.	4E\	al-	.	1ryy	4g\	al-	.	4b-\	al-	8r	.	8r	.	8r	.	8r	.
.	.	.	.	.	.	.	.	.	.	.	.	.	.	.	.	8c/L	.	8g\L	.	8b-\L	.	8cc\L	.
.	.	.	16c/Jk	.	.	.	.	.	.	.	.	.	.	.	.	.	.	.	.	.	.	.	.
*	*	*	*rep	*	*	*	*	*	*	*	*	*	*	*	*	*	*	*	*	*	*	*	*
8r	.	.	8.g/L	.	.	.	4E\	-ti-	.	.	4g\	-ti-	.	4b-\	-ti-	8c/	.	8g\	.	8b-\	.	8cc\	.
8C\	.	.	.	.	.	.	.	.	.	.	.	.	.	.	.	8c/J	.	8g\J	.	8b-\J	.	8cc\J	.
.	.	.	16c/Jk	.	.	.	.	.	.	.	.	.	.	.	.	.	.	.	.	.	.	.	.
*	*	*	*Xrep	*	*	*	*	*	*	*	*	*	*	*	*	*	*	*	*	*	*	*	*
*	*	*	*rep	*	*	*	*	*	*	*	*	*	*	*	*	*	*	*	*	*	*	*	*
4E\	.	.	8.g/L	.	.	.	4E\	-si-	.	.	4g\	-si-	.	4b-\	-si-	8r	.	8r	.	8r	.	8r	.
.	.	.	.	.	.	.	.	.	.	.	.	.	.	.	.	8c/L	.	8g\L	.	8b-\L	.	8cc\L	.
.	.	.	16c/Jk	.	.	.	.	.	.	.	.	.	.	.	.	.	.	.	.	.	.	.	.
*	*	*	*Xrep	*	*	*	*	*	*	*	*	*	*	*	*	*	*	*	*	*	*	*	*
*	*	*	*rep	*	*	*	*	*	*	*	*	*	*	*	*	*	*	*	*	*	*	*	*
8r	.	.	8.g/L	.	.	.	4E\	-mus	.	.	4g\	-mus	.	4b-\	-mus	8c/	.	8g\	.	8b-\	.	8cc\	.
8C\	.	.	.	.	.	.	.	.	.	.	.	.	.	.	.	8c/J	.	8g\J	.	8b-\J	.	8cc\J	.
.	.	.	16c/Jk	.	.	.	.	.	.	.	.	.	.	.	.	.	.	.	.	.	.	.	.
*	*	*	*Xrep	*	*	*	*	*	*	*	*	*	*	*	*	*	*	*	*	*	*	*	*
=74	=74	=74	=74	=74	=74	=74	=74	=74	=74	=74	=74	=74	=74	=74	=74	=74	=74	=74	=74	=74	=74	=74	=74
*	*	*	*	*	*	*	*	*	*	*	*	*	*	*	*	*rep	*	*rep	*	*	*	*	*
4C\	.	.	8.b-/L	.	1ryy	.	4E\	je-	.	1ryy	4g\	Je-	.	4b-\	Je-	8r	.	8r	.	4b-\	.	4ee\	.
.	.	.	.	.	.	.	.	.	.	.	.	.	.	.	.	8c/L	.	8g\L	.	.	.	.	.
.	.	.	16c/Jk	.	.	.	.	.	.	.	.	.	.	.	.	.	.	.	.	.	.	.	.
*	*	*	*rep	*	*	*	*	*	*	*	*	*	*	*	*	*	*	*	*	*	*	*	*
4E\	.	.	8.b-/L	.	.	.	4G\	-su	.	.	4g\	-su	.	4b-\	-su	8c/	.	8g\	.	4b-\	.	4bb-\	.
.	.	.	.	.	.	.	.	.	.	.	.	.	.	.	.	8c/J	.	8g\J	.	.	.	.	.
.	.	.	16c/Jk	.	.	.	.	.	.	.	.	.	.	.	.	.	.	.	.	.	.	.	.
*	*	*	*Xrep	*	*	*	*	*	*	*	*	*	*	*	*	*	*	*	*	*	*	*	*
*	*	*	*rep	*	*	*	*	*	*	*	*	*	*	*	*	*	*	*	*	*	*	*	*
4G\	.	.	8.b-/L	.	.	.	4E\	Chri-	.	.	4g\	Chri-	.	4b-\	Chri-	8r	.	8r	.	4g/	.	4gg\	.
.	.	.	.	.	.	.	.	.	.	.	.	.	.	.	.	8c/L	.	8g\L	.	.	.	.	.
.	.	.	16c/Jk	.	.	.	.	.	.	.	.	.	.	.	.	.	.	.	.	.	.	.	.
*	*	*	*Xrep	*	*	*	*	*	*	*	*	*	*	*	*	*	*	*	*	*	*	*	*
*	*	*	*rep	*	*	*	*	*	*	*	*	*	*	*	*	*	*	*	*	*	*	*	*
4C\	.	.	8.b-/L	.	.	.	4C\	-ste	.	.	4g\	-ste	.	4b-\	-ste	8c/	.	8g\	.	4e/	.	4ee\	.
.	.	.	.	.	.	.	.	.	.	.	.	.	.	.	.	8c/J	.	8g\J	.	.	.	.	.
!	!	!	!	!	!	!	!LO:TX:b:t=Verte	!	!	!	!	!	!	!	!	!	!	!	!	!	!	!	!
.	.	.	16c/Jk	.	.	.	.	.	.	.	.	.	.	.	.	.	.	.	.	.	.	.	.
*	*	*	*Xrep	*	*	*	*	*	*	*	*	*	*	*	*	*Xrep	*	*Xrep	*	*	*	*	*
!	!	!	!LO:LB:g=original	!	!	!	!LO:LB:g=original	!	!	!	!	!	!	!	!	!	!	!	!	!	!	!	!
=75	=75	=75	=75	=75	=75	=75	=75	=75	=75	=75	=75	=75	=75	=75	=75	=75	=75	=75	=75	=75	=75	=75	=75
*	*	*	*	*	*	*	*	*	*	*	*	*	*	*	*	*	*	*	*	*tremolo	*	*	*
4F\	x 5_ 3_	.	8.f/L	.	1ryy	.	4F\	quo-	.	1ryy	4f\	Quo-	.	4a\	quo-	8r	.	8r	.	8a/L	.	8ff\L	.
.	.	.	.	.	.	.	.	.	.	.	.	.	.	.	.	8A/L	.	8f\L	.	8a/	.	8cc\	.
.	.	.	16c/Jk	.	.	.	.	.	.	.	.	.	.	.	.	.	.	.	.	.	.	.	.
*	*	*	*rep	*	*	*	*	*	*	*	*	*	*	*	*	*	*	*	*	*	*	*	*
8r	.	.	8.f/L	.	.	.	4F\	-ni-	.	.	4f\	-ni-	.	4a\	-ni-	8A/	.	8f\	.	8a/	.	8cc\	.
8C\	.	.	.	.	.	.	.	.	.	.	.	.	.	.	.	8A/J	.	8f\J	.	8a/J	.	8cc\J	.
.	.	.	16c/Jk	.	.	.	.	.	.	.	.	.	.	.	.	.	.	.	.	.	.	.	.
*	*	*	*Xrep	*	*	*	*	*	*	*	*	*	*	*	*	*	*	*	*	*Xtremolo	*	*	*
*	*	*	*rep	*	*	*	*	*	*	*	*	*	*	*	*	*	*	*	*	*	*	*	*
4F\	.	.	8.f/L	.	.	.	4F\	-am	.	.	4f\	-am	.	4a\	-am	8r	.	8r	.	8r	.	8r	.
.	.	.	.	.	.	.	.	.	.	.	.	.	.	.	.	8A/L	.	8f\L	.	8a/L	.	8cc\L	.
.	.	.	16c/Jk	.	.	.	.	.	.	.	.	.	.	.	.	.	.	.	.	.	.	.	.
*	*	*	*Xrep	*	*	*	*	*	*	*	*	*	*	*	*	*	*	*	*	*	*	*	*
*	*	*	*rep	*	*	*	*	*	*	*	*	*	*	*	*	*	*	*	*	*	*	*	*
8r	.	.	8.f/L	.	.	.	4F\	tu	.	.	4f\	tu	.	4a\	tu	8A/	.	8f\	.	8a/	.	8cc\	.
8C\	.	.	.	.	.	.	.	.	.	.	.	.	.	.	.	8A/J	.	8f\J	.	8a/J	.	8cc\J	.
.	.	.	16c/Jk	.	.	.	.	.	.	.	.	.	.	.	.	.	.	.	.	.	.	.	.
*	*	*	*Xrep	*	*	*	*	*	*	*	*	*	*	*	*	*	*	*	*	*	*	*	*
=76	=76	=76	=76	=76	=76	=76	=76	=76	=76	=76	=76	=76	=76	=76	=76	=76	=76	=76	=76	=76	=76	=76	=76
4F\	.	.	8.a/L	.	1ryy	.	4F\	so-	.	1ryy	4f\	so-	.	4a\	so-	4A/	.	4f\	.	8r	.	8r	.
.	.	.	.	.	.	.	.	.	.	.	.	.	.	.	.	.	.	.	.	8a/L	.	8cc\L	.
.	.	.	16c/Jk	.	.	.	.	.	.	.	.	.	.	.	.	.	.	.	.	.	.	.	.
*	*	*	*rep	*	*	*	*	*	*	*	*	*	*	*	*	*	*	*	*	*	*	*	*
4A\	.	.	8.a/L	.	.	.	4c\	-lus	.	.	4f\	-lus	.	4a\	-lus	4c/	.	4cc\	.	8a/	.	8cc\	.
.	.	.	.	.	.	.	.	.	.	.	.	.	.	.	.	.	.	.	.	8a/J	.	8cc\J	.
.	.	.	16c/Jk	.	.	.	.	.	.	.	.	.	.	.	.	.	.	.	.	.	.	.	.
*	*	*	*Xrep	*	*	*	*	*	*	*	*	*	*	*	*	*	*	*	*	*	*	*	*
*	*	*	*rep	*	*	*	*	*	*	*	*	*	*	*	*	*	*	*	*	*	*	*	*
4c\	.	.	8.a/L	.	.	.	4A\	san-	.	.	4f\	San-	.	4a\	san-	4A/	.	4a\	.	8r	.	8r	.
.	.	.	.	.	.	.	.	.	.	.	.	.	.	.	.	.	.	.	.	8a/L	.	8cc\L	.
.	.	.	16c/Jk	.	.	.	.	.	.	.	.	.	.	.	.	.	.	.	.	.	.	.	.
*	*	*	*Xrep	*	*	*	*	*	*	*	*	*	*	*	*	*	*	*	*	*	*	*	*
*	*	*	*rep	*	*	*	*	*	*	*	*	*	*	*	*	*	*	*	*	*	*	*	*
4F\	.	.	8.a/L	.	.	.	4F\	-ctus	.	.	4f\	-ctus	.	4a\	-ctus	4F/	.	4f\	.	8a/	.	8cc\	.
.	.	.	.	.	.	.	.	.	.	.	.	.	.	.	.	.	.	.	.	8a/J	.	8cc\J	.
.	.	.	16c/Jk	.	.	.	.	.	.	.	.	.	.	.	.	.	.	.	.	.	.	.	.
*	*	*	*Xrep	*	*	*	*	*	*	*	*	*	*	*	*	*	*	*	*	*	*	*	*
!	!	!	!	!	!	!	!	!	!	!	!	!	!	!	!	!LO:LB:g=original	!	!	!	!LO:LB:g=original	!	!LO:LB:g=original	!
=77	=77	=77	=77	=77	=77	=77	=77	=77	=77	=77	=77	=77	=77	=77	=77	=77	=77	=77	=77	=77	=77	=77	=77
4E\	x 6_ 5_	.	8.g/L	.	1ryy	.	4E\	al-	.	1ryy	4g\	al-	.	4b-\	al-	8r	.	8r	.	8r	.	8r	.
.	.	.	.	.	.	.	.	.	.	.	.	.	.	.	.	8c/L	.	8g\L	.	8b-\L	.	8cc\L	.
.	.	.	16c/Jk	.	.	.	.	.	.	.	.	.	.	.	.	.	.	.	.	.	.	.	.
*	*	*	*rep	*	*	*	*	*	*	*	*	*	*	*	*	*	*	*	*	*	*	*	*
8r	.	.	8.g/L	.	.	.	4E\	-ti-	.	.	4g\	-ti-	.	4b-\	-tis-	8c/	.	8g\	.	8b-\	.	8cc\	.
8C\	.	.	.	.	.	.	.	.	.	.	.	.	.	.	.	8c/J	.	8g\J	.	8b-\J	.	8cc\J	.
.	.	.	16c/Jk	.	.	.	.	.	.	.	.	.	.	.	.	.	.	.	.	.	.	.	.
*	*	*	*Xrep	*	*	*	*	*	*	*	*	*	*	*	*	*	*	*	*	*	*	*	*
*	*	*	*rep	*	*	*	*	*	*	*	*	*	*	*	*	*	*	*	*	*	*	*	*
4E\	.	.	8.g/L	.	.	.	4E\	-si-	.	.	4g\	-si-	.	4b-\	-si-	8r	.	8r	.	8r	.	8r	.
.	.	.	.	.	.	.	.	.	.	.	.	.	.	.	.	8c/L	.	8g\L	.	8b-\L	.	8cc\L	.
.	.	.	16c/Jk	.	.	.	.	.	.	.	.	.	.	.	.	.	.	.	.	.	.	.	.
*	*	*	*Xrep	*	*	*	*	*	*	*	*	*	*	*	*	*	*	*	*	*	*	*	*
*	*	*	*rep	*	*	*	*	*	*	*	*	*	*	*	*	*	*	*	*	*	*	*	*
8r	.	.	8.g/L	.	.	.	4E\	-mus	.	.	4g\	-mus	.	4b-\	-mus	8c/	.	8g\	.	8b-\	.	8cc\	.
8C\	.	.	.	.	.	.	.	.	.	.	.	.	.	.	.	8c/J	.	8g\J	.	8b-\J	.	8cc\J	.
.	.	.	16c/Jk	.	.	.	.	.	.	.	.	.	.	.	.	.	.	.	.	.	.	.	.
*	*	*	*Xrep	*	*	*	*	*	*	*	*	*	*	*	*	*	*	*	*	*	*	*	*
!	!	!	!	!	!	!	!	!	!	!	!LO:LB:g=original	!	!	!	!	!	!	!	!	!	!	!	!
=78	=78	=78	=78	=78	=78	=78	=78	=78	=78	=78	=78	=78	=78	=78	=78	=78	=78	=78	=78	=78	=78	=78	=78
*	*	*	*	*	*	*	*	*	*	*	*	*	*	*	*	*	*	*rep	*	*	*	*	*
4C\	.	.	8.b-/L	.	1ryy	.	4E\	Je-	.	1ryy	4g\	Je-	.	4b-\	Je-	8r	.	8r	.	4b-\	.	4ee\	.
.	.	.	.	.	.	.	.	.	.	.	.	.	.	.	.	8c/L	.	8g\L	.	.	.	.	.
.	.	.	16c/Jk	.	.	.	.	.	.	.	.	.	.	.	.	.	.	.	.	.	.	.	.
*	*	*	*rep	*	*	*	*	*	*	*	*	*	*	*	*	*	*	*	*	*	*	*	*
4E\	.	.	8.b-/L	.	.	.	4G\	-su	.	.	4g\	-su	.	4b-\	-su	8c/	.	8g\	.	4b-\	.	4bb-\	.
.	.	.	.	.	.	.	.	.	.	.	.	.	.	.	.	8c/J	.	8g\J	.	.	.	.	.
.	.	.	16c/Jk	.	.	.	.	.	.	.	.	.	.	.	.	.	.	.	.	.	.	.	.
*	*	*	*Xrep	*	*	*	*	*	*	*	*	*	*	*	*	*	*	*	*	*	*	*	*
*	*	*	*rep	*	*	*	*	*	*	*	*	*	*	*	*	*	*	*	*	*	*	*	*
4G\	.	.	8.b-/L	.	.	.	4E\	Chri-	.	.	4g\	Chri-	.	4b-\	Chri-	8r	.	8r	.	4g/	.	4gg\	.
.	.	.	.	.	.	.	.	.	.	.	.	.	.	.	.	8c/L	.	8g\L	.	.	.	.	.
.	.	.	16c/Jk	.	.	.	.	.	.	.	.	.	.	.	.	.	.	.	.	.	.	.	.
*	*	*	*Xrep	*	*	*	*	*	*	*	*	*	*	*	*	*	*	*	*	*	*	*	*
*	*	*	*rep	*	*	*	*	*	*	*	*	*	*	*	*	*	*	*	*	*	*	*	*
4E\	.	.	8.b-/L	.	.	.	4C\	-ste	.	.	4g\	-ste	.	4b-\	-ste	8c/	.	8g\	.	4e/	.	4ee\	.
.	.	.	.	.	.	.	.	.	.	.	.	.	.	.	.	8c/J	.	8g\J	.	.	.	.	.
.	.	.	16c/Jk	.	.	.	.	.	.	.	.	.	.	.	.	.	.	.	.	.	.	.	.
*	*	*	*Xrep	*	*	*	*	*	*	*	*	*	*	*	*	*	*	*Xrep	*	*	*	*	*
=79	=79	=79	=79	=79	=79	=79	=79	=79	=79	=79	=79	=79	=79	=79	=79	=79	=79	=79	=79	=79	=79	=79	=79
*tremolo	*	*	*tremolo	*	*	*	*	*	*	*	*	*	*	*	*	*tremolo	*	*tremolo	*	*	*	*	*
!	!	!LO:DY:rj	!	!	!	!	!	!	!	!	!	!	!	!	!	!	!LO:DY:rj	!	!	!	!LO:DY:rj	!	!
8D-X\L	8 -5 3	ff	16aa-X\LL	ff	1ryy	.	4D-X\	Cum	.	1ryy	1a-X	Cum	ff	1ff	Cum	8F/L	ff	8f\L	ff	1cc#X	ff	1aa-X	ff
.	.	.	16aa-\	.	.	.	.	.	.	.	.	.	.	.	.	.	.	.	.	.	.	.	.
8D-\	.	.	16aa-\	.	.	.	.	.	.	.	.	.	.	.	.	8F/	.	8f\	.	.	.	.	.
.	.	.	16aa-\	.	.	.	.	.	.	.	.	.	.	.	.	.	.	.	.	.	.	.	.
8D-\	.	.	16aa-\	.	.	.	2.d-X\	.	.	.	.	.	.	.	.	8F/	.	8f\	.	.	.	.	.
.	.	.	16aa-\	.	.	.	.	.	.	.	.	.	.	.	.	.	.	.	.	.	.	.	.
8D-\J	.	.	16aa-\	.	.	.	.	.	.	.	.	.	.	.	.	8F/J	.	8f\J	.	.	.	.	.
.	.	.	16aa-\	.	.	.	.	.	.	.	.	.	.	.	.	.	.	.	.	.	.	.	.
!LO:TX:a:i:t=Pleno	!	!	!	!	!	!	!	!	!	!	!	!	!	!	!	!	!	!	!	!	!	!	!
8D-\L	.	.	16aa-\	.	.	.	.	.	.	.	.	.	.	.	.	8F/L	.	8f\L	.	.	.	.	.
.	.	.	16aa-\	.	.	.	.	.	.	.	.	.	.	.	.	.	.	.	.	.	.	.	.
8D-\	.	.	16aa-\	.	.	.	.	.	.	.	.	.	.	.	.	8F/	.	8f\	.	.	.	.	.
.	.	.	16aa-\	.	.	.	.	.	.	.	.	.	.	.	.	.	.	.	.	.	.	.	.
8D-\	.	.	16aa-\	.	.	.	.	.	.	.	.	.	.	.	.	8F/	.	8f\	.	.	.	.	.
.	.	.	16aa-\	.	.	.	.	.	.	.	.	.	.	.	.	.	.	.	.	.	.	.	.
8D-\J	.	.	16aa-\	.	.	.	.	.	.	.	.	.	.	.	.	8F/J	.	8f\J	.	.	.	.	.
.	.	.	16aa-\JJ	.	.	.	.	.	.	.	.	.	.	.	.	.	.	.	.	.	.	.	.
*Xtremolo	*	*	*Xtremolo	*	*	*	*	*	*	*	*	*	*	*	*	*Xtremolo	*	*Xtremolo	*	*	*	*	*
!LO:LB:g=original	!	!	!	!	!	!	!	!	!	!	!	!	!	!	!	!	!	!	!	!	!	!	!
=80	=80	=80	=80	=80	=80	=80	=80	=80	=80	=80	=80	=80	=80	=80	=80	=80	=80	=80	=80	=80	=80	=80	=80
4D-X\	-5_ 3_	.	4aa-X\	.	1ryy	.	4d-X\	San-	.	1ryy	4a-X\	San-	.	4ff\	San-	4F/	.	4f\	.	4cc#X\	.	4aa-X\	.
4C\	.	.	4aa-\	.	.	.	4c\	-cto	.	.	4a-\	-cto	.	4ff\	-cto	4F/	.	4f\	.	4ccn\	.	4aa-\	.
4BBn\	.	.	4aa-\	.	.	.	4Bn\	Spi-	.	.	4a-\	Spi-	.	4ff\	Spi-	4F/	.	4f\	.	4bn\	.	4aa-\	.
4Dn\	.	.	4aa-\	.	.	.	4dn\	-ri-	.	.	4a-\	-ri-	.	4ff\	-ri-	4F/	.	4f\	.	4dd\	.	4aa-\	.
!	!	!	!	!	!	!	!	!	!	!	!	!	!	!LO:LB:g=original	!	!	!	!	!	!	!	!	!
=81	=81	=81	=81	=81	=81	=81	=81	=81	=81	=81	=81	=81	=81	=81	=81	=81	=81	=81	=81	=81	=81	=81	=81
*tremolo	*	*	*	*	*	*	*	*	*	*	*	*	*	*	*	*	*	*	*	*	*	*	*
8C/L	n6_ 4	.	8aan\L	.	1ryy	.	4c\	-tu	.	1ryy	4an\	-tu	.	4ff\	-tu	1A	.	1f	.	4cc\	.	4aan\	.
8C/	.	.	16aa\L	.	.	.	.	.	.	.	.	.	.	.	.	.	.	.	.	.	.	.	.
.	.	.	16aa\JJ	.	.	.	.	.	.	.	.	.	.	.	.	.	.	.	.	.	.	.	.
8C/	.	.	8aa\L	.	.	.	8c\	in	.	.	8a\	in	.	8ff\	in	.	.	.	.	4c/	.	4cc\	.
8C/J	.	.	16ff\L	.	.	.	8c\	glo-	.	.	8a\	glo-	.	8ff\	glo-	.	.	.	.	.	.	.	.
.	.	.	16ff\JJ	.	.	.	.	.	.	.	.	.	.	.	.	.	.	.	.	.	.	.	.
8C/L	.	.	8ff\L	.	.	.	4c\	-ri-	.	.	4a\	-ri-	.	4ff\	-ri-	.	.	.	.	4f/	.	4ff\	.
8C/	.	.	16cc\L	.	.	.	.	.	.	.	.	.	.	.	.	.	.	.	.	.	.	.	.
.	.	.	16cc\JJ	.	.	.	.	.	.	.	.	.	.	.	.	.	.	.	.	.	.	.	.
8C/	.	.	8cc\L	.	.	.	4c\	-a	.	.	4a\	-a	.	4ff\	-a	.	.	.	.	4a/	.	4aa\	.
8C/J	.	.	16a\L	.	.	.	.	.	.	.	.	.	.	.	.	.	.	.	.	.	.	.	.
.	.	.	16a\JJ	.	.	.	.	.	.	.	.	.	.	.	.	.	.	.	.	.	.	.	.
=82	=82	=82	=82	=82	=82	=82	=82	=82	=82	=82	=82	=82	=82	=82	=82	=82	=82	=82	=82	=82	=82	=82	=82
8C/L	5_ 3	.	8b-L 8g/	.	1ryy	.	4c\	de-	.	1ryy	4b-\	De-	.	4ee\	De-	1c	.	1g	.	2cc\	.	2ccc\	.
8C/	.	.	16b-L 16g/	.	.	.	.	.	.	.	.	.	.	.	.	.	.	.	.	.	.	.	.
.	.	.	16b-JJ 16g/	.	.	.	.	.	.	.	.	.	.	.	.	.	.	.	.	.	.	.	.
*	*	*	*rep	*	*	*	*	*	*	*	*	*	*	*	*	*	*	*	*	*	*	*	*
8C/	.	.	8b-L 8g/	.	.	.	4c\	-i	.	.	4b-\	-i	.	4ee\	-i	.	.	.	.	.	.	.	.
8C/J	.	.	16b-L 16g/	.	.	.	.	.	.	.	.	.	.	.	.	.	.	.	.	.	.	.	.
.	.	.	16b-JJ 16g/	.	.	.	.	.	.	.	.	.	.	.	.	.	.	.	.	.	.	.	.
*	*	*	*Xrep	*	*	*	*	*	*	*	*	*	*	*	*	*	*	*	*	*	*	*	*
*	*	*	*rep	*	*	*	*	*	*	*	*	*	*	*	*	*	*	*	*	*	*	*	*
8C/L	.	.	8b-L 8g/	.	.	.	4c\	pa-	.	.	4b-\	pa-	.	4ee\	pa-	.	.	.	.	2b-X\	.	2ee\	.
8C/	.	.	16b-L 16g/	.	.	.	.	.	.	.	.	.	.	.	.	.	.	.	.	.	.	.	.
.	.	.	16b-JJ 16g/	.	.	.	.	.	.	.	.	.	.	.	.	.	.	.	.	.	.	.	.
*	*	*	*Xrep	*	*	*	*	*	*	*	*	*	*	*	*	*	*	*	*	*	*	*	*
*	*	*	*rep	*	*	*	*	*	*	*	*	*	*	*	*	*	*	*	*	*	*	*	*
8C/	.	.	8b-L 8g/	.	.	.	4c\	-tris	.	.	4b-\	-tris	.	4ee\	-tris	.	.	.	.	.	.	.	.
8C/J	.	.	16b-L 16g/	.	.	.	.	.	.	.	.	.	.	.	.	.	.	.	.	.	.	.	.
.	.	.	16b-JJ 16g/	.	.	.	.	.	.	.	.	.	.	.	.	.	.	.	.	.	.	.	.
*	*	*	*Xrep	*	*	*	*	*	*	*	*	*	*	*	*	*	*	*	*	*	*	*	*
!	!	!	!LO:LB:g=original	!	!	!	!LO:PB:g=original	!	!	!	!	!	!	!	!	!	!	!	!	!	!	!	!
=83	=83	=83	=83	=83	=83	=83	=83	=83	=83	=83	=83	=83	=83	=83	=83	=83	=83	=83	=83	=83	=83	=83	=83
*	*	*	*tremolo	*	*	*	*	*	*	*	*	*	*	*	*	*	*	*tremolo	*	*	*	*	*
8D-X\L	-5_ 3_	.	16aa-X\LL	.	1ryy	.	1d-X	Cum	.	1ryy	1a-X	Cum	ff	1ff	Cum	8F/L	.	8f\L	.	1cc#X	ff	1aa-X	.
.	.	.	16aa-\	.	.	.	.	.	.	.	.	.	.	.	.	.	.	.	.	.	.	.	.
8D-\	.	.	16aa-\	.	.	.	.	.	.	.	.	.	.	.	.	8F/	.	8f\	.	.	.	.	.
.	.	.	16aa-\	.	.	.	.	.	.	.	.	.	.	.	.	.	.	.	.	.	.	.	.
8D-\	.	.	16aa-\	.	.	.	.	.	.	.	.	.	.	.	.	8F/	.	8f\	.	.	.	.	.
.	.	.	16aa-\	.	.	.	.	.	.	.	.	.	.	.	.	.	.	.	.	.	.	.	.
8D-\J	.	.	16aa-\	.	.	.	.	.	.	.	.	.	.	.	.	8F/J	.	8f\J	.	.	.	.	.
.	.	.	16aa-\	.	.	.	.	.	.	.	.	.	.	.	.	.	.	.	.	.	.	.	.
8D-\L	.	.	16aa-\	.	.	.	.	.	.	.	.	.	.	.	.	8F/L	.	8f\L	.	.	.	.	.
.	.	.	16aa-\	.	.	.	.	.	.	.	.	.	.	.	.	.	.	.	.	.	.	.	.
8D-\	.	.	16aa-\	.	.	.	.	.	.	.	.	.	.	.	.	8F/	.	8f\	.	.	.	.	.
.	.	.	16aa-\	.	.	.	.	.	.	.	.	.	.	.	.	.	.	.	.	.	.	.	.
8D-\	.	.	16aa-\	.	.	.	.	.	.	.	.	.	.	.	.	8F/	.	8f\	.	.	.	.	.
.	.	.	16aa-\	.	.	.	.	.	.	.	.	.	.	.	.	.	.	.	.	.	.	.	.
8D-\J	.	.	16aa-\	.	.	.	.	.	.	.	.	.	.	.	.	8F/J	.	8f\J	.	.	.	.	.
.	.	.	16aa-\JJ	.	.	.	.	.	.	.	.	.	.	.	.	.	.	.	.	.	.	.	.
*Xtremolo	*	*	*Xtremolo	*	*	*	*	*	*	*	*	*	*	*	*	*	*	*Xtremolo	*	*	*	*	*
=84	=84	=84	=84	=84	=84	=84	=84	=84	=84	=84	=84	=84	=84	=84	=84	=84	=84	=84	=84	=84	=84	=84	=84
4D-X\	.	.	4aa-X\	.	1ryy	.	4d-X\	San-	.	1ryy	4a-X\	San-	.	4ff\	San-	4F/	.	4f\	.	4cc#X\	.	4aa-X\	.
4C\	.	.	4aa-\	.	.	.	4c\	-cto	.	.	4a-\	-cto	.	4ff\	-cto	4F/	.	4f\	.	4ccn\	.	4aa-\	.
4BBn\	.	.	4aa-\	.	.	.	4Bn\	Spi-	.	.	4a-\	Spi-	.	4ff\	Spi-	4F/	.	4f\	.	4bn\	.	4aa-\	.
4Dn\	.	.	4aa-\	.	.	.	4dn\	-ri-	.	.	4a-\	-ri-	.	4ff\	-ri-	4F/	.	4f\	.	4dd\	.	4aa-\	.
!	!	!	!	!	!	!	!	!	!	!	!LO:LB:g=original	!	!	!	!	!	!	!LO:LB:g=original	!	!	!	!	!
=85	=85	=85	=85	=85	=85	=85	=85	=85	=85	=85	=85	=85	=85	=85	=85	=85	=85	=85	=85	=85	=85	=85	=85
*tremolo	*	*	*	*	*	*	*	*	*	*	*	*	*	*	*	*	*	*	*	*	*	*	*
8C/L	n6_ 4_	.	8aan\L	.	1ryy	.	4c\	-tu	.	1ryy	4an\	-tu	.	4ff\	-tu	1A	.	1f	.	4cc\	.	4aan\	.
8C/	.	.	16aa\L	.	.	.	.	.	.	.	.	.	.	.	.	.	.	.	.	.	.	.	.
.	.	.	16aa\JJ	.	.	.	.	.	.	.	.	.	.	.	.	.	.	.	.	.	.	.	.
8C/	.	.	8aa\L	.	.	.	8c\	in	.	.	8a\	in	.	8ff\	in	.	.	.	.	4c/	.	4cc\	.
8C/J	.	.	16ff\L	.	.	.	8c\	glo-	.	.	8a\	Glo-	.	8ff\	glo-	.	.	.	.	.	.	.	.
.	.	.	16ff\JJ	.	.	.	.	.	.	.	.	.	.	.	.	.	.	.	.	.	.	.	.
8C/L	.	.	8ff\L	.	.	.	4c\	-ri-	.	.	4a\	-ri-	.	4ff\	-ri-	.	.	.	.	4f/	.	4ff\	.
8C/	.	.	16cc\L	.	.	.	.	.	.	.	.	.	.	.	.	.	.	.	.	.	.	.	.
.	.	.	16cc\JJ	.	.	.	.	.	.	.	.	.	.	.	.	.	.	.	.	.	.	.	.
8C/	.	.	8cc\L	.	.	.	4c\	-a	.	.	4a\	-a	.	4ff\	-a	.	.	.	.	4a/	.	4aa\	.
8C/J	.	.	16a\L	.	.	.	.	.	.	.	.	.	.	.	.	.	.	.	.	.	.	.	.
.	.	.	16a\JJ	.	.	.	.	.	.	.	.	.	.	.	.	.	.	.	.	.	.	.	.
!	!	!	!	!	!	!	!	!	!	!	!	!	!	!	!	!	!	!	!	!LO:LB:g=original	!	!	!
=86	=86	=86	=86	=86	=86	=86	=86	=86	=86	=86	=86	=86	=86	=86	=86	=86	=86	=86	=86	=86	=86	=86	=86
8C/L	5 3_	.	8b-L 8g/	.	1ryy	.	4c\	de-	.	1ryy	4b-\	De-	.	4ee\	De-	1c	.	1g	.	2cc\	.	2ccc\	.
8C/	.	.	16b-L 16g/	.	.	.	.	.	.	.	.	.	.	.	.	.	.	.	.	.	.	.	.
.	.	.	16b-JJ 16g/	.	.	.	.	.	.	.	.	.	.	.	.	.	.	.	.	.	.	.	.
*	*	*	*rep	*	*	*	*	*	*	*	*	*	*	*	*	*	*	*	*	*	*	*	*
8C/	.	.	8b-L 8g/	.	.	.	4c\	-i	.	.	4b-\	-i	.	4ee\	-i	.	.	.	.	.	.	.	.
8C/J	.	.	16b-L 16g/	.	.	.	.	.	.	.	.	.	.	.	.	.	.	.	.	.	.	.	.
.	.	.	16b-JJ 16g/	.	.	.	.	.	.	.	.	.	.	.	.	.	.	.	.	.	.	.	.
*	*	*	*Xrep	*	*	*	*	*	*	*	*	*	*	*	*	*	*	*	*	*	*	*	*
*	*	*	*rep	*	*	*	*	*	*	*	*	*	*	*	*	*	*	*	*	*	*	*	*
8C/L	.	.	8b-L 8g/	.	.	.	2c\	pa-	.	.	2b-\	pa-	.	2ee\	pa-	.	.	.	.	2b-\	.	2ee\	.
8C/	.	.	16b-L 16g/	.	.	.	.	.	.	.	.	.	.	.	.	.	.	.	.	.	.	.	.
.	.	.	16b-JJ 16g/	.	.	.	.	.	.	.	.	.	.	.	.	.	.	.	.	.	.	.	.
*	*	*	*Xrep	*	*	*	*	*	*	*	*	*	*	*	*	*	*	*	*	*	*	*	*
*	*	*	*rep	*	*	*	*	*	*	*	*	*	*	*	*	*	*	*	*	*	*	*	*
8C/	.	.	8b-L 8g/	.	.	.	.	.	.	.	.	.	.	.	.	.	.	.	.	.	.	.	.
8C/J	.	.	16b-L 16g/	.	.	.	.	.	.	.	.	.	.	.	.	.	.	.	.	.	.	.	.
.	.	.	16b-JJ 16g/	.	.	.	.	.	.	.	.	.	.	.	.	.	.	.	.	.	.	.	.
*	*	*	*Xrep	*	*	*	*	*	*	*	*	*	*	*	*	*	*	*	*	*	*	*	*
!	!	!	!	!	!	!	!	!	!	!	!	!	!	!	!	!	!	!	!	!	!	!LO:LB:g=original	!
=87	=87	=87	=87	=87	=87	=87	=87	=87	=87	=87	=87	=87	=87	=87	=87	=87	=87	=87	=87	=87	=87	=87	=87
*	*	*	*tremolo	*	*	*	*	*	*	*	*	*	*	*	*	*	*	*	*	*	*	*	*
8F\L	x 3	.	16aLL 16f/	ff	1ryy	.	4F\	-tris	.	1ryy	4a\	-tris	.	4ff\	-tris	4A/	.	4f\	.	4a\	.	4ff\	.
.	.	.	16a 16f/	.	.	.	.	.	.	.	.	.	.	.	.	.	.	.	.	.	.	.	.
8C\	.	.	16a 16f/	.	.	.	.	.	.	.	.	.	.	.	.	.	.	.	.	.	.	.	.
.	.	.	16a 16f/	.	.	.	.	.	.	.	.	.	.	.	.	.	.	.	.	.	.	.	.
8F\	.	.	16a 16f/	.	.	.	4r	.	.	.	4r	.	.	4r	.	4r	.	4r	.	4r	.	4r	.
.	.	.	16a 16f/	.	.	.	.	.	.	.	.	.	.	.	.	.	.	.	.	.	.	.	.
8C\J	.	.	16a 16f/	.	.	.	.	.	.	.	.	.	.	.	.	.	.	.	.	.	.	.	.
.	.	.	16a 16f/	.	.	.	.	.	.	.	.	.	.	.	.	.	.	.	.	.	.	.	.
8F\L	.	.	16a 16f/	.	.	.	2r	.	.	.	2r	.	.	2r	.	2r	.	2r	.	2r	.	2r	.
.	.	.	16a 16f/	.	.	.	.	.	.	.	.	.	.	.	.	.	.	.	.	.	.	.	.
8C\	.	.	16a 16f/	.	.	.	.	.	.	.	.	.	.	.	.	.	.	.	.	.	.	.	.
.	.	.	16a 16f/	.	.	.	.	.	.	.	.	.	.	.	.	.	.	.	.	.	.	.	.
8F\	.	.	16a 16f/	.	.	.	.	.	.	.	.	.	.	.	.	.	.	.	.	.	.	.	.
.	.	.	16a 16f/	.	.	.	.	.	.	.	.	.	.	.	.	.	.	.	.	.	.	.	.
8C\J	.	.	16a 16f/	.	.	.	.	.	.	.	.	.	.	.	.	.	.	.	.	.	.	.	.
.	.	.	16aJJ 16f/	.	.	.	.	.	.	.	.	.	.	.	.	.	.	.	.	.	.	.	.
!LO:LB:g=original	!	!	!	!	!	!	!	!	!	!	!	!	!	!	!	!	!	!	!	!	!	!	!
=88	=88	=88	=88	=88	=88	=88	=88	=88	=88	=88	=88	=88	=88	=88	=88	=88	=88	=88	=88	=88	=88	=88	=88
8E\L	5 3	.	16b-LL 16g/	.	1ryy	.	1c	a-	.	1ryy	1b-	a-	.	1ee	a-	2c/	.	2g\	.	1ee	.	1bb-	.
.	.	.	16b- 16g/	.	.	.	.	.	.	.	.	.	.	.	.	.	.	.	.	.	.	.	.
8C\	.	.	16b- 16g/	.	.	.	.	.	.	.	.	.	.	.	.	.	.	.	.	.	.	.	.
.	.	.	16b- 16g/	.	.	.	.	.	.	.	.	.	.	.	.	.	.	.	.	.	.	.	.
8E\	.	.	16b- 16g/	.	.	.	.	.	.	.	.	.	.	.	.	.	.	.	.	.	.	.	.
.	.	.	16b- 16g/	.	.	.	.	.	.	.	.	.	.	.	.	.	.	.	.	.	.	.	.
8C\J	.	.	16b- 16g/	.	.	.	.	.	.	.	.	.	.	.	.	.	.	.	.	.	.	.	.
.	.	.	16b- 16g/	.	.	.	.	.	.	.	.	.	.	.	.	.	.	.	.	.	.	.	.
8E\L	.	.	16b- 16g/	.	.	.	.	.	.	.	.	.	.	.	.	2c/	.	2g\	.	.	.	.	.
.	.	.	16b- 16g/	.	.	.	.	.	.	.	.	.	.	.	.	.	.	.	.	.	.	.	.
8C\	.	.	16b- 16g/	.	.	.	.	.	.	.	.	.	.	.	.	.	.	.	.	.	.	.	.
.	.	.	16b- 16g/	.	.	.	.	.	.	.	.	.	.	.	.	.	.	.	.	.	.	.	.
8E\	.	.	16b- 16g/	.	.	.	.	.	.	.	.	.	.	.	.	.	.	.	.	.	.	.	.
.	.	.	16b- 16g/	.	.	.	.	.	.	.	.	.	.	.	.	.	.	.	.	.	.	.	.
8C\J	.	.	16b- 16g/	.	.	.	.	.	.	.	.	.	.	.	.	.	.	.	.	.	.	.	.
.	.	.	16b-JJ 16g/	.	.	.	.	.	.	.	.	.	.	.	.	.	.	.	.	.	.	.	.
!	!	!	!	!	!	!	!	!	!	!	!	!	!	!	!	!LO:LB:g=original	!	!	!	!	!	!	!
=89	=89	=89	=89	=89	=89	=89	=89	=89	=89	=89	=89	=89	=89	=89	=89	=89	=89	=89	=89	=89	=89	=89	=89
8F\L	3	.	16aLL 16f/	.	1ryy	.	4F\	-men	.	1ryy	4a\	-men	.	4ff\	-men	4A/	.	4f\	.	4cc\	.	4aa\	.
.	.	.	16a 16f/	.	.	.	.	.	.	.	.	.	.	.	.	.	.	.	.	.	.	.	.
8C\	.	.	16a 16f/	.	.	.	.	.	.	.	.	.	.	.	.	.	.	.	.	.	.	.	.
.	.	.	16a 16f/	.	.	.	.	.	.	.	.	.	.	.	.	.	.	.	.	.	.	.	.
8F\	.	.	16a 16f/	.	.	.	4r	.	.	.	4r	.	.	4r	.	4r	.	4r	.	4r	.	4r	.
.	.	.	16a 16f/	.	.	.	.	.	.	.	.	.	.	.	.	.	.	.	.	.	.	.	.
8C\J	.	.	16a 16f/	.	.	.	.	.	.	.	.	.	.	.	.	.	.	.	.	.	.	.	.
.	.	.	16a 16f/	.	.	.	.	.	.	.	.	.	.	.	.	.	.	.	.	.	.	.	.
8F\L	.	.	16a 16f/	.	.	.	2r	.	.	.	2r	.	.	2r	.	2r	.	2r	.	2r	.	2r	.
.	.	.	16a 16f/	.	.	.	.	.	.	.	.	.	.	.	.	.	.	.	.	.	.	.	.
8C\	.	.	16a 16f/	.	.	.	.	.	.	.	.	.	.	.	.	.	.	.	.	.	.	.	.
.	.	.	16a 16f/	.	.	.	.	.	.	.	.	.	.	.	.	.	.	.	.	.	.	.	.
8F\	.	.	16a 16f/	.	.	.	.	.	.	.	.	.	.	.	.	.	.	.	.	.	.	.	.
.	.	.	16a 16f/	.	.	.	.	.	.	.	.	.	.	.	.	.	.	.	.	.	.	.	.
8C\J	.	.	16a 16f/	.	.	.	.	.	.	.	.	.	.	.	.	.	.	.	.	.	.	.	.
.	.	.	16aJJ 16f/	.	.	.	.	.	.	.	.	.	.	.	.	.	.	.	.	.	.	.	.
!	!	!	!	!	!	!	!	!	!	!	!	!	!	!LO:LB:g=original	!	!	!	!	!	!	!	!	!
=90	=90	=90	=90	=90	=90	=90	=90	=90	=90	=90	=90	=90	=90	=90	=90	=90	=90	=90	=90	=90	=90	=90	=90
*	*	*	*	*	*	*	*	*ij	*	*	*	*	*	*	*	*	*	*	*	*	*	*	*
8E\L	5 3	.	16b-LL 16g/	.	1ryy	.	1c	a-	.	1ryy	1b-	a-	.	1ee	a-	2c/	.	2g\	.	1ee	.	1bb-	.
.	.	.	16b- 16g/	.	.	.	.	.	.	.	.	.	.	.	.	.	.	.	.	.	.	.	.
8C\	.	.	16b- 16g/	.	.	.	.	.	.	.	.	.	.	.	.	.	.	.	.	.	.	.	.
.	.	.	16b- 16g/	.	.	.	.	.	.	.	.	.	.	.	.	.	.	.	.	.	.	.	.
8E\	.	.	16b- 16g/	.	.	.	.	.	.	.	.	.	.	.	.	.	.	.	.	.	.	.	.
.	.	.	16b- 16g/	.	.	.	.	.	.	.	.	.	.	.	.	.	.	.	.	.	.	.	.
8C\J	.	.	16b- 16g/	.	.	.	.	.	.	.	.	.	.	.	.	.	.	.	.	.	.	.	.
.	.	.	16b- 16g/	.	.	.	.	.	.	.	.	.	.	.	.	.	.	.	.	.	.	.	.
8E\L	.	.	16b- 16g/	.	.	.	.	.	.	.	.	.	.	.	.	2c/	.	2g\	.	.	.	.	.
.	.	.	16b- 16g/	.	.	.	.	.	.	.	.	.	.	.	.	.	.	.	.	.	.	.	.
8C\	.	.	16b- 16g/	.	.	.	.	.	.	.	.	.	.	.	.	.	.	.	.	.	.	.	.
.	.	.	16b- 16g/	.	.	.	.	.	.	.	.	.	.	.	.	.	.	.	.	.	.	.	.
8E\	.	.	16b- 16g/	.	.	.	.	.	.	.	.	.	.	.	.	.	.	.	.	.	.	.	.
.	.	.	16b- 16g/	.	.	.	.	.	.	.	.	.	.	.	.	.	.	.	.	.	.	.	.
8C\J	.	.	16b- 16g/	.	.	.	.	.	.	.	.	.	.	.	.	.	.	.	.	.	.	.	.
.	.	.	16b-JJ 16g/	.	.	.	.	.	.	.	.	.	.	.	.	.	.	.	.	.	.	.	.
*Xtremolo	*	*	*Xtremolo	*	*	*	*	*	*	*	*	*	*	*	*	*	*	*	*	*	*	*	*
=91	=91	=91	=91	=91	=91	=91	=91	=91	=91	=91	=91	=91	=91	=91	=91	=91	=91	=91	=91	=91	=91	=91	=91
4F\	3	.	4a 4f/	.	1ryy	.	4F\	-men	.	1ryy	4a\	-men	.	4ff\	-men	4A/	.	4f\	.	4cc\	.	4aa\	.
*	*	*	*	*	*	*	*	*Xij	*	*	*	*	*	*	*	*	*	*	*	*	*	*	*
8.r	.	.	8.r	.	.	.	4r	.	.	.	4r	.	.	4r	.	8.r	.	8.r	.	8.r	.	8.r	.
16F\	.	.	16cc 16f/	.	.	.	.	.	.	.	.	.	.	.	.	16A/	.	16f\	.	16cc\	.	16aa\	.
4C/	.	.	4cc 4f/	.	.	.	2r	.	.	.	2r	.	.	2r	.	4A/	.	4f\	.	4cc\	.	4aa\	.
4AA/	.	.	4cc 4f/	.	.	.	.	.	.	.	.	.	.	.	.	4A/	.	4f\	.	4cc\	.	4aa\	.
=92	=92	=92	=92	=92	=92	=92	=92	=92	=92	=92	=92	=92	=92	=92	=92	=92	=92	=92	=92	=92	=92	=92	=92
!	!	!	!	!	!	!	!LO:TX:a:t=2	!	!	!	!LO:TX:a:t=2	!	!	!LO:TX:a:t=2	!	!	!	!	!	!	!	!	!
4FF/	.	.	4cc 4f/	.	1ryy	.	0r	.	.	1ryy	0r	.	.	0r	.	4A/	.	4f\	.	4cc\	.	4aa\	.
4r	.	.	4r	.	.	.	.	.	.	.	.	.	.	.	.	4r	.	4r	.	4r	.	4r	.
4FF/	.	.	4ff 4a\	.	.	.	.	.	.	.	.	.	.	.	.	4A/	.	4f\	.	4aa\	.	4ccc\	.
4r	.	.	4r	.	.	.	.	.	.	.	.	.	.	.	.	4r	.	4r	.	4r	.	4r	.
=93	=93	=93	=93	=93	=93	=93	=93	=93	=93	=93	=93	=93	=93	=93	=93	=93	=93	=93	=93	=93	=93	=93	=93
2FF/	.	.	2c;/	.	1ryy	.	.	.	.	1ryy	.	.	.	.	.	2A/	.	2f\	.	2a/	.	2ff\	.
2r	.	.	2ryy	.	.	.	.	.	.	.	.	.	.	.	.	2r	.	2r	.	2r	.	2r	.
==	==	==	==	==	==	==	==	==	==	==	==	==	==	==	==	==	==	==	==	==	==	==	==
*-	*-	*-	*-	*-	*-	*-	*-	*-	*-	*-	*-	*-	*-	*-	*-	*-	*-	*-	*-	*-	*-	*-	*-
!!!system-decoration: [(g1)][(g2)][(g3)][(g4)]s11
!!!RDF**kern: > = above
!!!RDF**kern: < = below
!!!RDF**kern: | = vertical stroke
!!!ENC: Mateusz Solarz
!!!END: 2021-11-18
!!!ENC: Marta Lawrence
!!!END: 2021-12-12
!!!YEC: Copyright 2022 Narodowy Instytut Fryderyka Chopina (https://polishscores.org)
!!!YEM: License CC-BY-4.0 (https://creativecommons.org/licenses/by/4.0)
